; generated by PrusaSlicer 2.7.1+win64 on 2024-04-05 at 11:35:31 UTC


;
;
; 

; external perimeters extrusion width = 0.45mm
; perimeters extrusion width = 0.45mm
; infill extrusion width = 0.45mm
; solid infill extrusion width = 0.45mm
; top infill extrusion width = 0.40mm
; support material extrusion width = 0.35mm
; first layer extrusion width = 0.42mm

; external perimeters extrusion width = 0.45mm
; perimeters extrusion width = 0.45mm
; infill extrusion width = 0.45mm
; solid infill extrusion width = 0.45mm
; top infill extrusion width = 0.40mm
; support material extrusion width = 0.35mm
; first layer extrusion width = 0.42mm

M73 P0 R10
M73 C5
M73 Q0 S10
M73 D5
M201 X1000 Y1000 Z200 E5000 ; sets maximum accelerations, mm/sec^2
M203 X200 Y200 Z12 E120 ; sets maximum feedrates, mm / sec
M204 S1250 T1250 ; sets acceleration (S) and retract acceleration (R), mm/sec^2
M205 X8.00 Y8.00 Z0.40 E4.50 ; sets the jerk limits, mm/sec
M205 S0 T0 ; sets the minimum extruding and travel feed rate, mm/sec

; printing object bearings_holder.STL id:0 copy 0
; stop printing object bearings_holder.STL id:0 copy 0
; printing object bearings_holder.STL id:1 copy 0
; stop printing object bearings_holder.STL id:1 copy 0

;TYPE:Custom
M862.3 P "MK3SMMU2S" ; printer model check
M862.1 P0.4 ; nozzle diameter check
M115 U3.13.3 ; tell printer latest fw version
G90 ; use absolute coordinates
M83 ; extruder relative mode
M104 S215 ; set extruder temp
M140 S60 ; set bed temp
Tx
M190 S60 ; wait for bed temp
M109 S215 ; wait for extruder temp
G28 W ; home all without mesh bed level
G80 X86.7255 Y88.2851 W47.9921 H34.4112 ; mesh bed levelling

;go outside print area
G1 Y-3 F1000
G1 Z0.4 F1000
; select extruder
Tc
; purge line
G1 X55 F2000
G1 Z0.3 F1000
M73 P0 R9
G92 E0
G1 X240 E25 F2200
G1 Y-2 F1000
M73 P1 R9
M73 Q1 S9
G1 X55 E25 F1400
G1 Z0.2 F1000
M73 P2 R9
M73 Q2 S9
G1 X5 E4 F1000

M221 S95
G92 E0

; Don't change E values below. Excessive value can damage the printer.
M907 E430 ; set extruder motor current
G21 ; set units to millimeters
G90 ; use absolute coordinates
M83 ; use relative distances for extrusion

M900 K0.05 ; Filament gcode LA 1.5
M900 K30 ; Filament gcode LA 1.0




M107
;LAYER_CHANGE
;Z:0.2
;HEIGHT:0.2
;BEFORE_LAYER_CHANGE
G92 E0.0
;0.2


G1 E-.8 F2100
M73 P3 R9
G1 Z.2 F720
M73 Q3 S9
;AFTER_LAYER_CHANGE
;0.2
G1 X90.29 Y91.705 F10800
G1 Z.2 F720
G1 E.8 F2100
M204 S800
;TYPE:Skirt/Brim
;WIDTH:0.42
G1 F1200
G1 X91.608 Y90.77 E.05067
G1 X92.878 Y90.146 E.04437
G1 X94.422 Y89.671 E.05065
G1 X95.247 Y89.529 E.02625
G1 X125.418 Y88.482 E.94656
G1 X126.823 Y88.647 E.04436
G1 X128.378 Y89.09 E.0507
G1 X129.835 Y89.789 E.05067
G1 X131.153 Y90.724 E.05067
G1 X132.294 Y91.869 E.05068
G1 X133.226 Y93.19 E.05069
G1 X133.92 Y94.649 E.05066
G1 X134.358 Y96.205 E.05068
G1 X134.529 Y97.913 E.05382
G1 X134.529 Y111.913 E.43896
G1 X134.422 Y113.425 E.04753
G1 X134.045 Y114.997 E.05069
G1 X133.409 Y116.482 E.05065
G1 X132.53 Y117.839 E.05069
G1 X131.284 Y119.161 E.05696
G1 X130.155 Y120.014 E.04437
G1 X128.727 Y120.77 E.05066
G1 X127.191 Y121.274 E.05069
G1 X125.8 Y121.495 E.04416
G1 X96.335 Y122.508 E.9244
G1 X95.32 Y122.441 E.03189
M73 P4 R9
M73 Q4 S9
G1 X94.252 Y122.254 E.034
G1 X92.322 Y121.572 E.06418
G1 X90.767 Y120.632 E.05697
G1 X90.008 Y120.008 E.03081
G1 X89.04 Y118.977 E.04434
G1 X88.133 Y117.639 E.05068
G1 X87.756 Y116.892 E.02624
G1 X87.271 Y115.563 E.04436
G1 X86.966 Y113.976 E.05067
G1 X86.914 Y112.894 E.03396
G1 X86.935 Y98.36 E.4557
G1 X87.176 Y96.762 E.05067
G1 X87.768 Y95.044 E.05698
G1 X88.218 Y94.171 E.03079
G1 X89.022 Y93.007 E.04436
G1 X90.248 Y91.748 E.0551
M204 S1000
;WIPE_START
G1 F8640
G1 X90.29 Y91.705 E-.01388
G1 X91.608 Y90.77 E-.37313
G1 X92.878 Y90.146 E-.32673
G1 X93.235 Y90.036 E-.08626
;WIPE_END
G1 Z.6 F720
G1 X92.058 Y93.702 F10800
G1 Z.2 F720
G1 E.8 F2100
M204 S800
G1 F1200
G1 X93.2 Y92.933 E.04317
G1 X94.459 Y92.41 E.04275
G1 X95.541 Y92.177 E.0347
G1 X96.355 Y92.119 E.02559
G1 X97.181 Y92.161 E.02593
G1 X98.495 Y92.433 E.04207
G1 X99.73 Y92.957 E.04206
G1 X100.884 Y93.749 E.04388
G1 X101.786 Y94.673 E.04049
G1 X102.439 Y95.642 E.03664
G1 X102.862 Y96.552 E.03146
G1 X103.137 Y97.466 E.02993
G1 X103.294 Y98.58 E.03527
G1 X103.258 Y99.787 E.03786
G1 X103.002 Y101 E.03887
G1 X102.517 Y102.174 E.03983
G1 X101.844 Y103.214 E.03884
G1 X100.974 Y104.136 E.03975
G1 X100.044 Y104.824 E.03627
G1 X99.258 Y105.239 E.02787
G1 X98.431 Y105.551 E.02771
G1 X97.03 Y105.819 E.04472
G1 X97.027 Y106.128 E.00969
G1 X98.527 Y106.444 E.04806
G1 X99.76 Y106.974 E.04208
G1 X100.876 Y107.743 E.04249
G1 X101.807 Y108.699 E.04184
G1 X102.453 Y109.668 E.03651
G1 X102.862 Y110.552 E.03054
G1 X103.137 Y111.466 E.02993
G1 X103.294 Y112.58 E.03527
G1 X103.262 Y113.751 E.03673
G1 X103.002 Y114.999 E.03997
G1 X102.514 Y116.18 E.04007
G1 X101.817 Y117.248 E.03999
G1 X100.948 Y118.159 E.03948
G1 X100.044 Y118.824 E.03519
G1 X99.258 Y119.239 E.02787
G1 X98.431 Y119.551 E.02771
G1 X97.033 Y119.818 E.04463
G1 X95.612 Y119.793 E.04456
G1 X94.447 Y119.546 E.03734
G1 X93.342 Y119.103 E.03733
G1 X92.386 Y118.516 E.03517
G1 X91.703 Y117.943 E.02795
G1 X91.073 Y117.255 E.02925
G1 X90.379 Y116.193 E.03978
G1 X89.865 Y114.934 E.04264
G1 X89.615 Y113.66 E.04071
G1 X89.609 Y112.356 E.04089
G1 X89.815 Y111.202 E.03675
G1 X90.195 Y110.142 E.03531
G1 X90.743 Y109.159 E.03529
G1 X91.327 Y108.407 E.02985
G1 X92.016 Y107.737 E.03013
G1 X93.157 Y106.957 E.04334
G1 X94.425 Y106.421 E.04316
G1 X95.796 Y106.156 E.04378
G1 X95.816 Y105.831 E.01021
M73 P5 R9
M73 Q5 S9
G1 X94.447 Y105.546 E.04384
G1 X93.314 Y105.088 E.03832
G1 X92.364 Y104.5 E.03503
G1 X91.686 Y103.927 E.02783
G1 X91.093 Y103.281 E.02749
G1 X90.381 Y102.197 E.04066
G1 X89.876 Y100.971 E.04157
G1 X89.619 Y99.706 E.04047
G1 X89.605 Y98.396 E.04108
G1 X89.801 Y97.254 E.03633
G1 X90.08 Y96.411 E.02784
G1 X90.457 Y95.623 E.02739
G1 X91.159 Y94.603 E.03882
G1 X92.016 Y93.745 E.03802
M204 S1000
;WIPE_START
G1 F8640
G1 X92.058 Y93.702 E-.01388
G1 X93.2 Y92.933 E-.3179
G1 X94.459 Y92.41 E-.31479
G1 X95.109 Y92.27 E-.15343
;WIPE_END
G1 Z.6 F720
G1 X94.84 Y106.713 F10800
G1 Z.2 F720
G1 E.8 F2100
M204 S800
G1 F1200
G1 X95.581 Y106.552 E.02378
G1 X96.37 Y106.496 E.0248
G1 X97.145 Y106.537 E.02433
G1 X98.397 Y106.798 E.0401
G1 X99.563 Y107.295 E.03974
G1 X100.62 Y108.02 E.04019
G1 X101.504 Y108.924 E.03964
G1 X102.117 Y109.84 E.03456
G1 X102.514 Y110.698 E.02964
G1 X102.771 Y111.56 E.0282
G1 X102.916 Y112.585 E.03246
G1 X102.886 Y113.724 E.03572
G1 X102.647 Y114.872 E.03677
G1 X102.188 Y115.99 E.03789
G1 X101.532 Y117.001 E.03779
G1 X100.71 Y117.865 E.03739
G1 X99.854 Y118.498 E.03338
G1 X99.114 Y118.891 E.02627
G1 X98.314 Y119.192 E.0268
G1 X96.983 Y119.444 E.04247
G1 X95.638 Y119.417 E.04218
G1 X94.542 Y119.181 E.03515
G1 X93.498 Y118.759 E.03531
G1 X92.596 Y118.203 E.03322
G1 X91.955 Y117.663 E.02628
G1 X91.38 Y117.036 E.02667
G1 X90.705 Y116.002 E.03872
G1 X90.231 Y114.842 E.03929
G1 X89.992 Y113.639 E.03846
G1 X89.983 Y112.404 E.03872
G1 X90.176 Y111.314 E.03471
G1 X90.545 Y110.284 E.0343
G1 X91.064 Y109.356 E.03334
G1 X91.616 Y108.649 E.02812
G1 X92.266 Y108.019 E.02838
G1 X93.353 Y107.279 E.04123
G1 X94.555 Y106.775 E.04087
G1 X94.781 Y106.726 E.00725
M204 S1000
G1 X94.862 Y107.094 F10800
M204 S800
G1 F1200
G1 X95.623 Y106.927 E.02443
G1 X97.111 Y106.913 E.04666
G1 X98.267 Y107.152 E.03701
G1 X99.367 Y107.618 E.03746
G1 X100.364 Y108.297 E.03782
G1 X101.201 Y109.149 E.03745
G1 X101.781 Y110.012 E.0326
G1 X102.166 Y110.843 E.02872
G1 X102.406 Y111.654 E.02652
G1 X102.539 Y112.591 E.02967
G1 X102.509 Y113.697 E.03469
G1 X102.281 Y114.777 E.03461
G1 X101.846 Y115.83 E.03572
G1 X101.246 Y116.755 E.03457
G1 X100.472 Y117.573 E.03531
G1 X99.665 Y118.171 E.03149
G1 X98.948 Y118.552 E.02546
G1 X98.197 Y118.833 E.02514
G1 X96.933 Y119.069 E.04032
G1 X95.665 Y119.04 E.03977
G1 X94.639 Y118.816 E.03293
G1 X93.682 Y118.429 E.03237
G1 X92.828 Y117.905 E.03142
G1 X92.208 Y117.382 E.02543
G1 X91.669 Y116.793 E.02503
G1 X91.031 Y115.812 E.03669
G1 X90.597 Y114.75 E.03597
G1 X90.368 Y113.617 E.03624
G1 X90.357 Y112.451 E.03656
G1 X90.536 Y111.425 E.03266
G1 X90.882 Y110.453 E.03235
G1 X91.371 Y109.576 E.03148
G1 X91.889 Y108.91 E.02645
G1 X92.493 Y108.321 E.02645
G1 X93.518 Y107.619 E.03895
G1 X94.653 Y107.14 E.03863
G1 X94.804 Y107.107 E.00485
M204 S1000
G1 X94.885 Y107.475 F10800
M204 S800
G1 F1200
G1 X95.664 Y107.302 E.02502
G1 X96.378 Y107.25 E.02245
G1 X97.076 Y107.288 E.02192
G1 X98.171 Y107.517 E.03508
G1 X99.201 Y107.957 E.03512
G1 X100.109 Y108.576 E.03446
G1 X100.899 Y109.375 E.03523
G1 X101.446 Y110.184 E.03062
G1 X101.817 Y110.989 E.02779
G1 X102.04 Y111.747 E.02477
G1 X102.162 Y112.597 E.02692
G1 X102.133 Y113.669 E.03362
G1 X101.916 Y114.681 E.03245
G1 X101.52 Y115.64 E.03253
M73 P6 R9
G1 X100.959 Y116.509 E.03243
M73 Q6 S9
G1 X100.233 Y117.28 E.0332
G1 X99.474 Y117.846 E.02969
G1 X98.804 Y118.203 E.0238
M73 C4
G1 X98.08 Y118.475 E.02425
G1 X96.921 Y118.692 E.03697
G1 X95.727 Y118.668 E.03744
G1 X94.764 Y118.46 E.03089
G1 X93.865 Y118.099 E.03038
G1 X93.059 Y117.607 E.02961
G1 X92.478 Y117.119 E.02379
G1 X91.958 Y116.55 E.02417
G1 X91.372 Y115.651 E.03365
G1 X90.963 Y114.656 E.03373
G1 X90.745 Y113.595 E.03396
G1 X90.732 Y112.498 E.0344
G1 X90.897 Y111.535 E.03063
G1 X91.22 Y110.622 E.03037
G1 X91.678 Y109.796 E.02961
G1 X92.179 Y109.152 E.02558
G1 X92.744 Y108.602 E.02472
G1 X93.683 Y107.958 E.0357
G1 X94.752 Y107.504 E.03642
G1 X94.827 Y107.488 E.0024
M204 S1000
G1 X94.909 Y107.855 F10800
M204 S800
G1 F1200
G1 X95.706 Y107.677 E.02561
G1 X97.041 Y107.664 E.04186
G1 X98.075 Y107.883 E.03314
G1 X99.005 Y108.28 E.03171
G1 X99.855 Y108.855 E.03218
G1 X100.597 Y109.602 E.03301
G1 X101.11 Y110.356 E.02859
G1 X101.469 Y111.134 E.02687
G1 X101.674 Y111.84 E.02305
G1 X101.784 Y112.603 E.02417
G1 X101.756 Y113.641 E.03256
G1 X101.552 Y114.584 E.03025
G1 X101.179 Y115.479 E.0304
G1 X100.653 Y116.289 E.03028
G1 X99.994 Y116.988 E.03012
G1 X99.284 Y117.52 E.02782
G1 X97.964 Y118.115 E.0454
G1 X96.872 Y118.318 E.03483
G1 X95.787 Y118.295 E.03403
G1 X94.888 Y118.104 E.02882
G1 X94.047 Y117.769 E.02838
G1 X93.291 Y117.309 E.02775
G1 X92.247 Y116.308 E.04535
G1 X91.699 Y115.462 E.0316
G1 X91.319 Y114.531 E.03153
G1 X91.118 Y113.538 E.03177
G1 X91.107 Y112.544 E.03117
G1 X91.259 Y111.644 E.02862
G1 X91.558 Y110.79 E.02837
G1 X91.985 Y110.015 E.02774
G1 X92.451 Y109.413 E.02387
G1 X92.995 Y108.884 E.02379
G1 X93.88 Y108.281 E.03358
G1 X94.85 Y107.869 E.03304
M204 S1000
G1 X94.951 Y108.232 F10800
M73 D4
M204 S800
G1 F1200
G1 X95.749 Y108.052 E.02565
G1 X96.385 Y108.004 E.02
G1 X97.005 Y108.04 E.01947
G1 X97.945 Y108.237 E.03011
G1 X98.811 Y108.603 E.02948
G1 X99.601 Y109.134 E.02985
G1 X100.296 Y109.83 E.03084
G1 X100.774 Y110.529 E.02655
G1 X101.12 Y111.278 E.02587
G1 X101.407 Y112.61 E.04272
G1 X101.384 Y113.58 E.03042
G1 X101.196 Y114.456 E.02809
G1 X100.852 Y115.289 E.02826
G1 X100.365 Y116.045 E.0282
G1 X99.754 Y116.697 E.02802
G1 X99.093 Y117.194 E.02593
G1 X97.848 Y117.756 E.04283
G1 X96.859 Y117.94 E.03154
G1 X95.847 Y117.923 E.03174
G1 X95.011 Y117.747 E.02679
G1 X94.228 Y117.438 E.02639
G1 X93.521 Y117.01 E.02591
G1 X92.537 Y116.066 E.04275
G1 X92.026 Y115.273 E.02958
G1 X91.675 Y114.406 E.02933
G1 X91.495 Y113.514 E.02853
G1 X91.481 Y112.588 E.02904
G1 X91.62 Y111.752 E.02657
G1 X91.896 Y110.957 E.02639
G1 X92.293 Y110.233 E.02589
G1 X92.724 Y109.674 E.02213
G1 X93.246 Y109.166 E.02284
G1 X94.046 Y108.62 E.03037
G1 X94.896 Y108.256 E.02899
M204 S1000
G1 X95.044 Y108.599 F10800
M204 S800
G1 F1200
G1 X95.053 Y108.596 E.0003
G1 X95.792 Y108.427 E.02377
G1 X96.969 Y108.415 E.03691
G1 X97.849 Y108.602 E.02821
G1 X98.645 Y108.942 E.02714
G1 X99.375 Y109.436 E.02764
G1 X99.995 Y110.058 E.02754
G1 X100.439 Y110.703 E.02455
G1 X100.762 Y111.397 E.024
G1 X101.031 Y112.648 E.04012
G1 X101.011 Y113.519 E.02732
G1 X100.841 Y114.33 E.02598
G1 X100.525 Y115.101 E.02613
G1 X100.077 Y115.8 E.02603
G1 X99.513 Y116.407 E.02598
G1 X98.901 Y116.869 E.02404
G1 X97.733 Y117.397 E.04019
G1 X96.81 Y117.566 E.02942
G1 X95.906 Y117.55 E.02835
G1 X95.133 Y117.39 E.02475
G1 X94.408 Y117.106 E.02441
G1 X93.752 Y116.712 E.02399
G1 X92.827 Y115.824 E.0402
G1 X92.368 Y115.114 E.02651
G1 X92.04 Y114.312 E.02717
G1 X91.872 Y113.49 E.02631
G1 X91.856 Y112.631 E.02694
G1 X91.982 Y111.859 E.02453
G1 X92.235 Y111.123 E.0244
G1 X92.601 Y110.45 E.02402
G1 X93.474 Y109.467 E.04122
G1 X94.213 Y108.958 E.02814
G1 X94.989 Y108.623 E.0265
M204 S1000
G1 X95.139 Y108.966 F10800
M204 S800
G1 F1200
M73 P7 R9
G1 X95.155 Y108.959 E.00055
G1 X96.392 Y108.758 E.03929
G1 X97.719 Y108.956 E.04207
G1 X98.45 Y109.266 E.0249
M73 Q7 S9
G1 X99.122 Y109.717 E.02538
G1 X99.696 Y110.287 E.02536
G1 X100.105 Y110.878 E.02254
G1 X100.404 Y111.517 E.02212
G1 X100.656 Y112.686 E.0375
G1 X100.638 Y113.46 E.02427
G1 X100.485 Y114.205 E.02385
G1 X100.197 Y114.914 E.02399
G1 X99.789 Y115.557 E.02388
G1 X99.271 Y116.117 E.02392
G1 X98.709 Y116.545 E.02215
G1 X97.617 Y117.038 E.03757
G1 X96.796 Y117.189 E.02617
G1 X95.963 Y117.177 E.02612
G1 X95.254 Y117.033 E.02268
G1 X94.587 Y116.774 E.02243
G1 X93.981 Y116.412 E.02213
G1 X93.117 Y115.583 E.03754
G1 X92.695 Y114.925 E.02451
G1 X92.406 Y114.218 E.02395
G1 X92.248 Y113.464 E.02415
G1 X92.232 Y112.673 E.02481
G1 X92.344 Y111.965 E.02247
G1 X92.575 Y111.288 E.02243
G1 X92.911 Y110.667 E.02214
G1 X93.272 Y110.192 E.01871
G1 X93.703 Y109.767 E.01898
G1 X94.381 Y109.296 E.02588
G1 X95.084 Y108.99 E.02404
M204 S1000
G1 X95.233 Y109.333 F10800
M204 S800
G1 F1200
G1 X95.258 Y109.322 E.00086
G1 X95.881 Y109.176 E.02006
G1 X96.896 Y109.166 E.03183
G1 X97.591 Y109.311 E.02226
G1 X98.257 Y109.59 E.02264
G1 X98.871 Y109.998 E.02311
G1 X99.397 Y110.518 E.02319
G1 X99.771 Y111.054 E.02049
G1 X100.047 Y111.637 E.02022
G1 X100.28 Y112.722 E.03479
G1 X100.262 Y113.433 E.0223
G1 X100.119 Y114.11 E.0217
G1 X99.855 Y114.754 E.02182
G1 X99.48 Y115.34 E.02181
G1 X99.029 Y115.827 E.02081
G1 X98.516 Y116.22 E.02026
G1 X97.503 Y116.678 E.03486
G1 X96.782 Y116.812 E.02299
G1 X96.019 Y116.803 E.02392
G1 X95.374 Y116.675 E.02062
G1 X94.765 Y116.441 E.02046
G1 X94.21 Y116.112 E.02023
G1 X93.408 Y115.343 E.03484
G1 X93.022 Y114.737 E.02253
G1 X92.762 Y114.093 E.02178
G1 X92.621 Y113.405 E.02202
G1 X92.607 Y112.715 E.02164
G1 X92.707 Y112.069 E.0205
G1 X92.915 Y111.451 E.02045
G1 X93.22 Y110.883 E.02021
G1 X93.955 Y110.048 E.03488
G1 X94.58 Y109.617 E.0238
G1 X95.178 Y109.357 E.02045
M204 S1000
G1 X95.329 Y109.7 F10800
M204 S800
G1 F1200
G1 X95.362 Y109.685 E.00114
G1 X96.4 Y109.512 E.03299
G1 X97.494 Y109.676 E.03468
G1 X98.093 Y109.93 E.0204
G1 X98.645 Y110.301 E.02085
G1 X99.098 Y110.749 E.01998
G1 X99.438 Y111.231 E.01849
G1 X99.689 Y111.758 E.0183
G1 X99.905 Y112.759 E.03211
G1 X99.889 Y113.373 E.01926
G1 X99.763 Y113.985 E.01959
G1 X99.527 Y114.568 E.01972
G1 X99.191 Y115.098 E.01968
G1 X98.785 Y115.539 E.01879
G1 X98.322 Y115.896 E.01833
G1 X97.389 Y116.318 E.03211
G1 X96.733 Y116.437 E.0209
G1 X96.074 Y116.43 E.02066
G1 X95.492 Y116.316 E.01859
G1 X94.438 Y115.812 E.03663
G1 X93.698 Y115.102 E.03215
G1 X93.365 Y114.579 E.01944
G1 X93.127 Y113.999 E.01966
G1 X92.998 Y113.378 E.01989
G1 X92.982 Y112.754 E.01957
G1 X93.07 Y112.172 E.01846
G1 X93.255 Y111.614 E.01843
G1 X93.838 Y110.691 E.03423
G1 X94.748 Y109.955 E.0367
G1 X95.274 Y109.724 E.01801
M204 S1000
G1 X95.424 Y110.066 F10800
M204 S800
G1 F1200
G1 X95.468 Y110.047 E.0015
G1 X95.973 Y109.925 E.01629
G1 X96.819 Y109.917 E.02653
G1 X97.397 Y110.041 E.01854
G1 X97.899 Y110.254 E.0171
G1 X98.395 Y110.584 E.01868
G1 X98.801 Y110.982 E.01783
G1 X99.332 Y111.88 E.03271
G1 X99.529 Y112.794 E.02932
G1 X99.516 Y113.316 E.01637
G1 X99.406 Y113.862 E.01746
G1 X99.199 Y114.382 E.01755
G1 X98.54 Y115.252 E.03422
G1 X98.128 Y115.573 E.01638
G1 X97.275 Y115.958 E.02934
G1 X96.717 Y116.06 E.01779
G1 X96.127 Y116.056 E.0185
G1 X95.117 Y115.774 E.03288
G1 X94.666 Y115.511 E.01637
G1 X93.99 Y114.863 E.02936
G1 X93.693 Y114.392 E.01746
G1 X93.483 Y113.873 E.01755
G1 X93.358 Y112.792 E.03412
