; generated by PrusaSlicer 2.7.1+win64 on 2024-03-22 at 12:41:35 UTC


;
;
; 

; external perimeters extrusion width = 0.45mm
; perimeters extrusion width = 0.45mm
; infill extrusion width = 0.45mm
; solid infill extrusion width = 0.45mm
; top infill extrusion width = 0.40mm
; first layer extrusion width = 0.42mm

; external perimeters extrusion width = 0.45mm
; perimeters extrusion width = 0.45mm
; infill extrusion width = 0.45mm
; solid infill extrusion width = 0.45mm
; top infill extrusion width = 0.40mm
; first layer extrusion width = 0.42mm

M73 P0 R9
M73 C2
M73 Q0 S9
M73 D2
M201 X1000 Y1000 Z200 E5000 ; sets maximum accelerations, mm/sec^2
M203 X200 Y200 Z12 E120 ; sets maximum feedrates, mm / sec
M204 S1250 T1250 ; sets acceleration (S) and retract acceleration (R), mm/sec^2
M205 X8.00 Y8.00 Z0.40 E4.50 ; sets the jerk limits, mm/sec
M205 S0 T0 ; sets the minimum extruding and travel feed rate, mm/sec

; printing object bearings_axis_square.STL id:0 copy 0
; stop printing object bearings_axis_square.STL id:0 copy 0
; printing object bearings_axis_square.STL id:1 copy 0
; stop printing object bearings_axis_square.STL id:1 copy 0

;TYPE:Custom
M862.3 P "MK3SMMU2S" ; printer model check
M862.1 P0.4 ; nozzle diameter check
M115 U3.13.3 ; tell printer latest fw version
G90 ; use absolute coordinates
M83 ; extruder relative mode
M104 S215 ; set extruder temp
M140 S60 ; set bed temp
Tx
M190 S60 ; wait for bed temp
M109 S215 ; wait for extruder temp
G28 W ; home all without mesh bed level
G80 X119.915 Y98.379 W53.4981 H11.4554 ; mesh bed levelling

;go outside print area
G1 Y-3 F1000
G1 Z0.4 F1000
; select extruder
Tc
; purge line
G1 X55 F2000
G1 Z0.3 F1000
M73 C1
G92 E0
G1 X240 E25 F2200
G1 Y-2 F1000
M73 P1 R9
M73 Q1 S9
M73 D1
G1 X55 E25 F1400
G1 Z0.2 F1000
M73 P2 R9
M73 Q2 S9
G1 X5 E4 F1000

M221 S95
G92 E0

; Don't change E values below. Excessive value can damage the printer.
M907 E430 ; set extruder motor current
G21 ; set units to millimeters
G90 ; use absolute coordinates
M83 ; use relative distances for extrusion

M900 K0.05 ; Filament gcode LA 1.5
M900 K30 ; Filament gcode LA 1.0




M107
;LAYER_CHANGE
;Z:0.2
;HEIGHT:0.2
;BEFORE_LAYER_CHANGE
G92 E0.0
;0.2


G1 E-.8 F2100
M73 P3 R9
M73 Q3 S9
G1 Z.2 F720
;AFTER_LAYER_CHANGE
;0.2
G1 X121.401 Y100.359 F10800
G1 Z.2 F720
G1 E.8 F2100
M204 S800
;TYPE:Skirt/Brim
;WIDTH:0.42
G1 F1200
G1 X122.043 Y99.742 E.02792
G1 X122.78 Y99.242 E.02792
G1 X123.59 Y98.873 E.02791
G1 X124.915 Y98.588 E.04249
G1 X168.125 Y99.143 E1.35493
G1 X169.315 Y99.317 E.03771
G1 X170.154 Y99.615 E.02792
G1 X170.93 Y100.051 E.02791
G1 X171.622 Y100.612 E.02793
G1 X172.208 Y101.281 E.02789
G1 X172.674 Y102.041 E.02795
G1 X173.111 Y103.278 E.04113
G1 X173.226 Y104.161 E.02792
G1 X173.19 Y105.05 E.0279
G1 X173.004 Y105.921 E.02793
G1 X172.446 Y107.156 E.04249
G1 X171.915 Y107.871 E.02792
G1 X171.271 Y108.485 E.0279
G1 X170.532 Y108.982 E.02792
G1 X169.315 Y109.472 E.04113
G1 X168.437 Y109.624 E.02794
G1 X124.915 Y109.051 E1.36472
G1 X124.037 Y108.902 E.02792
M73 P4 R9
M73 Q4 S9
G1 X123.197 Y108.607 E.02791
G1 X122.419 Y108.174 E.02792
G1 X121.725 Y107.617 E.0279
G1 X121.135 Y106.949 E.02794
G1 X120.667 Y106.192 E.0279
G1 X120.333 Y105.367 E.02791
G1 X120.144 Y104.497 E.02791
G1 X120.104 Y103.607 E.02793
G1 X120.333 Y102.272 E.04247
G1 X120.667 Y101.446 E.02794
G1 X121.368 Y100.409 E.03925
M204 S1000
G1 X121.679 Y100.619 F10800
M204 S800
G1 F1200
G1 X121.695 Y100.596 E.00088
G1 X122.292 Y100.025 E.0259
G1 X122.977 Y99.563 E.02591
G1 X123.731 Y99.223 E.02593
G1 X124.931 Y98.965 E.03848
G1 X168.12 Y99.52 E1.35427
G1 X169.204 Y99.678 E.03435
G1 X169.984 Y99.952 E.02592
G1 X170.706 Y100.354 E.02591
G1 X171.349 Y100.873 E.02591
G1 X171.896 Y101.493 E.02592
G1 X172.33 Y102.196 E.0259
G1 X172.725 Y103.291 E.0365
G1 X172.85 Y104.193 E.02855
G1 X172.814 Y105.018 E.02589
G1 X172.639 Y105.826 E.02592
G1 X172.133 Y106.945 E.03851
G1 X171.643 Y107.61 E.0259
G1 X171.047 Y108.182 E.0259
G1 X170.362 Y108.646 E.02594
G1 X169.204 Y109.111 E.03913
G1 X168.389 Y109.25 E.02592
G1 X124.931 Y108.674 E1.36271
G1 X124.116 Y108.533 E.02593
M73 P5 R9
M73 Q5 S9
G1 X123.337 Y108.257 E.02591
G1 X122.616 Y107.853 E.02591
G1 X121.974 Y107.333 E.0259
G1 X121.428 Y106.712 E.02593
G1 X120.996 Y106.008 E.0259
G1 X120.689 Y105.241 E.0259
G1 X120.515 Y104.433 E.02592
G1 X120.481 Y103.607 E.02592
G1 X120.689 Y102.397 E.0385
G1 X120.996 Y101.63 E.0259
G1 X121.646 Y100.669 E.03638
M204 S1000
; printing object bearings_axis_square.STL id:0 copy 0
;WIPE_START
G1 F8640
G1 X121.679 Y100.619 E-.01383
G1 X121.695 Y100.596 E-.00647
G1 X122.292 Y100.025 E-.19075
G1 X122.977 Y99.563 E-.19078
G1 X123.731 Y99.223 E-.19098
G1 X124.608 Y99.034 E-.20719
;WIPE_END
G1 Z.6 F720
G1 X127.033 Y104.031 F10800
G1 Z.2 F720
G1 E.8 F2100
M204 S800
;TYPE:Perimeter
;WIDTH:0.419999
G1 F1200
G1 X126.962 Y104.389 E.01144
G1 X126.68 Y104.894 E.01814
G1 X126.246 Y105.275 E.01811
G1 X125.709 Y105.491 E.01815
G1 X125.132 Y105.515 E.01811
G1 X124.579 Y105.346 E.01813
G1 X124.115 Y105.002 E.01811
G1 X123.791 Y104.524 E.01811
G1 X123.645 Y103.964 E.01815
G1 X123.694 Y103.388 E.01813
G1 X123.932 Y102.862 E.0181
G1 X124.332 Y102.444 E.01814
G1 X124.848 Y102.184 E.01812
G1 X125.422 Y102.111 E.01814
G1 X125.993 Y102.236 E.01833
G1 X126.479 Y102.535 E.01789
G1 X126.842 Y102.985 E.01813
G1 X127.035 Y103.53 E.01813
G1 X127.047 Y103.963 E.01358
G1 X127.045 Y103.972 E.00029
M204 S1000
G1 X127.406 Y104.095 F10800
M204 S800
;TYPE:External perimeter
G1 F1200
G1 X127.363 Y104.344 E.00792
G1 X127.172 Y104.838 E.01661
G1 X126.851 Y105.259 E.0166
G1 X126.444 Y105.598 E.01661
G1 X125.958 Y105.809 E.01661
G1 X125.438 Y105.906 E.01659
G1 X124.911 Y105.853 E.01661
G1 X124.409 Y105.684 E.01661
G1 X123.974 Y105.381 E.01662
G1 X123.619 Y104.989 E.01658
G1 X123.387 Y104.512 E.01663
G1 X123.268 Y103.996 E.0166
G1 X123.298 Y103.467 E.01661
G1 X123.446 Y102.959 E.01659
G1 X123.731 Y102.511 E.01665
G1 X124.107 Y102.14 E.01656
G1 X124.576 Y101.887 E.01671
G1 X125.084 Y101.748 E.01651
G1 X125.593 Y101.752 E.01596
G1 X126.13 Y101.882 E.01732
G1 X126.591 Y102.149 E.0167
G1 X126.974 Y102.507 E.01644
G1 X127.246 Y102.963 E.01665
G1 X127.408 Y103.466 E.01657
G1 X127.423 Y103.995 E.01659
G1 X127.416 Y104.036 E.0013
M204 S1000
G1 X126.815 Y103.361 F10800
M204 S800
;TYPE:Solid infill
;WIDTH:0.432155
G1 F1200
G1 X126.222 Y102.768 E.02714
G1 X126.067 Y102.653 E.00625
G1 X125.872 Y102.555 E.00706
G1 X125.493 Y102.462 E.01263
G1 X125.357 Y102.453 E.00441
G1 X126.718 Y103.814 E.06229
G1 X126.699 Y104.051 E.0077
G1 X126.637 Y104.283 E.00777
G1 X124.888 Y102.534 E.08005
G1 X124.733 Y102.596 E.0054
G1 X124.528 Y102.724 E.00782
G1 X126.442 Y104.639 E.08763
G1 X126.254 Y104.847 E.00907
G1 X126.165 Y104.913 E.00359
G1 X124.255 Y103.002 E.08745
G1 X124.101 Y103.255 E.00959
G1 X124.064 Y103.361 E.00363
G1 X125.808 Y105.106 E.07985
G1 X125.638 Y105.158 E.00575
M73 P5 R8
G1 X125.336 Y105.184 E.00981
G1 X123.985 Y103.833 E.06184
G1 X124.024 Y104.164 E.01079
G1 X124.101 Y104.383 E.00751
G1 X124.215 Y104.586 E.00754
G1 X124.328 Y104.727 E.00585
G1 X124.889 Y105.288 E.02568
M204 S1000
; stop printing object bearings_axis_square.STL id:0 copy 0
; printing object bearings_axis_square.STL id:1 copy 0
;WIPE_START
G1 F8640
G1 X124.328 Y104.727 E-.18319
G1 X124.215 Y104.586 E-.04172
G1 X124.101 Y104.383 E-.05376
G1 X124.024 Y104.164 E-.0536
G1 X123.985 Y103.833 E-.07696
G1 X125.182 Y105.03 E-.39077
;WIPE_END
G1 Z.6 F720
G1 X169.666 Y104.606 F10800
G1 Z.2 F720
G1 E.8 F2100
M73 P6 R8
M204 S800
;TYPE:Perimeter
;WIDTH:0.419999
G1 F1200
G1 X169.594 Y104.964 E.01145
G1 X169.312 Y105.469 E.01814
G1 X168.878 Y105.85 E.01811
G1 X168.342 Y106.066 E.01812
G1 X167.764 Y106.09 E.01814
G1 X167.212 Y105.921 E.0181
G1 X166.747 Y105.578 E.01812
G1 X166.423 Y105.099 E.01813
G1 X166.278 Y104.539 E.01814
G1 X166.327 Y103.963 E.01813
G1 X166.565 Y103.437 E.0181
G1 X166.965 Y103.019 E.01814
G1 X167.481 Y102.759 E.01812
G1 X168.054 Y102.686 E.01811
G1 X168.626 Y102.811 E.01836
G1 X169.111 Y103.111 E.01788
G1 X169.474 Y103.56 E.0181
G1 X169.667 Y104.105 E.01813
G1 X169.679 Y104.538 E.01358
G1 X169.678 Y104.547 E.00028
M204 S1000
G1 X170.038 Y104.67 F10800
M204 S800
;TYPE:External perimeter
G1 F1200
G1 X169.995 Y104.919 E.00792
G1 X169.805 Y105.413 E.0166
G1 X169.484 Y105.834 E.0166
G1 X169.076 Y106.173 E.01663
G1 X168.591 Y106.384 E.01658
G1 X168.07 Y106.481 E.01662
G1 X167.543 Y106.429 E.0166
G1 X167.041 Y106.259 E.01662
G1 X166.606 Y105.956 E.01662
G1 X166.251 Y105.564 E.01658
G1 X166.019 Y105.087 E.01663
G1 X165.9 Y104.571 E.0166
G1 X165.93 Y104.042 E.01661
M73 Q6 S9
G1 X166.078 Y103.534 E.01659
G1 X166.363 Y103.086 E.01665
G1 X166.74 Y102.715 E.01658
G1 X167.208 Y102.462 E.01668
G1 X167.716 Y102.323 E.01651
G1 X168.225 Y102.327 E.01596
G1 X168.763 Y102.458 E.01736
G1 X169.223 Y102.724 E.01666
G1 X169.606 Y103.082 E.01644
G1 X169.878 Y103.538 E.01665
G1 X170.04 Y104.041 E.01657
G1 X170.055 Y104.57 E.01659
G1 X170.048 Y104.611 E.0013
M204 S1000
G1 X169.447 Y103.936 F10800
M204 S800
;TYPE:Solid infill
;WIDTH:0.432155
G1 F1200
G1 X168.855 Y103.343 E.02712
G1 X168.699 Y103.228 E.00627
G1 X168.505 Y103.13 E.00703
G1 X168.126 Y103.037 E.01263
G1 X167.989 Y103.028 E.00444
G1 X169.351 Y104.389 E.06232
G1 X169.331 Y104.626 E.0077
G1 X169.269 Y104.858 E.00777
G1 X167.52 Y103.109 E.08005
G1 X167.365 Y103.171 E.0054
G1 X167.16 Y103.3 E.00784
G1 X169.074 Y105.214 E.08761
G1 X168.886 Y105.422 E.00907
G1 X168.798 Y105.488 E.00356
G1 X166.887 Y103.577 E.08747
G1 X166.734 Y103.83 E.00957
G1 X166.696 Y103.937 E.00367
G1 X168.44 Y105.681 E.07982
G1 X168.27 Y105.733 E.00575
G1 X167.968 Y105.759 E.00981
G1 X166.617 Y104.408 E.06184
G1 X166.656 Y104.739 E.01079
G1 X166.734 Y104.958 E.00752
G1 X166.847 Y105.161 E.00752
G1 X166.961 Y105.302 E.00587
G1 X167.521 Y105.863 E.02565
M204 S1000
; stop printing object bearings_axis_square.STL id:1 copy 0
M106 S84.15
;LAYER_CHANGE
;Z:0.4
;HEIGHT:0.2
;BEFORE_LAYER_CHANGE
G92 E0.0
;0.4


;WIPE_START
G1 F8640
G1 X166.961 Y105.302 E-.18303
G1 X166.847 Y105.161 E-.04187
G1 X166.734 Y104.958 E-.05365
G1 X166.656 Y104.739 E-.05368
G1 X166.617 Y104.408 E-.07696
G1 X167.814 Y105.605 E-.39081
;WIPE_END
G1 Z.4 F720
;AFTER_LAYER_CHANGE
;0.4
G1 Z.8
G1 X167.761 Y109.615 F10800
G1 Z.4 F720
G1 E.8 F2100
;TYPE:Skirt/Brim
;WIDTH:0.42
G1 F2501
G1 X124.915 Y109.051 E1.34352
G1 X124.037 Y108.902 E.02792
G1 X123.197 Y108.607 E.02791
G1 X122.419 Y108.174 E.02792
G1 X121.725 Y107.617 E.0279
G1 X121.135 Y106.949 E.02794
G1 X120.667 Y106.192 E.0279
G1 X120.333 Y105.367 E.02791
G1 X120.144 Y104.497 E.02791
G1 X120.104 Y103.607 E.02793
G1 X120.333 Y102.272 E.04247
G1 X120.667 Y101.446 E.02794
G1 X121.401 Y100.359 E.04112
G1 X122.043 Y99.742 E.02792
G1 X122.78 Y99.242 E.02792
G1 X123.59 Y98.873 E.02791
G1 X124.915 Y98.588 E.04249
G1 X168.125 Y99.143 E1.35493
G1 X169.315 Y99.317 E.03771
G1 X170.154 Y99.615 E.02792
G1 X170.93 Y100.051 E.02791
G1 X171.622 Y100.612 E.02793
G1 X172.208 Y101.281 E.02789
G1 X172.674 Y102.041 E.02795
G1 X173.111 Y103.278 E.04113
G1 X173.226 Y104.161 E.02792
G1 X173.19 Y105.05 E.0279
G1 X173.004 Y105.921 E.02793
G1 X172.446 Y107.156 E.04249
G1 X171.915 Y107.871 E.02792
G1 X171.271 Y108.485 E.0279
G1 X170.532 Y108.982 E.02792
G1 X169.315 Y109.472 E.04113
G1 X168.437 Y109.624 E.02794
G1 X167.821 Y109.616 E.01932
M73 P7 R8
G1 X167.826 Y109.242 F10800
G1 F2501
G1 X124.931 Y108.674 E1.34506
G1 X124.116 Y108.533 E.02593
G1 X123.337 Y108.257 E.02591
G1 X122.616 Y107.853 E.02591
G1 X121.974 Y107.333 E.0259
G1 X121.428 Y106.712 E.02593
G1 X120.996 Y106.008 E.0259
M73 Q7 S9
G1 X120.689 Y105.241 E.0259
G1 X120.515 Y104.433 E.02592
G1 X120.481 Y103.607 E.02592
G1 X120.689 Y102.397 E.0385
G1 X120.996 Y101.63 E.0259
G1 X121.695 Y100.596 E.03913
G1 X122.292 Y100.025 E.0259
G1 X122.977 Y99.563 E.02591
G1 X123.731 Y99.223 E.02593
G1 X124.931 Y98.965 E.03848
G1 X168.12 Y99.52 E1.35427
G1 X169.204 Y99.678 E.03435
G1 X169.984 Y99.952 E.02592
G1 X170.706 Y100.354 E.02591
G1 X171.349 Y100.873 E.02591
G1 X171.896 Y101.493 E.02592
G1 X172.33 Y102.196 E.0259
G1 X172.725 Y103.291 E.0365
G1 X172.85 Y104.193 E.02855
G1 X172.814 Y105.018 E.02589
G1 X172.639 Y105.826 E.02592
G1 X172.133 Y106.945 E.03851
G1 X171.643 Y107.61 E.0259
G1 X171.047 Y108.182 E.0259
G1 X170.362 Y108.646 E.02594
G1 X169.204 Y109.111 E.03913
G1 X168.389 Y109.25 E.02592
G1 X167.886 Y109.243 E.01577
; printing object bearings_axis_square.STL id:0 copy 0
;WIPE_START
G1 F8640
G1 X167.826 Y109.242 E-.01386
G1 X164.422 Y109.197 E-.78614
;WIPE_END
G1 Z.8 F720
G1 X127.195 Y104.047 F10800
G1 Z.4 F720
G1 E.8 F2100
M204 S800
;TYPE:Perimeter
;WIDTH:0.449999
G1 F1500
G1 X127.188 Y104.134 E.00295
G1 X127.047 Y104.575 E.01567
G1 X126.809 Y104.979 E.01587
G1 X126.327 Y105.408 E.02184
G1 X125.909 Y105.592 E.01546
G1 X125.428 Y105.683 E.01657
G1 X124.96 Y105.637 E.01592
G1 X124.509 Y105.485 E.01611
G1 X124.122 Y105.216 E.01595
G1 X123.803 Y104.864 E.01608
G1 X123.597 Y104.439 E.01599
G1 X123.49 Y103.977 E.01605
G1 X123.517 Y103.506 E.01597
G1 X123.649 Y103.051 E.01604
G1 X123.902 Y102.652 E.01599
G1 X124.24 Y102.319 E.01606
G1 X124.656 Y102.095 E.01599
G1 X125.112 Y101.969 E.01601
G1 X125.585 Y101.975 E.01601
G1 X126.045 Y102.088 E.01603
G1 X126.454 Y102.324 E.01598
G1 X126.801 Y102.647 E.01605
G1 X127.042 Y103.052 E.01595
G1 X127.188 Y103.504 E.01608
G1 X127.202 Y103.973 E.01588
G1 X127.201 Y103.987 E.00048
M204 S1000
G1 X127.601 Y104.081 F10800
M204 S800
;TYPE:External perimeter
G1 F1500
G1 X127.591 Y104.204 E.00418
G1 X127.403 Y104.777 E.02041
G1 X127.121 Y105.244 E.01847
G1 X126.927 Y105.427 E.00903
G1 X126.542 Y105.756 E.01714
G1 X126.005 Y105.988 E.0198
G1 X125.446 Y106.091 E.01924
G1 X124.87 Y106.034 E.01959
G1 X124.325 Y105.85 E.01947
G1 X123.851 Y105.519 E.01957
G1 X123.465 Y105.093 E.01946
G1 X123.212 Y104.573 E.01957
G1 X123.083 Y104.012 E.01948
G1 X123.116 Y103.436 E.01953
G1 X123.277 Y102.882 E.01953
G1 X123.586 Y102.395 E.01952
G1 X123.997 Y101.991 E.01951
G1 X124.505 Y101.716 E.01955
G1 X125.06 Y101.563 E.01949
G1 X125.638 Y101.572 E.01957
G1 X126.197 Y101.709 E.01948
G1 X126.697 Y101.998 E.01955
G1 X127.119 Y102.391 E.01952
G1 X127.415 Y102.888 E.01958
G1 X127.591 Y103.435 E.01945
G1 X127.607 Y104.008 E.0194
G1 X127.606 Y104.021 E.00044
M204 S1000
;WIPE_START
G1 F8640
G1 X127.601 Y104.081 E-.0139
G1 X127.591 Y104.204 E-.02849
;WIPE_END
G1 E-.75761 F2100
G1 Z.8 F720
G1 X125.413 Y102.325 F10800
G1 Z.4 F720
G1 E.8 F2100
;TYPE:Solid infill
G1 F2501
G1 X124.911 Y102.389 E.01713
G1 X124.46 Y102.617 E.01711
G1 X124.11 Y102.982 E.01712
G1 X123.902 Y103.442 E.01709
G1 X123.859 Y103.946 E.01712
G1 X123.986 Y104.435 E.0171
G1 X124.269 Y104.854 E.01711
G1 X124.676 Y105.155 E.01713
G1 X125.159 Y105.303 E.0171
G1 X125.664 Y105.281 E.01711
G1 X126.134 Y105.092 E.01715
G1 X126.449 Y104.81 E.01431
G1 X126.652 Y104.557 E.01098
G1 X126.823 Y104.072 E.01741
G1 X126.823 Y103.566 E.01713
G1 X126.655 Y103.09 E.01709
G1 X126.337 Y102.696 E.01714
G1 X125.907 Y102.431 E.0171
G1 X125.612 Y102.368 E.01021
G1 X125.594 Y102.78 E.01396
G1 X125.753 Y102.815 E.00551
G1 X126.064 Y103.006 E.01235
G1 X126.294 Y103.291 E.0124
G1 X126.416 Y103.636 E.01239
G1 X126.416 Y104.002 E.01239
G1 X126.305 Y104.316 E.01127
G1 X126.177 Y104.507 E.00778
G1 X125.916 Y104.741 E.01187
G1 X125.577 Y104.878 E.01238
G1 X125.212 Y104.893 E.01237
G1 X124.862 Y104.786 E.01239
G1 X124.568 Y104.568 E.01239
G1 X124.363 Y104.265 E.01238
G1 X124.27 Y103.911 E.01239
G1 X124.301 Y103.546 E.0124
G1 X124.452 Y103.213 E.01238
G1 X124.705 Y102.949 E.01238
G1 X125.032 Y102.784 E.0124
G1 X125.395 Y102.737 E.01239
G1 X125.378 Y103.15 E.01399
G1 X125.153 Y103.179 E.00768
G1 X124.951 Y103.281 E.00766
G1 X124.794 Y103.444 E.00766
G1 X124.701 Y103.65 E.00765
G1 X124.682 Y103.876 E.00768
G1 X124.739 Y104.095 E.00766
G1 X124.866 Y104.283 E.00768
G1 X125.048 Y104.417 E.00765
G1 X125.264 Y104.483 E.00765
G1 X125.49 Y104.474 E.00766
G1 X125.698 Y104.39 E.00759
G1 X125.906 Y104.204 E.00944
G1 X126.009 Y103.932 E.00984
G1 X126.009 Y103.706 E.00765
