; generated by PrusaSlicer 2.7.1+win64 on 2024-03-22 at 18:34:14 UTC


;
;
; 

; external perimeters extrusion width = 0.45mm
; perimeters extrusion width = 0.45mm
; infill extrusion width = 0.45mm
; solid infill extrusion width = 0.45mm
; top infill extrusion width = 0.40mm
; first layer extrusion width = 0.42mm

M73 P0 R4
M73 C1
M73 Q0 S4
M73 D1
M201 X1000 Y1000 Z200 E5000 ; sets maximum accelerations, mm/sec^2
M203 X200 Y200 Z12 E120 ; sets maximum feedrates, mm / sec
M204 S1250 T1250 ; sets acceleration (S) and retract acceleration (R), mm/sec^2
M205 X8.00 Y8.00 Z0.40 E4.50 ; sets the jerk limits, mm/sec
M205 S0 T0 ; sets the minimum extruding and travel feed rate, mm/sec

; printing object bearings_holder.STL id:0 copy 0
; stop printing object bearings_holder.STL id:0 copy 0

;TYPE:Custom
M862.3 P "MK3SMMU2S" ; printer model check
M862.1 P0.4 ; nozzle diameter check
M115 U3.13.3 ; tell printer latest fw version
G90 ; use absolute coordinates
M83 ; extruder relative mode
M104 S215 ; set extruder temp
M140 S60 ; set bed temp
Tx
M190 S60 ; wait for bed temp
M109 S215 ; wait for extruder temp
G28 W ; home all without mesh bed level
G80 X119.432 Y92.4422 W11.1355 H25.1246 ; mesh bed levelling

;go outside print area
G1 Y-3 F1000
G1 Z0.4 F1000
; select extruder
Tc
; purge line
G1 X55 F2000
G1 Z0.3 F1000
G92 E0
G1 X240 E25 F2200
G1 Y-2 F1000
M73 P2 R4
M73 Q2 S4
G1 X55 E25 F1400
G1 Z0.2 F1000
M73 P6 R3
M73 Q6 S3
G1 X5 E4 F1000

M221 S95
G92 E0

; Don't change E values below. Excessive value can damage the printer.
M907 E430 ; set extruder motor current
G21 ; set units to millimeters
G90 ; use absolute coordinates
M83 ; use relative distances for extrusion

M900 K0.05 ; Filament gcode LA 1.5
M900 K30 ; Filament gcode LA 1.0




M107
;LAYER_CHANGE
;Z:0.2
;HEIGHT:0.2
;BEFORE_LAYER_CHANGE
G92 E0.0
;0.2


G1 E-.8 F2100
M73 P7 R3
M73 Q7 S3
G1 Z.2 F720
;AFTER_LAYER_CHANGE
;0.2
G1 X120.567 Y94.958 F10800
G1 Z.2 F720
G1 E.8 F2100
M204 S800
;TYPE:Skirt/Brim
;WIDTH:0.42
G1 F1200
G1 X121.42 Y93.989 E.04048
G1 X122.149 Y93.441 E.0286
G1 X122.961 Y93.025 E.02861
G1 X124.354 Y92.662 E.04514
G1 X125.266 Y92.63 E.02861
G1 X126.169 Y92.752 E.02857
G1 X127.039 Y93.025 E.02859
G1 X127.851 Y93.441 E.02861
G1 X128.58 Y93.989 E.0286
G1 X129.433 Y94.958 E.04048
G1 X129.884 Y95.751 E.0286
G1 X130.193 Y96.609 E.02859
G1 X130.379 Y97.905 E.04105
M73 Q8 S3
G1 X130.379 Y111.905 E.43896
G1 X130.293 Y112.945 E.03272
M73 P8 R3
G1 X130.057 Y113.826 E.0286
G1 X129.675 Y114.655 E.02862
G1 X128.907 Y115.693 E.04049
G1 X128.227 Y116.3 E.02858
G1 X126.97 Y117.003 E.04516
G1 X126.096 Y117.264 E.0286
G1 X124.867 Y117.378 E.0387
G1 X123.39 Y117.13 E.04696
G1 X122.546 Y116.784 E.0286
G1 X121.773 Y116.3 E.0286
G1 X121.093 Y115.693 E.02858
G1 X120.525 Y114.98 E.02858
G1 X120.085 Y114.18 E.02863
G1 X119.788 Y113.319 E.02856
G1 X119.621 Y111.905 E.04464
G1 X119.621 Y97.905 E.43896
G1 X119.807 Y96.609 E.04105
G1 X120.116 Y95.751 E.02859
G1 X120.537 Y95.011 E.02669
M204 S1000
G1 X120.863 Y95.195 F10800
M204 S800
G1 F1200
G1 X120.87 Y95.183 E.00044
G1 X121.681 Y94.261 E.0385
M73 Q9 S3
G1 X122.36 Y93.754 E.02657
G1 X123.116 Y93.369 E.0266
G1 X124.386 Y93.038 E.04115
G1 X125.234 Y93.006 E.02661
M73 P9 R3
G1 X126.444 Y93.213 E.03849
G1 X127.232 Y93.526 E.02658
G1 X127.956 Y93.968 E.0266
G1 X128.595 Y94.525 E.02658
G1 X129.13 Y95.183 E.02659
G1 X129.547 Y95.921 E.02658
G1 X129.833 Y96.719 E.02658
G1 X130.002 Y97.905 E.03756
G1 X130.002 Y111.905 E.43896
G1 X129.924 Y112.866 E.03023
G1 X129.707 Y113.686 E.0266
G1 X129.354 Y114.457 E.02659
G1 X128.624 Y115.444 E.03849
G1 X127.99 Y116.007 E.02659
G1 X126.844 Y116.647 E.04116
G1 X126.032 Y116.892 E.02659
G1 X124.883 Y117.002 E.03619
G1 X123.516 Y116.774 E.04345
G1 X122.73 Y116.455 E.0266
G1 X122.01 Y116.007 E.02659
G1 X121.376 Y115.444 E.02659
G1 X120.846 Y114.782 E.02659
G1 X120.435 Y114.04 E.0266
G1 X120.156 Y113.239 E.02659
G1 X119.998 Y111.905 E.04212
G1 X119.998 Y97.905 E.43896
G1 X120.167 Y96.719 E.03756
M73 P10 R3
M73 Q10 S3
G1 X120.453 Y95.921 E.02658
G1 X120.834 Y95.247 E.02428
M204 S1000
G1 X121.16 Y95.43 F10800
M204 S800
G1 F1200
G1 X121.173 Y95.407 E.00083
G1 X121.942 Y94.533 E.0365
G1 X122.572 Y94.066 E.02459
G1 X123.271 Y93.712 E.02457
G1 X124.021 Y93.482 E.0246
G1 X125.202 Y93.381 E.03716
G1 X125.979 Y93.482 E.02457
G1 X126.729 Y93.712 E.0246
G1 X127.428 Y94.066 E.02457
G1 X128.058 Y94.533 E.02459
G1 X128.827 Y95.407 E.0365
G1 X129.21 Y96.091 E.02458
G1 X129.472 Y96.83 E.02458
G1 X129.625 Y97.905 E.03405
G1 X129.625 Y111.905 E.43896
G1 X129.556 Y112.787 E.02774
G1 X129.357 Y113.545 E.02457
G1 X129.033 Y114.259 E.02458
G1 X128.341 Y115.195 E.0365
G1 X127.753 Y115.714 E.02459
G1 X126.719 Y116.292 E.03714
G1 X125.969 Y116.52 E.02458
G1 X124.899 Y116.625 E.03371
G1 X123.641 Y116.419 E.03997
G1 X122.914 Y116.125 E.02459
G1 X122.247 Y115.714 E.02456
G1 X121.659 Y115.195 E.02459
G1 X121.167 Y114.584 E.0246
G1 X120.785 Y113.899 E.02459
G1 X120.525 Y113.16 E.02456
G1 X120.375 Y111.905 E.03963
G1 X120.375 Y97.905 E.43896
G1 X120.528 Y96.83 E.03405
M73 P11 R3
M73 Q11 S3
G1 X120.79 Y96.091 E.02458
G1 X121.131 Y95.482 E.02188
M204 S1000
; printing object bearings_holder.STL id:0 copy 0
;WIPE_START
G1 F8640
G1 X121.16 Y95.43 E-.01375
G1 X121.173 Y95.407 E-.0061
G1 X121.942 Y94.533 E-.2688
G1 X122.572 Y94.066 E-.18108
G1 X123.271 Y93.712 E-.18092
G1 X123.889 Y93.522 E-.14935
;WIPE_END
G1 Z.6 F720
G1 X124.994 Y110.545 F10800
G1 Z.2 F720
G1 E.8 F2100
M204 S800
;TYPE:Perimeter
;WIDTH:0.419999
G1 F1200
G1 X125.509 Y110.633 E.01638
G1 X125.917 Y110.864 E.0147
G1 X126.243 Y111.234 E.01546
G1 X126.427 Y111.692 E.01548
G1 X126.454 Y112.059 E.01154
G1 X126.396 Y112.428 E.01171
G1 X126.174 Y112.868 E.01545
G1 X125.818 Y113.21 E.01548
G1 X125.368 Y113.413 E.01548
G1 X124.88 Y113.456 E.01536
G1 X124.399 Y113.33 E.01559
G1 X123.99 Y113.054 E.01547
G1 X123.696 Y112.657 E.01549
G1 X123.552 Y112.185 E.01547
G1 X123.573 Y111.692 E.01547
G1 X123.757 Y111.234 E.01548
G1 X124.083 Y110.864 E.01546
G1 X124.514 Y110.623 E.01548
G1 X124.935 Y110.549 E.0134
M204 S1000
G1 X125.058 Y110.174 F10800
M204 S800
;TYPE:External perimeter
G1 F1200
G1 X125.62 Y110.27 E.01788
G1 X125.997 Y110.463 E.01328
G1 X126.38 Y110.785 E.01569
G1 X126.633 Y111.17 E.01444
G1 X126.797 Y111.613 E.01481
G1 X126.83 Y112.075 E.01452
G1 X126.824 Y112.234 E.00499
G1 X126.7 Y112.681 E.01454
G1 X126.478 Y113.093 E.01467
G1 X126.152 Y113.425 E.01459
G1 X125.757 Y113.675 E.01466
G1 X125.311 Y113.805 E.01457
G1 X124.848 Y113.833 E.01454
G1 X124.391 Y113.728 E.0147
G1 X123.97 Y113.523 E.01468
G1 X123.626 Y113.211 E.01456
G1 X123.358 Y112.828 E.01466
G1 X123.209 Y112.387 E.0146
G1 X123.163 Y111.922 E.01465
G1 X123.248 Y111.465 E.01457
G1 X123.434 Y111.036 E.01466
G1 X123.73 Y110.68 E.01452
G1 X124.103 Y110.395 E.01472
G1 X124.524 Y110.231 E.01417
G1 X124.992 Y110.162 E.01483
G1 X124.999 Y110.163 E.00022
M204 S1000
G1 X125.31 Y110.772 F10800
M204 S800
;TYPE:Solid infill
;WIDTH:0.478664
G1 F1200
G1 X125.955 Y111.416 E.03302
G1 X126.039 Y111.583 E.00677
M73 Q12 S3
G1 X126.094 Y111.764 E.00685
G1 X126.118 Y111.952 E.00687
G1 X126.102 Y112.18 E.00828
G1 X124.819 Y110.896 E.06577
G1 X124.627 Y110.944 E.00717
G1 X124.379 Y111.073 E.01013
G1 X125.928 Y112.621 E.07935
G1 X125.775 Y112.808 E.00875
M73 P12 R3
G1 X125.621 Y112.931 E.00714
G1 X124.071 Y111.381 E.07942
G1 X123.961 Y111.583 E.00833
G1 X123.898 Y111.824 E.00903
G1 X125.176 Y113.102 E.06548
G1 X124.909 Y113.116 E.00969
G1 X124.718 Y113.083 E.00702
G1 X124.539 Y113.02 E.00688
G1 X124.4 Y112.943 E.00576
G1 X123.748 Y112.29 E.03343
M204 S1000
;WIPE_START
G1 F8640
G1 X124.4 Y112.943 E-.21307
G1 X124.539 Y113.02 E-.03669
G1 X124.718 Y113.083 E-.04382
G1 X124.909 Y113.116 E-.04476
G1 X125.176 Y113.102 E-.06174
G1 X123.951 Y111.877 E-.39992
;WIPE_END
G1 Z.6 F720
G1 X124.611 Y99.386 F10800
G1 Z.2 F720
G1 E.8 F2100
M204 S800
;TYPE:Perimeter
;WIDTH:0.419999
G1 F1200
G1 X124.399 Y99.33 E.00688
G1 X123.99 Y99.054 E.01547
G1 X123.696 Y98.657 E.01549
G1 X123.552 Y98.185 E.01547
G1 X123.573 Y97.692 E.01547
G1 X123.757 Y97.234 E.01548
G1 X124.083 Y96.864 E.01546
G1 X124.514 Y96.623 E.01548
G1 X124.976 Y96.542 E.01471
G1 X125.509 Y96.633 E.01695
G1 X125.917 Y96.864 E.0147
G1 X126.243 Y97.234 E.01546
G1 X126.427 Y97.692 E.01548
G1 X126.454 Y98.059 E.01154
G1 X126.396 Y98.428 E.01171
G1 X126.174 Y98.868 E.01545
G1 X125.818 Y99.21 E.01548
G1 X125.368 Y99.413 E.01548
G1 X124.88 Y99.456 E.01536
G1 X124.669 Y99.401 E.00684
M204 S1000
G1 X124.527 Y99.759 F10800
M204 S800
;TYPE:External perimeter
G1 F1200
G1 X124.391 Y99.728 E.00437
G1 X123.97 Y99.523 E.01468
G1 X123.626 Y99.211 E.01456
G1 X123.358 Y98.828 E.01466
G1 X123.209 Y98.387 E.0146
G1 X123.163 Y97.922 E.01465
G1 X123.248 Y97.465 E.01457
G1 X123.434 Y97.036 E.01466
G1 X123.73 Y96.68 E.01452
G1 X124.103 Y96.395 E.01472
G1 X124.524 Y96.231 E.01417
G1 X124.992 Y96.162 E.01483
G1 X125.62 Y96.27 E.01998
G1 X125.997 Y96.463 E.01328
G1 X126.38 Y96.785 E.01569
G1 X126.633 Y97.17 E.01444
G1 X126.797 Y97.613 E.01481
G1 X126.83 Y98.075 E.01452
G1 X126.824 Y98.234 E.00499
G1 X126.7 Y98.681 E.01454
G1 X126.478 Y99.093 E.01467
G1 X126.152 Y99.425 E.01459
G1 X125.757 Y99.675 E.01466
G1 X125.311 Y99.805 E.01457
G1 X124.848 Y99.833 E.01454
G1 X124.585 Y99.772 E.00847
M204 S1000
;WIPE_START
G1 F8640
G1 X124.527 Y99.759 E-.01372
G1 X124.391 Y99.728 E-.03221
G1 X123.97 Y99.523 E-.10812
G1 X123.626 Y99.211 E-.10723
G1 X123.358 Y98.828 E-.10794
G1 X123.209 Y98.387 E-.10748
G1 X123.163 Y97.922 E-.10789
G1 X123.248 Y97.465 E-.10733
G1 X123.434 Y97.036 E-.10797
G1 X123.434 Y97.036 E-.00011
;WIPE_END
G1 Z.6 F720
G1 X125.31 Y96.772 F10800
G1 Z.2 F720
M73 Q13 S3
G1 E.8 F2100
M204 S800
;TYPE:Solid infill
;WIDTH:0.478664
G1 F1200
G1 X125.955 Y97.416 E.03302
G1 X126.039 Y97.583 E.00677
M73 P13 R3
G1 X126.094 Y97.764 E.00685
G1 X126.118 Y97.952 E.00687
G1 X126.102 Y98.18 E.00828
G1 X124.819 Y96.896 E.06577
G1 X124.627 Y96.944 E.00717
G1 X124.379 Y97.073 E.01013
G1 X125.928 Y98.621 E.07935
G1 X125.775 Y98.808 E.00875
G1 X125.621 Y98.931 E.00714
G1 X124.071 Y97.381 E.07942
G1 X123.961 Y97.583 E.00833
G1 X123.898 Y97.824 E.00903
G1 X125.176 Y99.102 E.06548
G1 X124.909 Y99.116 E.00969
G1 X124.718 Y99.083 E.00702
G1 X124.539 Y99.02 E.00688
G1 X124.4 Y98.943 E.00576
G1 X123.758 Y98.3 E.03292
M204 S1000
; stop printing object bearings_holder.STL id:0 copy 0
M106 S84.15
;LAYER_CHANGE
;Z:0.4
;HEIGHT:0.2
;BEFORE_LAYER_CHANGE
G92 E0.0
;0.4


;WIPE_START
G1 F8640
G1 X124.4 Y98.943 E-.20981
G1 X124.539 Y99.02 E-.03669
G1 X124.718 Y99.083 E-.04382
G1 X124.909 Y99.116 E-.04476
G1 X125.176 Y99.102 E-.06174
G1 X123.941 Y97.867 E-.40318
;WIPE_END
G1 Z.4 F720
;AFTER_LAYER_CHANGE
;0.4
G1 Z.8
G1 X119.713 Y97.261 F10800
G1 Z.4 F720
G1 E.8 F2100
;TYPE:Skirt/Brim
;WIDTH:0.42
G1 F1799
G1 X119.807 Y96.609 E.02065
G1 X120.116 Y95.751 E.02859
G1 X120.567 Y94.958 E.0286
G1 X121.42 Y93.989 E.04048
G1 X122.149 Y93.441 E.0286
G1 X122.961 Y93.025 E.02861
G1 X124.354 Y92.662 E.04514
G1 X125.266 Y92.63 E.02861
G1 X126.169 Y92.752 E.02857
G1 X127.039 Y93.025 E.02859
G1 X127.851 Y93.441 E.02861
G1 X128.58 Y93.989 E.0286
G1 X129.433 Y94.958 E.04048
G1 X129.884 Y95.751 E.0286
G1 X130.193 Y96.609 E.02859
G1 X130.379 Y97.905 E.04105
G1 X130.379 Y111.905 E.43896
G1 X130.293 Y112.945 E.03272
G1 X130.057 Y113.826 E.0286
G1 X129.675 Y114.655 E.02862
G1 X128.907 Y115.693 E.04049
G1 X128.227 Y116.3 E.02858
G1 X126.97 Y117.003 E.04516
M73 Q14 S3
G1 X126.096 Y117.264 E.0286
G1 X124.867 Y117.378 E.0387
G1 X123.39 Y117.13 E.04696
G1 X122.546 Y116.784 E.0286
G1 X121.773 Y116.3 E.0286
M73 P14 R3
G1 X121.093 Y115.693 E.02858
G1 X120.525 Y114.98 E.02858
G1 X120.085 Y114.18 E.02863
G1 X119.788 Y113.319 E.02856
G1 X119.621 Y111.905 E.04464
G1 X119.621 Y97.905 E.43896
G1 X119.705 Y97.32 E.01853
G1 X120.074 Y97.373 F10800
G1 F1799
G1 X120.167 Y96.719 E.02071
G1 X120.453 Y95.921 E.02658
G1 X120.87 Y95.183 E.02658
G1 X121.681 Y94.261 E.0385
G1 X122.36 Y93.754 E.02657
G1 X123.116 Y93.369 E.0266
G1 X124.386 Y93.038 E.04115
G1 X125.234 Y93.006 E.02661
G1 X126.444 Y93.213 E.03849
G1 X127.232 Y93.526 E.02658
G1 X127.956 Y93.968 E.0266
G1 X128.595 Y94.525 E.02658
G1 X129.13 Y95.183 E.02659
G1 X129.547 Y95.921 E.02658
G1 X129.833 Y96.719 E.02658
G1 X130.002 Y97.905 E.03756
G1 X130.002 Y111.905 E.43896
G1 X129.924 Y112.866 E.03023
G1 X129.707 Y113.686 E.0266
G1 X129.354 Y114.457 E.02659
G1 X128.624 Y115.444 E.03849
G1 X127.99 Y116.007 E.02659
G1 X126.844 Y116.647 E.04116
G1 X126.032 Y116.892 E.02659
G1 X124.883 Y117.002 E.03619
G1 X123.516 Y116.774 E.04345
G1 X122.73 Y116.455 E.0266
G1 X122.01 Y116.007 E.02659
G1 X121.376 Y115.444 E.02659
G1 X120.846 Y114.782 E.02659
G1 X120.435 Y114.04 E.0266
G1 X120.156 Y113.239 E.02659
G1 X119.998 Y111.905 E.04212
G1 X119.998 Y97.905 E.43896
G1 X120.065 Y97.432 E.01498
M73 P15 R3
M73 Q15 S3
G1 X120.435 Y97.485 F10800
G1 F1799
G1 X120.528 Y96.83 E.02074
G1 X120.79 Y96.091 E.02458
G1 X121.173 Y95.407 E.02458
G1 X121.942 Y94.533 E.0365
G1 X122.572 Y94.066 E.02459
G1 X123.271 Y93.712 E.02457
G1 X124.021 Y93.482 E.0246
G1 X125.202 Y93.381 E.03716
G1 X125.979 Y93.482 E.02457
G1 X126.729 Y93.712 E.0246
G1 X127.428 Y94.066 E.02457
G1 X128.058 Y94.533 E.02459
G1 X128.827 Y95.407 E.0365
G1 X129.21 Y96.091 E.02458
G1 X129.472 Y96.83 E.02458
G1 X129.625 Y97.905 E.03405
G1 X129.625 Y111.905 E.43896
G1 X129.556 Y112.787 E.02774
G1 X129.357 Y113.545 E.02457
G1 X129.033 Y114.259 E.02458
G1 X128.341 Y115.195 E.0365
G1 X127.753 Y115.714 E.02459
G1 X126.719 Y116.292 E.03714
G1 X125.969 Y116.52 E.02458
G1 X124.899 Y116.625 E.03371
G1 X123.641 Y116.419 E.03997
G1 X122.914 Y116.125 E.02459
G1 X122.247 Y115.714 E.02456
G1 X121.659 Y115.195 E.02459
G1 X121.167 Y114.584 E.0246
G1 X120.785 Y113.899 E.02459
G1 X120.525 Y113.16 E.02456
G1 X120.375 Y111.905 E.03963
G1 X120.375 Y97.905 E.43896
G1 X120.426 Y97.544 E.01143
; printing object bearings_holder.STL id:0 copy 0
;WIPE_START
G1 F8640
G1 X120.435 Y97.485 E-.01378
G1 X120.528 Y96.83 E-.15276
G1 X120.79 Y96.091 E-.18104
G1 X121.173 Y95.407 E-.18101
G1 X121.942 Y94.533 E-.2688
G1 X121.951 Y94.526 E-.00261
;WIPE_END
G1 Z.8 F720
G1 X124.949 Y110.393 F10800
M73 Q16 S3
G1 Z.4 F720
M73 P16 R3
G1 E.8 F2100
M204 S800
;TYPE:Perimeter
;WIDTH:0.449999
G1 F1500
G1 X125 Y110.384 E.00175
G1 X125.538 Y110.477 E.01848
G1 X126.015 Y110.743 E.01849
G1 X126.376 Y111.153 E.01849
G1 X126.579 Y111.66 E.01849
G1 X126.608 Y112.067 E.01381
G1 X126.545 Y112.473 E.01391
G1 X126.299 Y112.961 E.0185
G1 X125.905 Y113.339 E.01848
G1 X125.556 Y113.511 E.01317
G1 X125 Y113.613 E.01913
G1 X124.794 Y113.587 E.00703
G1 X124.335 Y113.472 E.01602
G1 X123.882 Y113.166 E.0185
G1 X123.557 Y112.727 E.01849
G1 X123.397 Y112.205 E.01848
G1 X123.421 Y111.66 E.01847
G1 X123.624 Y111.153 E.01849
G1 X123.985 Y110.743 E.01849
G1 X124.462 Y110.477 E.01849
G1 X124.89 Y110.403 E.0147
M204 S1000
G1 X124.969 Y109.996 F10800
M204 S800
;TYPE:External perimeter
G1 F1500
G1 X125.171 Y109.99 E.00684
G1 X125.674 Y110.091 E.01737
G1 X126.13 Y110.329 E.01741
G1 X126.52 Y110.663 E.01738
G1 X126.801 Y111.093 E.01739
G1 X126.979 Y111.574 E.01736
G1 X127.015 Y112.085 E.01734
G1 X127.015 Y112.087 E.00007
G1 X126.935 Y112.593 E.01734
G1 X126.716 Y113.06 E.01746
G1 X126.401 Y113.461 E.01726
G1 X125.991 Y113.757 E.01712
G1 X125.514 Y113.957 E.01751
G1 X125 Y114.023 E.01754
G1 X124.486 Y113.957 E.01754
G1 X124.166 Y113.845 E.01148
G1 X123.73 Y113.566 E.01752
G1 X123.373 Y113.204 E.01721
G1 X123.128 Y112.751 E.01743
G1 X122.992 Y112.257 E.01734
G1 X123 Y111.743 E.0174
G1 X123.122 Y111.245 E.01736
G1 X123.379 Y110.8 E.01739
G1 X123.728 Y110.425 E.01734
G1 X124.17 Y110.162 E.01741
G1 X124.658 Y110.005 E.01735
G1 X124.909 Y109.998 E.0085
M204 S1000
;WIPE_START
G1 F8640
G1 X124.969 Y109.996 E-.01386
G1 X125.171 Y109.99 E-.04666
;WIPE_END
G1 E-.73948 F2100
G1 Z.8 F720
G1 X126.368 Y112.429 F10800
G1 Z.4 F720
G1 E.8 F2100
;TYPE:Top solid infill
;WIDTH:0.405569
G1 F1799
G1 X125.435 Y113.362 E.03979
G1 X124.87 Y113.414 F10800
G1 F1799
G1 X126.423 Y111.861 E.06623
G1 X126.323 Y111.449 F10800
