; generated by PrusaSlicer 2.7.1+win64 on 2024-03-22 at 12:31:23 UTC


;
;
; 

; external perimeters extrusion width = 0.45mm
; perimeters extrusion width = 0.45mm
; infill extrusion width = 0.45mm
; solid infill extrusion width = 0.45mm
; top infill extrusion width = 0.40mm
; first layer extrusion width = 0.42mm

; external perimeters extrusion width = 0.45mm
; perimeters extrusion width = 0.45mm
; infill extrusion width = 0.45mm
; solid infill extrusion width = 0.45mm
; top infill extrusion width = 0.40mm
; first layer extrusion width = 0.42mm

; external perimeters extrusion width = 0.45mm
; perimeters extrusion width = 0.45mm
; infill extrusion width = 0.45mm
; solid infill extrusion width = 0.45mm
; top infill extrusion width = 0.40mm
; first layer extrusion width = 0.42mm

; external perimeters extrusion width = 0.45mm
; perimeters extrusion width = 0.45mm
; infill extrusion width = 0.45mm
; solid infill extrusion width = 0.45mm
; top infill extrusion width = 0.40mm
; first layer extrusion width = 0.42mm

; external perimeters extrusion width = 0.45mm
; perimeters extrusion width = 0.45mm
; infill extrusion width = 0.45mm
; solid infill extrusion width = 0.45mm
; top infill extrusion width = 0.40mm
; first layer extrusion width = 0.42mm

; external perimeters extrusion width = 0.45mm
; perimeters extrusion width = 0.45mm
; infill extrusion width = 0.45mm
; solid infill extrusion width = 0.45mm
; top infill extrusion width = 0.40mm
; first layer extrusion width = 0.42mm

M73 P0 R54
M73 Q0 S54
M201 X1000 Y1000 Z200 E5000 ; sets maximum accelerations, mm/sec^2
M203 X200 Y200 Z12 E120 ; sets maximum feedrates, mm / sec
M204 S1250 T1250 ; sets acceleration (S) and retract acceleration (R), mm/sec^2
M205 X8.00 Y8.00 Z0.40 E4.50 ; sets the jerk limits, mm/sec
M205 S0 T0 ; sets the minimum extruding and travel feed rate, mm/sec

; printing object belt_lock_2.STL id:5 copy 0
; stop printing object belt_lock_2.STL id:5 copy 0
; printing object belt_lock_1.STL id:4 copy 0
; stop printing object belt_lock_1.STL id:4 copy 0
; printing object belt_lock_1.STL id:2 copy 0
; stop printing object belt_lock_1.STL id:2 copy 0
; printing object belt_lock_2.STL id:3 copy 0
; stop printing object belt_lock_2.STL id:3 copy 0
; printing object bearing_pin.STL id:0 copy 0
; stop printing object bearing_pin.STL id:0 copy 0
; printing object bearing_pin.STL id:1 copy 0
; stop printing object bearing_pin.STL id:1 copy 0

;TYPE:Custom
M862.3 P "MK3SMMU2S" ; printer model check
M862.1 P0.4 ; nozzle diameter check
M115 U3.13.3 ; tell printer latest fw version
G90 ; use absolute coordinates
M83 ; extruder relative mode
M104 S215 ; set extruder temp
M140 S60 ; set bed temp
Tx
M190 S60 ; wait for bed temp
M109 S215 ; wait for extruder temp
G28 W ; home all without mesh bed level
G80 X104.679 Y64.7076 W70.6275 H51.7414 ; mesh bed levelling

;go outside print area
G1 Y-3 F1000
G1 Z0.4 F1000
; select extruder
Tc
; purge line
G1 X55 F2000
G1 Z0.3 F1000
G92 E0
G1 X240 E25 F2200
G1 Y-2 F1000
G1 X55 E25 F1400
G1 Z0.2 F1000
G1 X5 E4 F1000

M221 S95
G92 E0

; Don't change E values below. Excessive value can damage the printer.
M907 E430 ; set extruder motor current
G21 ; set units to millimeters
G90 ; use absolute coordinates
M83 ; use relative distances for extrusion

M900 K0.05 ; Filament gcode LA 1.5
M900 K30 ; Filament gcode LA 1.0




M107
;LAYER_CHANGE
;Z:0.2
;HEIGHT:0.2
;BEFORE_LAYER_CHANGE
G92 E0.0
;0.2


G1 E-.8 F2100
G1 Z.2 F720
;AFTER_LAYER_CHANGE
;0.2
G1 X105.801 Y65.927 F10800
G1 Z.2 F720
G1 E.8 F2100
M204 S800
;TYPE:Skirt/Brim
;WIDTH:0.42
G1 F1200
G1 X106.864 Y65.071 E.04279
G1 X107.76 Y64.896 E.02862
G1 X129.325 Y64.897 E.67616
G1 X160.088 Y65.617 E.96482
G1 X160.982 Y65.815 E.02871
G1 X173.362 Y71.214 E.42347
G1 X174.403 Y72.095 E.04276
G1 X174.789 Y73.359 E.04144
G1 X175.118 Y96.547 E.72712
G1 X175.118 Y102.581 E.18919
G1 X174.422 Y104.262 E.05705
G1 X163.121 Y115.564 E.50113
G1 X161.44 Y116.261 E.05706
G1 X136.361 Y116.259 E.78633
G1 X107.166 Y115.292 E.91589
G1 X105.873 Y114.857 E.04277
G1 X105.032 Y113.783 E.04277
G1 X104.868 Y112.916 E.02767
G1 X104.868 Y92.868 E.62859
G1 X105.383 Y67.226 E.80415
G1 X105.782 Y65.984 E.0409
M204 S1000
; printing object belt_lock_2.STL id:5 copy 0
;WIPE_START
G1 F8640
G1 X105.801 Y65.927 E-.01387
G1 X106.864 Y65.071 E-.31514
G1 X107.76 Y64.896 E-.2108
G1 X108.887 Y64.896 E-.26019
;WIPE_END
G1 Z.6 F720
G1 X156.086 Y81.369 F10800
G1 Z.2 F720
G1 E.8 F2100
M204 S800
;TYPE:Perimeter
;WIDTH:0.419999
G1 F1200
G1 X155.698 Y81.578 E.01382
G1 X155.314 Y81.878 E.01528
G1 X154.986 Y82.239 E.01529
G1 X154.722 Y82.652 E.01537
G1 X154.532 Y83.103 E.01534
G1 X154.421 Y83.58 E.01536
G1 X154.392 Y84.068 E.01533
G1 X154.446 Y84.555 E.01536
G1 X154.582 Y85.025 E.01534
G1 X154.795 Y85.466 E.01536
G1 X155.079 Y85.864 E.01533
G1 X155.428 Y86.21 E.01541
G1 X155.83 Y86.491 E.01538
G1 X156.271 Y86.699 E.01529
;WIDTH:0.422896
G1 X156.742 Y86.832 E.01546
G1 X157.228 Y86.867 E.0154
;WIDTH:0.41201
G1 X157.717 Y86.842 E.01503
;WIDTH:0.419999
G1 X158.194 Y86.73 E.01536
G1 X158.643 Y86.534 E.01536
G1 X158.943 Y86.333 E.01132
G1 X159.27 Y86.032 E.01394
G1 X159.247 Y87.207 E.03685
G1 X157.861 Y87.208 E.04346
;WIDTH:0.416908
G1 X157.336 Y87.219 E.01633
;WIDTH:0.412027
G1 X156.821 Y87.211 E.01581
;WIDTH:0.419999
G1 X141.86 Y87.208 E.46909
;WIDTH:0.41689
G1 X141.342 Y87.219 E.01611
M73 Q1 S54
;WIDTH:0.411838
G1 X140.824 Y87.211 E.01589
;WIDTH:0.419999
G1 X139.308 Y87.207 E.04753
G1 X139.285 Y86.032 E.03685
G1 X139.403 Y86.166 E.0056
M73 P1 R54
G1 X139.817 Y86.48 E.01629
G1 X140.268 Y86.697 E.01569
;WIDTH:0.422826
G1 X140.743 Y86.832 E.0156
G1 X141.234 Y86.867 E.01555
;WIDTH:0.412025
G1 X141.717 Y86.842 E.01484
;WIDTH:0.419999
G1 X142.194 Y86.731 E.01536
G1 X142.675 Y86.517 E.01651
G1 X143.053 Y86.269 E.01418
G1 X143.412 Y85.937 E.01533
G1 X143.709 Y85.548 E.01535
G1 X143.937 Y85.114 E.01537
G1 X144.088 Y84.649 E.01533
G1 X144.158 Y84.164 E.01536
G1 X144.146 Y83.675 E.01534
G1 X144.051 Y83.195 E.01534
G1 X143.876 Y82.738 E.01534
G1 X143.626 Y82.316 E.01538
G1 X143.31 Y81.945 E.01528
G1 X142.935 Y81.631 E.01534
G1 X142.51 Y81.384 E.01541
G1 X142.051 Y81.213 E.01536
G1 X141.57 Y81.123 E.01534
G1 X141.077 Y81.114 E.01546
G1 X140.596 Y81.189 E.01526
G1 X140.131 Y81.346 E.01539
G1 X139.696 Y81.587 E.01559
G1 X139.308 Y81.92 E.01603
G1 X139.305 Y74.744 E.225
G1 X139.285 Y74.032 E.02233
G1 X139.403 Y74.166 E.0056
G1 X139.817 Y74.48 E.01629
G1 X140.268 Y74.697 E.01569
G1 X140.743 Y74.83 E.01547
G1 X141.233 Y74.88 E.01544
G1 X141.718 Y74.846 E.01524
G1 X142.193 Y74.731 E.01532
G1 X142.641 Y74.537 E.01531
G1 X143.052 Y74.27 E.01537
G1 X143.412 Y73.937 E.01538
G1 X143.709 Y73.548 E.01535
G1 X143.937 Y73.114 E.01537
G1 X144.088 Y72.649 E.01533
G1 X144.158 Y72.164 E.01536
G1 X144.146 Y71.675 E.01534
G1 X144.051 Y71.195 E.01534
G1 X143.876 Y70.738 E.01534
G1 X143.626 Y70.316 E.01538
G1 X143.31 Y69.945 E.01528
G1 X142.935 Y69.631 E.01534
G1 X142.422 Y69.344 E.01843
;WIDTH:0.434323
G1 X141.932 Y69.178 E.01684
G1 X141.192 Y69.123 E.02415
;WIDTH:0.434692
G1 X140.619 Y69.178 E.01875
G1 X140.131 Y69.346 E.01681
;WIDTH:0.419999
G1 X139.696 Y69.587 E.01559
G1 X139.308 Y69.92 E.01603
G1 X139.308 Y68.781 E.03571
G1 X140.034 Y68.781 E.02276
;WIDTH:0.434692
G1 X141.352 Y68.77 E.04294
;WIDTH:0.434323
G1 X141.956 Y68.788 E.01967
G1 X142.519 Y68.781 E.01832
;WIDTH:0.419999
G1 X155.888 Y68.781 E.41917
;WIDTH:0.431627
G1 X156.956 Y68.773 E.03452
M73 P1 R53
;WIDTH:0.40347
G1 X157.475 Y68.77 E.01556
;WIDTH:0.437478
G1 X157.996 Y68.79 E.01711
G1 X158.521 Y68.781 E.01723
;WIDTH:0.419999
G1 X159.247 Y68.781 E.02276
G1 X159.268 Y69.91 E.03541
G1 X158.953 Y69.656 E.01269
G1 X158.516 Y69.389 E.01606
;WIDTH:0.431614
G1 X158.056 Y69.209 E.01596
G1 X157.57 Y69.131 E.01591
;WIDTH:0.403571
G1 X157.08 Y69.125 E.0147
;WIDTH:0.436992
G1 X156.595 Y69.181 E.016
G1 X156.132 Y69.344 E.01608
;WIDTH:0.419999
G1 X155.698 Y69.578 E.01546
G1 X155.314 Y69.878 E.01528
G1 X154.986 Y70.239 E.01529
G1 X154.722 Y70.652 E.01537
G1 X154.532 Y71.103 E.01534
G1 X154.421 Y71.58 E.01536
G1 X154.392 Y72.068 E.01533
G1 X154.446 Y72.555 E.01536
G1 X154.582 Y73.025 E.01534
G1 X154.795 Y73.466 E.01536
G1 X154.999 Y73.756 E.01112
G1 X155.428 Y74.21 E.01958
G1 X155.808 Y74.476 E.01454
G1 X156.266 Y74.697 E.01594
G1 X156.742 Y74.83 E.0155
G1 X157.227 Y74.88 E.01529
G1 X157.717 Y74.846 E.0154
G1 X158.194 Y74.73 E.01539
G1 X158.643 Y74.534 E.01536
G1 X158.941 Y74.334 E.01125
G1 X159.27 Y74.032 E.014
G1 X159.249 Y74.493 E.01447
G1 X159.249 Y81.36 E.21531
G1 X159.27 Y81.946 E.01839
G1 X158.936 Y81.641 E.01418
G1 X158.423 Y81.346 E.01855
G1 X157.934 Y81.186 E.01613
G1 X157.191 Y81.112 E.02341
G1 X156.62 Y81.186 E.01805
G1 X156.139 Y81.342 E.01585
M204 S1000
G1 X156.224 Y81.719 F10800
M204 S800
;TYPE:External perimeter
G1 F1200
G1 X156.258 Y81.7 E.00122
G1 X156.668 Y81.56 E.01358
G1 X157.24 Y81.486 E.01808
G1 X157.887 Y81.56 E.02042
G1 X158.328 Y81.716 E.01467
G1 X158.705 Y81.939 E.01373
G1 X158.994 Y82.2 E.01221
;WIDTH:0.457528
G1 X159.286 Y82.62 E.01763
G1 X159.421 Y83.079 E.01649
;WIDTH:0.426803
G1 X159.477 Y83.383 E.00987
;WIDTH:0.39158
G1 X159.534 Y83.687 E.00897
;WIDTH:0.356356
G1 X159.548 Y84.103 E.01085
;WIDTH:0.387539
G1 X159.487 Y84.501 E.01154
;WIDTH:0.42652
G1 X159.425 Y84.899 E.01285
;WIDTH:0.433309
G1 X159.281 Y85.339 E.01503
G1 X159.058 Y85.702 E.01383
;WIDTH:0.419999
G1 X158.724 Y86.026 E.01459
G1 X158.485 Y86.191 E.00911
G1 X158.098 Y86.366 E.01332
G1 X157.685 Y86.471 E.01336
G1 X157.259 Y86.504 E.0134
G1 X156.837 Y86.465 E.01329
G1 X156.426 Y86.355 E.01334
G1 X156.041 Y86.178 E.01329
G1 X155.689 Y85.938 E.01336
G1 X155.382 Y85.64 E.01341
G1 X155.131 Y85.296 E.01335
G1 X154.942 Y84.915 E.01334
G1 X154.82 Y84.507 E.01335
G1 X154.769 Y84.084 E.01336
G1 X154.789 Y83.659 E.01334
G1 X154.882 Y83.244 E.01333
G1 X155.043 Y82.85 E.01335
G1 X155.269 Y82.488 E.01338
G1 X155.552 Y82.171 E.01332
G1 X155.882 Y81.907 E.01325
G1 X156.171 Y81.748 E.01034
M204 S1000
;WIPE_START
G1 F8640
G1 X156.224 Y81.719 E-.01395
G1 X156.258 Y81.7 E-.00899
G1 X156.668 Y81.56 E-.10004
G1 X157.24 Y81.486 E-.13318
G1 X157.887 Y81.56 E-.15037
G1 X158.328 Y81.716 E-.10801
G1 X158.705 Y81.939 E-.10114
G1 X158.994 Y82.2 E-.08992
;WIPE_END
G1 E-.0944 F2100
G1 Z.6 F720
G1 X159.623 Y87.584 F10800
G1 Z.2 F720
G1 E.8 F2100
M204 S800
G1 F1200
G1 X138.932 Y87.584 E.64875
G1 X138.923 Y86.38 E.03775
G1 X138.874 Y85.734 E.02031
;WIDTH:0.426729
G1 X138.757 Y84.989 E.02407
G1 X138.738 Y84.736 E.0081
;WIDTH:0.397249
G1 X138.719 Y84.484 E.00745
;WIDTH:0.367768
G1 X138.704 Y83.66 E.02226
;WIDTH:0.394778
G1 X138.732 Y83.332 E.00963
;WIDTH:0.429621
G1 X138.759 Y83.004 E.01058
;WIDTH:0.460871
G1 X138.862 Y82.511 E.0175
G1 X138.905 Y82.005 E.01765
;WIDTH:0.419999
G1 X138.928 Y81.494 E.01604
G1 X138.928 Y74.921 E.20609
G1 X138.923 Y74.38 E.01696
G1 X138.874 Y73.734 E.02031
;WIDTH:0.426741
G1 X138.757 Y72.989 E.02407
G1 X138.738 Y72.736 E.0081
;WIDTH:0.397247
G1 X138.719 Y72.484 E.00745
;WIDTH:0.367752
G1 X138.705 Y71.65 E.02253
;WIDTH:0.393824
G1 X138.73 Y71.334 E.00925
;WIDTH:0.426645
G1 X138.755 Y71.017 E.01015
;WIDTH:0.457615
G1 X138.859 Y70.523 E.01741
G1 X138.905 Y70.005 E.01793
;WIDTH:0.419999
G1 X138.928 Y69.495 E.01601
G1 X138.932 Y68.404 E.03421
G1 X159.623 Y68.404 E.64875
G1 X159.627 Y69.503 E.03446
G1 X159.651 Y70.019 E.0162
;WIDTH:0.459714
G1 X159.696 Y70.534 E.01792
G1 X159.799 Y71.03 E.01756
;WIDTH:0.426804
G1 X159.826 Y71.576 E.01745
;WIDTH:0.387681
G1 X159.853 Y72.121 E.01564
;WIDTH:0.387539
G1 X159.827 Y72.546 E.0122
;WIDTH:0.42652
G1 X159.801 Y72.971 E.01358
;WIDTH:0.433309
G1 X159.707 Y73.466 E.01636
G1 X159.65 Y73.983 E.01688
;WIDTH:0.419999
G1 X159.626 Y74.493 E.01601
G1 X159.626 Y80.966 E.20296
G1 X159.651 Y82.019 E.03303
;WIDTH:0.459715
G1 X159.696 Y82.534 E.01792
G1 X159.799 Y83.03 E.01756
;WIDTH:0.426803
G1 X159.822 Y83.37 E.01088
;WIDTH:0.3896
G1 X159.845 Y83.709 E.00979
;WIDTH:0.374375
G1 X159.845 Y84.496 E.02169
;WIDTH:0.400448
G1 X159.823 Y84.733 E.00708
;WIDTH:0.42652
G1 X159.801 Y84.971 E.00762
;WIDTH:0.433309
G1 X159.707 Y85.466 E.01636
G1 X159.65 Y85.983 E.01688
;WIDTH:0.419999
G1 X159.626 Y86.493 E.01601
G1 X159.623 Y87.524 E.03233
M204 S1000
;WIPE_START
G1 F8640
G1 X159.623 Y87.584 E-.01385
G1 X156.218 Y87.584 E-.78615
;WIPE_END
G1 Z.6 F720
G1 X159.447 Y71.22 F10800
G1 Z.2 F720
G1 E.8 F2100
M204 S800
;WIDTH:0.426804
G1 F1200
G1 X159.477 Y71.383 E.00529
;WIDTH:0.39158
G1 X159.534 Y71.687 E.00897
;WIDTH:0.356356
G1 X159.548 Y72.103 E.01085
;WIDTH:0.387539
G1 X159.487 Y72.501 E.01154
;WIDTH:0.42652
G1 X159.425 Y72.899 E.01285
;WIDTH:0.433309
G1 X159.281 Y73.339 E.01503
G1 X159.058 Y73.702 E.01383
;WIDTH:0.419999
G1 X158.722 Y74.027 E.01466
G1 X158.485 Y74.191 E.00904
G1 X158.098 Y74.366 E.01332
G1 X157.685 Y74.471 E.01336
G1 X157.259 Y74.504 E.0134
G1 X156.837 Y74.465 E.01329
G1 X156.424 Y74.355 E.0134
G1 X156.019 Y74.164 E.01404
G1 X155.689 Y73.938 E.01254
G1 X155.302 Y73.531 E.01761
G1 X155.131 Y73.296 E.00911
G1 X154.942 Y72.915 E.01334
G1 X154.82 Y72.507 E.01335
G1 X154.77 Y72.116 E.01236
G1 X154.789 Y71.659 E.01434
G1 X154.882 Y71.244 E.01333
G1 X155.043 Y70.85 E.01335
G1 X155.269 Y70.488 E.01338
G1 X155.552 Y70.171 E.01332
G1 X155.882 Y69.907 E.01325
G1 X156.258 Y69.7 E.01346
G1 X156.66 Y69.561 E.01334
G1 X157.08 Y69.491 E.01335
G1 X157.507 Y69.494 E.01339
G1 X157.927 Y69.57 E.01338
G1 X158.494 Y69.811 E.01932
G1 X158.705 Y69.939 E.00774
G1 X159.033 Y70.248 E.01413
;WIDTH:0.459714
G1 X159.295 Y70.641 E.01637
G1 X159.421 Y71.079 E.0158
;WIDTH:0.426804
G1 X159.436 Y71.161 E.00266
M204 S1000
;WIPE_START
G1 F8640
G1 X159.447 Y71.22 E-.01386
G1 X159.477 Y71.383 E-.03827
;WIPE_END
G1 E-.74787 F2100
G1 Z.6 F720
G1 X141.118 Y69.502 F10800
G1 Z.2 F720
G1 E.8 F2100
M204 S800
;WIDTH:0.419999
G1 F1200
G1 X141.239 Y69.486 E.00383
G1 X141.885 Y69.559 E.02038
G1 X142.326 Y69.713 E.01465
G1 X142.697 Y69.924 E.01338
G1 X143.027 Y70.195 E.01339
G1 X143.305 Y70.514 E.01327
G1 X143.526 Y70.878 E.01335
G1 X143.682 Y71.274 E.01334
G1 X143.769 Y71.691 E.01336
G1 X143.784 Y72.116 E.01333
G1 X143.728 Y72.538 E.01335
G1 X143.6 Y72.945 E.01338
G1 X143.406 Y73.324 E.01335
G1 X143.151 Y73.664 E.01333
G1 X142.842 Y73.957 E.01335
G1 X142.486 Y74.194 E.01341
G1 X142.098 Y74.366 E.01331
G1 X141.686 Y74.471 E.01333
G1 X141.264 Y74.504 E.01327
G1 X140.838 Y74.465 E.01341
G1 X140.425 Y74.355 E.0134
G1 X140.036 Y74.173 E.01347
G1 X139.686 Y73.917 E.0136
G1 X139.397 Y73.578 E.01397
;WIDTH:0.43995
G1 X139.205 Y73.199 E.01403
G1 X139.125 Y72.842 E.01208
;WIDTH:0.405964
G1 X139.045 Y72.484 E.01107
;WIDTH:0.371977
G1 X139.016 Y71.717 E.021
;WIDTH:0.391416
G1 X139.074 Y71.401 E.00931
;WIDTH:0.426645
G1 X139.132 Y71.084 E.01028
;WIDTH:0.454828
G1 X139.279 Y70.595 E.01749
G1 X139.561 Y70.2 E.01662
;WIDTH:0.419999
G1 X139.885 Y69.913 E.01357
G1 X140.258 Y69.701 E.01345
G1 X140.668 Y69.56 E.01359
G1 X141.058 Y69.509 E.01233
M204 S1000
;WIPE_START
G1 F8640
G1 X141.118 Y69.502 E-.01395
G1 X141.239 Y69.486 E-.02818
G1 X141.885 Y69.559 E-.15011
G1 X142.326 Y69.713 E-.10786
G1 X142.697 Y69.924 E-.09855
G1 X143.027 Y70.195 E-.0986
G1 X143.305 Y70.514 E-.0977
G1 X143.526 Y70.878 E-.09833
G1 X143.682 Y71.274 E-.09828
G1 X143.689 Y71.31 E-.00844
;WIPE_END
G1 Z.6 F720
G1 X141.533 Y81.499 F10800
G1 Z.2 F720
G1 E.8 F2100
M204 S800
G1 F1200
G1 X141.925 Y81.569 E.01249
G1 X142.326 Y81.713 E.01336
G1 X142.697 Y81.924 E.01338
G1 X143.027 Y82.195 E.01339
G1 X143.305 Y82.514 E.01327
G1 X143.526 Y82.878 E.01335
G1 X143.682 Y83.274 E.01334
G1 X143.769 Y83.691 E.01336
G1 X143.784 Y84.116 E.01333
G1 X143.728 Y84.538 E.01335
G1 X143.6 Y84.945 E.01338
G1 X143.406 Y85.324 E.01335
G1 X143.151 Y85.664 E.01333
G1 X142.842 Y85.957 E.01335
G1 X142.515 Y86.175 E.01232
G1 X142.098 Y86.366 E.01438
G1 X141.686 Y86.471 E.01333
G1 X141.264 Y86.504 E.01327
G1 X140.838 Y86.465 E.01341
G1 X140.425 Y86.355 E.0134
G1 X140.036 Y86.173 E.01347
G1 X139.686 Y85.917 E.0136
G1 X139.397 Y85.578 E.01397
;WIDTH:0.43995
G1 X139.205 Y85.199 E.01403
G1 X139.125 Y84.842 E.01208
;WIDTH:0.405972
