; generated by PrusaSlicer 2.7.1+win64 on 2024-03-22 at 12:38:37 UTC


;
;
; 

; external perimeters extrusion width = 0.45mm
; perimeters extrusion width = 0.45mm
; infill extrusion width = 0.45mm
; solid infill extrusion width = 0.45mm
; top infill extrusion width = 0.40mm
; first layer extrusion width = 0.42mm

; external perimeters extrusion width = 0.45mm
; perimeters extrusion width = 0.45mm
; infill extrusion width = 0.45mm
; solid infill extrusion width = 0.45mm
; top infill extrusion width = 0.40mm
; first layer extrusion width = 0.42mm

; external perimeters extrusion width = 0.45mm
; perimeters extrusion width = 0.45mm
; infill extrusion width = 0.45mm
; solid infill extrusion width = 0.45mm
; top infill extrusion width = 0.40mm
; first layer extrusion width = 0.42mm

; external perimeters extrusion width = 0.45mm
; perimeters extrusion width = 0.45mm
; infill extrusion width = 0.45mm
; solid infill extrusion width = 0.45mm
; top infill extrusion width = 0.40mm
; first layer extrusion width = 0.42mm

M73 P0 R4
M73 C3
M73 Q0 S4
M73 D3
M201 X1000 Y1000 Z200 E5000 ; sets maximum accelerations, mm/sec^2
M203 X200 Y200 Z12 E120 ; sets maximum feedrates, mm / sec
M204 S1250 T1250 ; sets acceleration (S) and retract acceleration (R), mm/sec^2
M205 X8.00 Y8.00 Z0.40 E4.50 ; sets the jerk limits, mm/sec
M205 S0 T0 ; sets the minimum extruding and travel feed rate, mm/sec

; printing object bearings_pin.STL id:1 copy 0
; stop printing object bearings_pin.STL id:1 copy 0
; printing object bearings_pin.STL id:0 copy 0
; stop printing object bearings_pin.STL id:0 copy 0
; printing object bearings_pin.STL id:3 copy 0
; stop printing object bearings_pin.STL id:3 copy 0
; printing object bearings_pin.STL id:2 copy 0
; stop printing object bearings_pin.STL id:2 copy 0

;TYPE:Custom
M862.3 P "MK3SMMU2S" ; printer model check
M862.1 P0.4 ; nozzle diameter check
M115 U3.13.3 ; tell printer latest fw version
G90 ; use absolute coordinates
M83 ; extruder relative mode
M104 S215 ; set extruder temp
M140 S60 ; set bed temp
Tx
M190 S60 ; wait for bed temp
M109 S215 ; wait for extruder temp
G28 W ; home all without mesh bed level
G80 X74.0251 Y80.2244 W96.7695 H11.3553 ; mesh bed levelling

;go outside print area
G1 Y-3 F1000
G1 Z0.4 F1000
; select extruder
Tc
; purge line
G1 X55 F2000
G1 Z0.3 F1000
G92 E0
G1 X240 E25 F2200
G1 Y-2 F1000
M73 P2 R4
M73 Q2 S4
G1 X55 E25 F1400
G1 Z0.2 F1000
M73 P5 R3
M73 Q5 S4
G1 X5 E4 F1000

M221 S95
G92 E0

; Don't change E values below. Excessive value can damage the printer.
M907 E430 ; set extruder motor current
G21 ; set units to millimeters
G90 ; use absolute coordinates
M83 ; use relative distances for extrusion

M900 K0.05 ; Filament gcode LA 1.5
M900 K30 ; Filament gcode LA 1.0




M107
;LAYER_CHANGE
;Z:0.2
;HEIGHT:0.2
;BEFORE_LAYER_CHANGE
G92 E0.0
;0.2


G1 E-.8 F2100
M73 P7 R3
M73 Q6 S4
G1 Z.2 F720
;AFTER_LAYER_CHANGE
;0.2
G1 X75.924 Y83.694 F10800
G1 Z.2 F720
M73 Q7 S4
G1 E.8 F2100
M204 S800
;TYPE:Skirt/Brim
;WIDTH:0.42
G1 F1200
G1 X76.57 Y83.294 E.02382
G1 X77.333 Y82.998 E.02566
G1 X78.288 Y82.842 E.03034
G1 X113.383 Y81.61 E1.10106
G1 X166.74 Y80.431 E1.67338
M73 P8 R3
G1 X167.487 Y80.571 E.02383
M73 P9 R3
M73 Q8 S4
G1 X168.25 Y80.866 E.02565
G1 X168.896 Y81.266 E.02382
G1 X169.5 Y81.817 E.02563
G1 X169.958 Y82.423 E.02382
M73 Q9 S4
G1 X170.323 Y83.156 E.02567
G1 X170.531 Y83.886 E.0238
G1 X170.606 Y84.701 E.02566
G1 X170.536 Y85.458 E.02384
G1 X170.312 Y86.244 E.02563
G1 X169.974 Y86.924 E.02381
G1 X169.481 Y87.577 E.02565
G1 X168.919 Y88.089 E.02384
G1 X168.224 Y88.52 E.02564
G1 X167.515 Y88.794 E.02383
G1 X166.718 Y88.944 E.02543
G1 X142.248 Y90.524 E.76884
G1 X78.521 Y91.391 E1.9983
M73 P10 R3
G1 X77.588 Y91.294 E.02941
M73 P11 R3
M73 Q10 S3
G1 X76.809 Y91.046 E.02563
G1 X76.14 Y90.686 E.02382
G1 X75.502 Y90.173 E.02567
G1 X75.008 Y89.596 E.02382
G1 X74.599 Y88.888 E.02564
G1 X74.346 Y88.171 E.02384
G1 X74.221 Y87.363 E.02564
G1 X74.244 Y86.604 E.02381
G1 X74.478 Y85.639 E.03113
G1 X74.862 Y84.851 E.02748
M73 Q11 S3
G1 X75.319 Y84.245 E.0238
G1 X75.88 Y83.734 E.02379
M204 S1000
; printing object bearings_pin.STL id:1 copy 0
;WIPE_START
G1 F8640
G1 X75.924 Y83.694 E-.01373
G1 X76.57 Y83.294 E-.17544
G1 X77.333 Y82.998 E-.18897
G1 X78.288 Y82.842 E-.22343
G1 X79.147 Y82.812 E-.19843
;WIPE_END
G1 Z.6 F720
G1 X78.055 Y86.121 F10800
G1 Z.2 F720
G1 E.8 F2100
M204 S800
;TYPE:Perimeter
;WIDTH:0.419999
G1 F1200
G1 X78.276 Y86.03 E.00749
G1 X78.672 Y86.026 E.01242
G1 X78.956 Y86.11 E.00929
G1 X79.273 Y86.343 E.01234
G1 X79.509 Y86.682 E.01295
G1 X79.588 Y87.079 E.01269
G1 X79.592 Y87.217 E.00433
G1 X79.474 Y87.604 E.01269
G1 X79.235 Y87.933 E.01275
G1 X78.887 Y88.14 E.0127
G1 X78.489 Y88.223 E.01275
G1 X78.092 Y88.14 E.01272
G1 X77.742 Y87.933 E.01275
G1 X77.505 Y87.606 E.01266
G1 X77.385 Y87.217 E.01276
G1 X77.43 Y86.815 E.01268
G1 X77.604 Y86.447 E.01276
G1 X77.894 Y86.187 E.01221
G1 X78 Y86.144 E.00359
M204 S1000
G1 X77.915 Y85.754 F10800
M204 S800
;TYPE:External perimeter
G1 F1200
G1 X78.212 Y85.653 E.00984
G1 X78.726 Y85.648 E.01612
G1 X78.931 Y85.709 E.00671
G1 X79.272 Y85.863 E.01173
G1 X79.544 Y86.081 E.01093
G1 X79.766 Y86.372 E.01148
G1 X79.908 Y86.708 E.01144
G1 X79.965 Y87.067 E.0114
G1 X79.97 Y87.252 E.0058
G1 X79.892 Y87.609 E.01146
G1 X79.729 Y87.936 E.01146
G1 X79.491 Y88.214 E.01147
G1 X79.193 Y88.425 E.01145
G1 X78.852 Y88.558 E.01148
G1 X78.489 Y88.602 E.01146
G1 X78.126 Y88.558 E.01146
G1 X77.785 Y88.425 E.01148
G1 X77.486 Y88.214 E.01147
G1 X77.248 Y87.936 E.01147
G1 X77.085 Y87.609 E.01146
G1 X77.007 Y87.252 E.01146
G1 X77.018 Y86.886 E.01148
G1 X77.118 Y86.534 E.01147
G1 X77.301 Y86.218 E.01145
G1 X77.556 Y85.955 E.01149
M73 P12 R3
G1 X77.829 Y85.783 E.01012
G1 X77.859 Y85.773 E.00099
M204 S1000
;WIPE_START
G1 F8640
G1 X77.915 Y85.754 E-.01365
G1 X78.212 Y85.653 E-.07244
G1 X78.726 Y85.648 E-.11869
G1 X78.931 Y85.709 E-.04939
G1 X79.272 Y85.863 E-.08639
G1 X79.544 Y86.081 E-.08049
G1 X79.766 Y86.372 E-.08451
G1 X79.908 Y86.708 E-.08423
G1 X79.965 Y87.067 E-.08393
G1 X79.97 Y87.252 E-.04273
G1 X79.893 Y87.605 E-.08355
;WIPE_END
G1 Z.6 F720
G1 X79.413 Y86.964 F10800
G1 Z.2 F720
G1 E.8 F2100
M204 S800
;TYPE:Solid infill
;WIDTH:0.424084
G1 F1200
G1 X78.962 Y86.513 E.02021
G1 X78.816 Y86.423 E.00544
G1 X78.624 Y86.366 E.00635
G1 X78.334 Y86.368 E.00919
G1 X78.292 Y86.382 E.0014
G1 X79.223 Y87.313 E.04173
G1 X79.127 Y87.538 E.00775
G1 X79.026 Y87.655 E.0049
G1 X77.949 Y86.578 E.04827
G1 X77.877 Y86.653 E.0033
G1 X77.783 Y86.816 E.00596
G1 X77.753 Y86.921 E.00346
G1 X78.686 Y87.854 E.04182
G1 X78.489 Y87.881 E.0063
G1 X78.302 Y87.857 E.00598
G1 X78.126 Y87.789 E.00598
G1 X77.976 Y87.683 E.00582
G1 X77.573 Y87.28 E.01806
M204 S1000
; stop printing object bearings_pin.STL id:1 copy 0
; printing object bearings_pin.STL id:2 copy 0
;WIPE_START
G1 F8640
G1 X77.976 Y87.683 E-.1316
G1 X78.126 Y87.789 E-.04241
G1 X78.302 Y87.857 E-.04357
G1 X78.489 Y87.881 E-.04353
G1 X78.686 Y87.854 E-.04591
G1 X77.753 Y86.921 E-.30467
G1 X77.783 Y86.816 E-.02521
G1 X77.877 Y86.653 E-.04345
G1 X77.949 Y86.578 E-.02401
G1 X78.242 Y86.871 E-.09564
;WIPE_END
G1 Z.6 F720
G1 X113.121 Y84.889 F10800
G1 Z.2 F720
M73 Q12 S3
G1 E.8 F2100
M204 S800
;TYPE:Perimeter
;WIDTH:0.419999
G1 F1200
G1 X113.342 Y84.798 E.00749
G1 X113.738 Y84.794 E.01242
G1 X114.022 Y84.879 E.00929
G1 X114.338 Y85.112 E.01231
G1 X114.575 Y85.451 E.01297
G1 X114.653 Y85.847 E.01265
G1 X114.658 Y85.985 E.00433
G1 X114.539 Y86.372 E.01269
G1 X114.301 Y86.702 E.01276
G1 X113.952 Y86.908 E.01271
G1 X113.554 Y86.991 E.01275
G1 X113.158 Y86.909 E.01268
G1 X112.808 Y86.702 E.01275
G1 X112.57 Y86.374 E.01271
G1 X112.451 Y85.985 E.01275
G1 X112.496 Y85.584 E.01265
G1 X112.67 Y85.215 E.01279
G1 X112.96 Y84.956 E.01219
G1 X113.065 Y84.912 E.00357
M204 S1000
G1 X112.981 Y84.522 F10800
M204 S800
;TYPE:External perimeter
G1 F1200
G1 X113.278 Y84.421 E.00984
G1 X113.791 Y84.417 E.01609
G1 X113.996 Y84.478 E.00671
G1 X114.338 Y84.631 E.01175
G1 X114.609 Y84.849 E.01091
G1 X114.831 Y85.141 E.0115
G1 X114.974 Y85.476 E.01142
G1 X115.03 Y85.835 E.01139
G1 X115.036 Y86.02 E.0058
G1 X114.958 Y86.377 E.01146
G1 X114.795 Y86.705 E.01148
G1 X114.557 Y86.983 E.01147
G1 X114.258 Y87.194 E.01147
G1 X113.917 Y87.326 E.01146
G1 X113.554 Y87.371 E.01147
G1 X113.191 Y87.326 E.01147
G1 X112.85 Y87.194 E.01146
G1 X112.552 Y86.983 E.01145
G1 X112.314 Y86.705 E.01147
G1 X112.151 Y86.377 E.01148
G1 X112.072 Y86.02 E.01146
G1 X112.084 Y85.655 E.01145
G1 X112.184 Y85.303 E.01147
G1 X112.367 Y84.986 E.01148
G1 X112.621 Y84.723 E.01146
G1 X112.895 Y84.551 E.01014
G1 X112.924 Y84.541 E.00096
M204 S1000
;WIPE_START
G1 F8640
G1 X112.981 Y84.522 E-.01387
G1 X113.278 Y84.421 E-.07244
G1 X113.791 Y84.417 E-.11846
G1 X113.996 Y84.478 E-.04939
G1 X114.338 Y84.631 E-.08651
G1 X114.609 Y84.849 E-.08031
G1 X114.831 Y85.141 E-.0847
G1 X114.974 Y85.476 E-.08411
G1 X115.03 Y85.835 E-.0839
G1 X115.036 Y86.02 E-.04274
G1 X114.958 Y86.374 E-.08357
;WIPE_END
G1 Z.6 F720
M73 P13 R3
G1 X114.478 Y85.732 F10800
G1 Z.2 F720
G1 E.8 F2100
M204 S800
;TYPE:Solid infill
;WIDTH:0.424084
G1 F1200
G1 X114.028 Y85.282 E.02017
G1 X113.882 Y85.191 E.00545
G1 X113.69 Y85.134 E.00635
G1 X113.399 Y85.137 E.00922
G1 X113.358 Y85.151 E.00137
G1 X114.289 Y86.082 E.04173
G1 X114.193 Y86.306 E.00772
G1 X114.092 Y86.424 E.00492
G1 X113.015 Y85.347 E.04827
G1 X112.943 Y85.421 E.00327
G1 X112.849 Y85.584 E.00596
G1 X112.819 Y85.69 E.00349
G1 X113.751 Y86.622 E.04177
G1 X113.554 Y86.649 E.0063
G1 X113.367 Y86.626 E.00597
G1 X113.192 Y86.558 E.00595
G1 X113.042 Y86.452 E.00582
G1 X112.638 Y86.048 E.01811
M204 S1000
; stop printing object bearings_pin.STL id:2 copy 0
; printing object bearings_pin.STL id:0 copy 0
;WIPE_START
G1 F8640
G1 X113.042 Y86.452 E-.13192
G1 X113.192 Y86.558 E-.04241
G1 X113.367 Y86.626 E-.04335
G1 X113.554 Y86.649 E-.0435
G1 X113.751 Y86.622 E-.04591
G1 X112.819 Y85.69 E-.30434
G1 X112.849 Y85.584 E-.02544
G1 X112.943 Y85.421 E-.04345
G1 X113.015 Y85.347 E-.02384
G1 X113.308 Y85.64 E-.09584
;WIPE_END
G1 Z.6 F720
G1 X141.782 Y85.254 F10800
G1 Z.2 F720
G1 E.8 F2100
M73 Q13 S3
M204 S800
;TYPE:Perimeter
;WIDTH:0.419999
G1 F1200
G1 X142.003 Y85.162 E.00751
G1 X142.399 Y85.159 E.01242
G1 X142.683 Y85.243 E.00929
G1 X143 Y85.476 E.01234
G1 X143.236 Y85.815 E.01295
G1 X143.315 Y86.212 E.01269
G1 X143.319 Y86.35 E.00433
G1 X143.201 Y86.736 E.01266
G1 X142.962 Y87.066 E.01278
G1 X142.614 Y87.272 E.01268
G1 X142.216 Y87.355 E.01275
G1 X141.819 Y87.273 E.01271
G1 X141.469 Y87.066 E.01275
G1 X141.232 Y86.738 E.01269
G1 X141.112 Y86.35 E.01273
G1 X141.157 Y85.948 E.01268
G1 X141.331 Y85.579 E.01279
G1 X141.621 Y85.32 E.01219
G1 X141.727 Y85.277 E.00359
M204 S1000
G1 X141.642 Y84.886 F10800
M204 S800
;TYPE:External perimeter
G1 F1200
G1 X141.939 Y84.786 E.00983
G1 X142.453 Y84.781 E.01612
G1 X142.658 Y84.842 E.00671
G1 X143 Y84.996 E.01176
G1 X143.271 Y85.214 E.01091
G1 X143.493 Y85.505 E.01148
G1 X143.635 Y85.841 E.01144
G1 X143.692 Y86.2 E.0114
G1 X143.697 Y86.385 E.0058
G1 X143.619 Y86.742 E.01146
G1 X143.456 Y87.069 E.01146
G1 X143.218 Y87.347 E.01147
G1 X142.92 Y87.558 E.01145
G1 X142.579 Y87.69 E.01146
G1 X142.216 Y87.735 E.01147
G1 X141.853 Y87.69 E.01147
G1 X141.512 Y87.558 E.01146
G1 X141.213 Y87.347 E.01147
G1 X140.975 Y87.069 E.01147
G1 X140.812 Y86.742 E.01146
G1 X140.734 Y86.385 E.01146
G1 X140.745 Y86.019 E.01148
G1 X140.845 Y85.667 E.01147
G1 X141.028 Y85.35 E.01148
G1 X141.283 Y85.088 E.01146
G1 X141.556 Y84.916 E.01012
G1 X141.586 Y84.906 E.00099
M204 S1000
;WIPE_START
G1 F8640
G1 X141.642 Y84.886 E-.01373
G1 X141.939 Y84.786 E-.07236
G1 X142.453 Y84.781 E-.11869
G1 X142.658 Y84.842 E-.04939
G1 X143 Y84.996 E-.08661
G1 X143.271 Y85.214 E-.08031
G1 X143.493 Y85.505 E-.08451
G1 X143.635 Y85.841 E-.08423
G1 X143.692 Y86.2 E-.08393
G1 X143.697 Y86.385 E-.04273
G1 X143.62 Y86.738 E-.08351
;WIPE_END
G1 Z.6 F720
G1 X143.14 Y86.097 F10800
G1 Z.2 F720
G1 E.8 F2100
M204 S800
;TYPE:Solid infill
;WIDTH:0.424084
G1 F1200
M73 P14 R3
G1 X142.69 Y85.646 E.02019
G1 X142.543 Y85.556 E.00546
G1 X142.351 Y85.499 E.00635
G1 X142.061 Y85.501 E.00919
G1 X142.019 Y85.515 E.0014
G1 X142.951 Y86.446 E.04175
G1 X142.854 Y86.671 E.00777
G1 X142.753 Y86.788 E.0049
G1 X141.676 Y85.711 E.04827
G1 X141.604 Y85.785 E.00327
G1 X141.51 Y85.949 E.00599
G1 X141.48 Y86.054 E.00346
G1 X142.413 Y86.986 E.0418
G1 X142.216 Y87.013 E.0063
G1 X142.029 Y86.99 E.00597
G1 X141.853 Y86.922 E.00598
G1 X141.703 Y86.816 E.00582
G1 X141.3 Y86.413 E.01806
M204 S1000
; stop printing object bearings_pin.STL id:0 copy 0
; printing object bearings_pin.STL id:3 copy 0
;WIPE_START
G1 F8640
G1 X141.703 Y86.816 E-.1316
G1 X141.853 Y86.922 E-.04241
G1 X142.029 Y86.99 E-.04357
G1 X142.216 Y87.013 E-.0435
G1 X142.413 Y86.986 E-.04591
G1 X141.48 Y86.054 E-.3045
G1 X141.51 Y85.949 E-.02521
G1 X141.604 Y85.785 E-.04365
G1 X141.676 Y85.711 E-.02384
G1 X141.97 Y86.004 E-.09581
;WIPE_END
G1 Z.6 F720
G1 X165.898 Y83.693 F10800
G1 Z.2 F720
G1 E.8 F2100
M204 S800
;TYPE:Perimeter
;WIDTH:0.419999
G1 F1200
G1 X166.119 Y83.602 E.00749
G1 X166.515 Y83.598 E.01242
G1 X166.799 Y83.682 E.00929
G1 X167.116 Y83.915 E.01234
G1 X167.352 Y84.254 E.01295
G1 X167.43 Y84.651 E.01269
G1 X167.435 Y84.789 E.00433
G1 X167.316 Y85.176 E.01269
G1 X167.078 Y85.505 E.01273
G1 X166.729 Y85.712 E.01272
G1 X166.331 Y85.795 E.01275
G1 X165.935 Y85.712 E.01269
G1 X165.585 Y85.505 E.01275
G1 X165.347 Y85.178 E.01268
G1 X165.228 Y84.789 E.01275
G1 X165.273 Y84.387 E.01268
M73 Q14 S3
G1 X165.447 Y84.019 E.01276
G1 X165.737 Y83.759 E.01221
G1 X165.842 Y83.716 E.00356
M204 S1000
G1 X165.758 Y83.326 F10800
M204 S800
;TYPE:External perimeter
G1 F1200
G1 X166.055 Y83.225 E.00984
G1 X166.568 Y83.22 E.01609
G1 X166.773 Y83.281 E.00671
G1 X167.115 Y83.435 E.01176
G1 X167.386 Y83.653 E.01091
G1 X167.608 Y83.945 E.0115
G1 X167.751 Y84.28 E.01142
G1 X167.807 Y84.639 E.01139
G1 X167.813 Y84.824 E.0058
G1 X167.735 Y85.181 E.01146
G1 X167.572 Y85.508 E.01146
G1 X167.334 Y85.786 E.01147
G1 X167.035 Y85.997 E.01147
G1 X166.694 Y86.13 E.01148
G1 X166.331 Y86.175 E.01147
G1 X165.968 Y86.13 E.01147
G1 X165.627 Y85.997 E.01148
G1 X165.329 Y85.786 E.01145
G1 X165.091 Y85.508 E.01147
G1 X164.928 Y85.181 E.01146
G1 X164.849 Y84.824 E.01146
G1 X164.861 Y84.458 E.01148
G1 X164.961 Y84.106 E.01147
G1 X165.144 Y83.79 E.01145
G1 X165.398 Y83.527 E.01146
G1 X165.672 Y83.355 E.01014
G1 X165.701 Y83.345 E.00096
M204 S1000
;WIPE_START
G1 F8640
G1 X165.758 Y83.326 E-.01387
G1 X166.055 Y83.225 E-.07244
G1 X166.568 Y83.22 E-.11846
G1 X166.773 Y83.281 E-.04939
G1 X167.115 Y83.435 E-.08661
G1 X167.386 Y83.653 E-.08031
G1 X167.608 Y83.945 E-.0847
G1 X167.751 Y84.28 E-.08411
G1 X167.807 Y84.639 E-.0839
G1 X167.813 Y84.824 E-.04274
G1 X167.736 Y85.177 E-.08347
;WIPE_END
G1 Z.6 F720
G1 X167.255 Y84.536 F10800
G1 Z.2 F720
G1 E.8 F2100
M204 S800
;TYPE:Solid infill
;WIDTH:0.424084
G1 F1200
G1 X166.805 Y84.085 E.02019
G1 X166.659 Y83.995 E.00544
G1 X166.467 Y83.938 E.00635
G1 X166.176 Y83.94 E.00922
G1 X166.135 Y83.954 E.00137
G1 X167.066 Y84.885 E.04173
G1 X166.97 Y85.11 E.00775
G1 X166.869 Y85.227 E.0049
G1 X165.792 Y84.15 E.04827
G1 X165.72 Y84.225 E.0033
M73 P15 R3
G1 X165.626 Y84.388 E.00596
G1 X165.596 Y84.493 E.00346
G1 X166.528 Y85.426 E.0418
G1 X166.331 Y85.453 E.0063
G1 X166.144 Y85.43 E.00597
G1 X165.969 Y85.361 E.00596
G1 X165.819 Y85.255 E.00582
G1 X165.415 Y84.852 E.01809
M204 S1000
; stop printing object bearings_pin.STL id:3 copy 0
M106 S84.15
;LAYER_CHANGE
;Z:0.4
;HEIGHT:0.2
;BEFORE_LAYER_CHANGE
G92 E0.0
;0.4


;WIPE_START
G1 F8640
G1 X165.819 Y85.255 E-.13176
G1 X165.969 Y85.361 E-.04241
G1 X166.144 Y85.43 E-.04344
G1 X166.331 Y85.453 E-.0435
G1 X166.528 Y85.426 E-.04591
G1 X165.596 Y84.493 E-.3045
G1 X165.626 Y84.388 E-.02521
G1 X165.72 Y84.225 E-.04345
G1 X165.792 Y84.15 E-.02401
G1 X166.085 Y84.444 E-.09581
;WIPE_END
G1 Z.4 F720
;AFTER_LAYER_CHANGE
;0.4
G1 Z.8
G1 X165.997 Y80.447 F10800
G1 Z.4 F720
G1 E.8 F2100
;TYPE:Skirt/Brim
;WIDTH:0.42
G1 F2973
G1 X166.74 Y80.431 E.0233
