; generated by PrusaSlicer 2.7.1+win64 on 2024-03-22 at 12:31:48 UTC


;
;
; 

; external perimeters extrusion width = 0.45mm
; perimeters extrusion width = 0.45mm
; infill extrusion width = 0.45mm
; solid infill extrusion width = 0.45mm
; top infill extrusion width = 0.40mm
; first layer extrusion width = 0.42mm

M73 P0 R167
M73 Q0 S167
M201 X1000 Y1000 Z200 E5000 ; sets maximum accelerations, mm/sec^2
M203 X200 Y200 Z12 E120 ; sets maximum feedrates, mm / sec
M204 S1250 T1250 ; sets acceleration (S) and retract acceleration (R), mm/sec^2
M205 X8.00 Y8.00 Z0.40 E4.50 ; sets the jerk limits, mm/sec
M205 S0 T0 ; sets the minimum extruding and travel feed rate, mm/sec

; printing object wall.STL id:0 copy 0
; stop printing object wall.STL id:0 copy 0

;TYPE:Custom
M862.3 P "MK3SMMU2S" ; printer model check
M862.1 P0.4 ; nozzle diameter check
M115 U3.13.3 ; tell printer latest fw version
G90 ; use absolute coordinates
M83 ; extruder relative mode
M104 S215 ; set extruder temp
M140 S60 ; set bed temp
Tx
M190 S60 ; wait for bed temp
M109 S215 ; wait for extruder temp
G28 W ; home all without mesh bed level
G80 X65.845 Y38.7913 W125.131 H125.131 ; mesh bed levelling

;go outside print area
G1 Y-3 F1000
G1 Z0.4 F1000
; select extruder
Tc
; purge line
G1 X55 F2000
G1 Z0.3 F1000
G92 E0
G1 X240 E25 F2200
G1 Y-2 F1000
G1 X55 E25 F1400
G1 Z0.2 F1000
G1 X5 E4 F1000

M221 S95
G92 E0

; Don't change E values below. Excessive value can damage the printer.
M907 E430 ; set extruder motor current
G21 ; set units to millimeters
G90 ; use absolute coordinates
M83 ; use relative distances for extrusion

M900 K0.05 ; Filament gcode LA 1.5
M900 K30 ; Filament gcode LA 1.0




M107
;LAYER_CHANGE
;Z:0.2
;HEIGHT:0.2
;BEFORE_LAYER_CHANGE
G92 E0.0
;0.2


G1 E-.8 F2100
G1 Z.2 F720
;AFTER_LAYER_CHANGE
;0.2
G1 X66.425 Y40.05 F10800
G1 Z.2 F720
G1 E.8 F2100
M204 S800
;TYPE:Skirt/Brim
;WIDTH:0.42
G1 F1200
G1 X67.471 Y39.174 E.04278
G1 X68.411 Y38.98 E.03009
G1 X188.411 Y38.98 E3.76252
G1 X189.718 Y39.371 E.04277
G1 X190.594 Y40.417 E.04278
G1 X190.788 Y41.357 E.03009
G1 X190.788 Y161.357 E3.76252
G1 X190.396 Y162.664 E.04278
M73 P0 R166
G1 X189.35 Y163.54 E.04278
G1 X188.411 Y163.734 E.03006
G1 X68.411 Y163.734 E3.76252
G1 X67.104 Y163.342 E.04278
G1 X66.227 Y162.297 E.04277
G1 X66.034 Y161.357 E.03009
G1 X66.034 Y41.357 E3.76252
G1 X66.408 Y40.107 E.04091
M204 S1000
; printing object wall.STL id:0 copy 0
;WIPE_START
G1 F8640
G1 X66.425 Y40.05 E-.01373
G1 X67.471 Y39.174 E-.31504
G1 X68.411 Y38.98 E-.22162
G1 X69.492 Y38.98 E-.24961
;WIPE_END
G1 Z.6 F720
G1 X187.624 Y160.57 F10800
G1 Z.2 F720
G1 E.8 F2100
M204 S800
;TYPE:Perimeter
;WIDTH:0.419999
G1 F1200
G1 X69.198 Y160.57 E3.71316
G1 X69.198 Y42.144 E3.71316
G1 X187.624 Y42.144 E3.71316
M73 Q0 S166
G1 X187.624 Y101.357 E1.85658
G1 X187.624 Y160.51 E1.8547
M204 S1000
G1 X188.001 Y160.947 F10800
M204 S800
;TYPE:External perimeter
G1 F1200
G1 X68.821 Y160.947 E3.7368
G1 X68.821 Y41.767 E3.7368
G1 X188.001 Y41.767 E3.7368
G1 X188.001 Y101.357 E1.8684
G1 X188.001 Y160.887 E1.86652
M204 S1000
;WIPE_START
G1 F8640
M73 P0 R165
G1 X188.001 Y160.947 E-.01385
G1 X184.596 Y160.947 E-.78615
;WIPE_END
G1 Z.6 F720
G1 X186.692 Y42.314 F10800
G1 Z.2 F720
G1 E.8 F2100
M204 S800
;TYPE:Solid infill
;WIDTH:0.420014
G1 F1200
G1 X187.284 Y42.906 E.02625
G1 X187.284 Y43.44 E.01674
G1 X186.328 Y42.483 E.04241
G1 X185.795 Y42.483 E.01671
G1 X187.284 Y43.973 E.06605
G1 X187.284 Y44.506 E.01671
G1 X185.261 Y42.483 E.08971
G1 X184.728 Y42.483 E.01671
G1 X187.284 Y45.04 E.11336
G1 X187.284 Y45.573 E.01671
G1 X184.195 Y42.483 E.137
G1 X183.662 Y42.483 E.01671
G1 X187.284 Y46.106 E.16063
G1 X187.284 Y46.639 E.01671
G1 X183.128 Y42.483 E.18429
G1 X182.595 Y42.483 E.01671
G1 X187.284 Y47.173 E.20795
G1 X187.284 Y47.706 E.01671
G1 X182.062 Y42.483 E.23158
G1 X181.528 Y42.483 E.01674
G1 X187.284 Y48.239 E.25524
G1 X187.284 Y48.773 E.01674
G1 X180.995 Y42.483 E.2789
G1 X180.462 Y42.483 E.01671
G1 X187.284 Y49.306 E.30253
G1 X187.284 Y49.839 E.01671
G1 X179.928 Y42.483 E.32619
G1 X179.395 Y42.483 E.01671
G1 X187.284 Y50.372 E.34982
G1 X187.284 Y50.906 E.01674
G1 X178.862 Y42.483 E.37348
G1 X178.329 Y42.483 E.01671
G1 X187.284 Y51.439 E.39712
G1 X187.284 Y51.972 E.01671
M73 Q1 S166
G1 X177.795 Y42.483 E.42077
G1 X177.262 Y42.483 E.01671
M73 P1 R165
G1 X187.284 Y52.506 E.44443
G1 X187.284 Y53.039 E.01671
G1 X176.729 Y42.483 E.46807
G1 X176.195 Y42.483 E.01674
G1 X187.284 Y53.572 E.49172
G1 X187.284 Y54.105 E.01671
G1 X175.662 Y42.483 E.51536
G1 X175.129 Y42.483 E.01671
G1 X187.284 Y54.639 E.53902
G1 X187.284 Y55.172 E.01671
G1 X174.596 Y42.483 E.56265
G1 X174.062 Y42.483 E.01674
G1 X187.284 Y55.705 E.58631
G1 X187.284 Y56.239 E.01674
G1 X173.529 Y42.483 E.60997
G1 X172.996 Y42.483 E.01671
G1 X187.284 Y56.772 E.6336
G1 X187.284 Y57.305 E.01671
G1 X172.462 Y42.483 E.65726
G1 X171.929 Y42.483 E.01671
G1 X187.284 Y57.839 E.68091
G1 X187.284 Y58.372 E.01671
G1 X171.396 Y42.483 E.70455
G1 X170.863 Y42.483 E.01671
G1 X187.284 Y58.905 E.72818
G1 X187.284 Y59.438 E.01671
G1 X170.329 Y42.483 E.75184
G1 X169.796 Y42.483 E.01671
M73 Q1 S165
G1 X187.284 Y59.972 E.7755
G1 X187.284 Y60.505 E.01671
G1 X169.263 Y42.483 E.79913
G1 X168.729 Y42.483 E.01674
G1 X187.284 Y61.038 E.82279
G1 X187.284 Y61.572 E.01674
G1 X168.196 Y42.483 E.84645
G1 X167.663 Y42.483 E.01671
G1 X187.284 Y62.105 E.87008
G1 X187.284 Y62.638 E.01671
G1 X167.129 Y42.483 E.89374
G1 X166.596 Y42.483 E.01671
G1 X187.284 Y63.171 E.91738
G1 X187.284 Y63.705 E.01674
G1 X166.063 Y42.483 E.94103
G1 X165.53 Y42.483 E.01671
G1 X187.284 Y64.238 E.96467
G1 X187.284 Y64.771 E.01671
G1 X164.996 Y42.483 E.98832
G1 X164.463 Y42.483 E.01671
G1 X187.284 Y65.305 E1.01198
G1 X187.284 Y65.838 E.01671
G1 X163.93 Y42.483 E1.03562
G1 X163.396 Y42.483 E.01674
G1 X187.284 Y66.371 E1.05927
G1 X187.284 Y66.904 E.01671
G1 X162.863 Y42.483 E1.08291
G1 X162.33 Y42.483 E.01671
G1 X187.284 Y67.438 E1.10657
G1 X187.284 Y67.971 E.01671
G1 X161.797 Y42.483 E1.1302
G1 X161.263 Y42.483 E.01674
G1 X187.284 Y68.504 E1.15386
G1 X187.284 Y69.038 E.01674
G1 X160.73 Y42.483 E1.17752
G1 X160.197 Y42.483 E.01671
G1 X187.284 Y69.571 E1.20115
G1 X187.284 Y70.104 E.01671
G1 X159.663 Y42.483 E1.22481
G1 X159.13 Y42.483 E.01671
G1 X187.284 Y70.638 E1.24847
G1 X187.284 Y71.171 E.01671
G1 X158.597 Y42.483 E1.2721
G1 X158.064 Y42.483 E.01671
M73 P1 R164
G1 X187.284 Y71.704 E1.29574
G1 X187.284 Y72.237 E.01671
G1 X157.53 Y42.483 E1.31939
G1 X156.997 Y42.483 E.01671
G1 X187.284 Y72.771 E1.34305
G1 X187.284 Y73.304 E.01671
G1 X156.464 Y42.483 E1.36668
G1 X155.93 Y42.483 E.01674
G1 X187.284 Y73.837 E1.39034
G1 X187.284 Y74.371 E.01674
G1 X155.397 Y42.483 E1.414
G1 X154.864 Y42.483 E.01671
G1 X187.284 Y74.904 E1.43763
G1 X187.284 Y75.437 E.01671
G1 X154.33 Y42.483 E1.46129
G1 X153.797 Y42.483 E.01671
G1 X187.284 Y75.97 E1.48493
G1 X187.284 Y76.504 E.01674
G1 X153.264 Y42.483 E1.50858
G1 X152.731 Y42.483 E.01671
G1 X187.284 Y77.037 E1.53222
G1 X187.284 Y77.57 E.01671
M73 Q1 S164
G1 X152.197 Y42.483 E1.55588
G1 X151.664 Y42.483 E.01671
G1 X187.284 Y78.104 E1.57953
G1 X187.284 Y78.637 E.01671
G1 X151.131 Y42.483 E1.60317
G1 X150.597 Y42.483 E.01674
G1 X187.284 Y79.17 E1.62682
G1 X187.284 Y79.703 E.01671
G1 X150.064 Y42.483 E1.65046
G1 X149.531 Y42.483 E.01671
G1 X187.284 Y80.237 E1.67412
G1 X187.284 Y80.77 E.01671
G1 X148.998 Y42.483 E1.69775
G1 X148.464 Y42.483 E.01674
G1 X187.284 Y81.303 E1.72141
G1 X187.284 Y81.837 E.01674
G1 X147.931 Y42.483 E1.74507
G1 X147.398 Y42.483 E.01671
M73 Q2 S164
G1 X187.284 Y82.37 E1.7687
G1 X187.284 Y82.903 E.01671
M73 P2 R164
G1 X146.864 Y42.483 E1.79236
G1 X146.331 Y42.483 E.01671
G1 X187.284 Y83.436 E1.81599
G1 X187.284 Y83.97 E.01674
G1 X145.798 Y42.483 E1.83965
G1 X145.265 Y42.483 E.01671
M73 P2 R163
G1 X187.284 Y84.503 E1.86329
G1 X187.284 Y85.036 E.01671
G1 X144.731 Y42.483 E1.88694
G1 X144.198 Y42.483 E.01671
G1 X187.284 Y85.57 E1.9106
G1 X187.284 Y86.103 E.01671
G1 X143.665 Y42.483 E1.93424
G1 X143.131 Y42.483 E.01674
G1 X187.284 Y86.636 E1.95789
G1 X187.284 Y87.17 E.01674
G1 X142.598 Y42.483 E1.98155
G1 X142.065 Y42.483 E.01671
G1 X187.284 Y87.703 E2.00518
G1 X187.284 Y88.236 E.01671
G1 X141.531 Y42.483 E2.02884
G1 X140.998 Y42.483 E.01671
M73 Q2 S163
G1 X187.284 Y88.769 E2.05248
G1 X187.284 Y89.303 E.01674
G1 X140.465 Y42.483 E2.07613
G1 X139.932 Y42.483 E.01671
G1 X187.284 Y89.836 E2.09977
G1 X187.284 Y90.369 E.01671
G1 X139.398 Y42.483 E2.12343
G1 X138.865 Y42.483 E.01671
G1 X187.284 Y90.903 E2.14708
G1 X187.284 Y91.436 E.01671
G1 X138.332 Y42.483 E2.17072
G1 X137.798 Y42.483 E.01674
G1 X187.284 Y91.969 E2.19438
G1 X187.284 Y92.502 E.01671
G1 X137.265 Y42.483 E2.21801
G1 X136.732 Y42.483 E.01671
G1 X187.284 Y93.036 E2.24167
G1 X187.284 Y93.569 E.01671
G1 X136.199 Y42.483 E2.2653
G1 X135.665 Y42.483 E.01674
M73 P2 R162
G1 X187.284 Y94.102 E2.28896
G1 X187.284 Y94.636 E.01674
G1 X135.132 Y42.483 E2.31262
G1 X134.599 Y42.483 E.01671
G1 X187.284 Y95.169 E2.33625
G1 X187.284 Y95.702 E.01671
G1 X134.065 Y42.483 E2.35991
G1 X133.532 Y42.483 E.01671
G1 X187.284 Y96.235 E2.38354
G1 X187.284 Y96.769 E.01674
G1 X132.999 Y42.483 E2.4072
G1 X132.466 Y42.483 E.01671
M73 Q2 S162
G1 X187.284 Y97.302 E2.43084
G1 X187.284 Y97.835 E.01671
G1 X131.932 Y42.483 E2.45449
G1 X131.399 Y42.483 E.01671
M73 P3 R162
M73 Q3 S162
G1 X187.284 Y98.369 E2.47815
G1 X187.284 Y98.902 E.01671
G1 X130.866 Y42.483 E2.50179
G1 X130.332 Y42.483 E.01674
G1 X187.284 Y99.435 E2.52544
G1 X187.284 Y99.969 E.01674
G1 X129.799 Y42.483 E2.5491
G1 X129.266 Y42.483 E.01671
G1 X187.284 Y100.502 E2.57274
G1 X187.284 Y101.035 E.01671
G1 X128.732 Y42.483 E2.59639
G1 X128.199 Y42.483 E.01671
G1 X187.284 Y101.568 E2.62003
G1 X187.284 Y102.102 E.01674
M73 P3 R161
G1 X127.666 Y42.483 E2.64368
G1 X127.133 Y42.483 E.01671
G1 X187.284 Y102.635 E2.66732
G1 X187.284 Y103.168 E.01671
G1 X126.599 Y42.483 E2.69098
G1 X126.066 Y42.483 E.01671
G1 X187.284 Y103.702 E2.71463
G1 X187.284 Y104.235 E.01671
G1 X125.533 Y42.483 E2.73827
G1 X124.999 Y42.483 E.01674
G1 X187.284 Y104.768 E2.76193
G1 X187.284 Y105.301 E.01671
M73 Q3 S161
G1 X124.466 Y42.483 E2.78556
G1 X123.933 Y42.483 E.01671
G1 X187.284 Y105.835 E2.80922
G1 X187.284 Y106.368 E.01671
G1 X123.4 Y42.483 E2.83285
G1 X122.866 Y42.483 E.01674
G1 X187.284 Y106.901 E2.85651
G1 X187.284 Y107.435 E.01674
G1 X122.333 Y42.483 E2.88017
G1 X121.8 Y42.483 E.01671
G1 X187.284 Y107.968 E2.9038
G1 X187.284 Y108.501 E.01671
G1 X121.266 Y42.483 E2.92746
G1 X120.733 Y42.483 E.01671
G1 X187.284 Y109.034 E2.9511
G1 X187.284 Y109.568 E.01674
M73 P3 R160
G1 X120.2 Y42.483 E2.97475
G1 X119.667 Y42.483 E.01671
G1 X187.284 Y110.101 E2.99839
G1 X187.284 Y110.634 E.01671
M73 P4 R160
M73 Q4 S161
G1 X119.133 Y42.483 E3.02204
G1 X118.6 Y42.483 E.01671
G1 X187.284 Y111.168 E3.0457
G1 X187.284 Y111.701 E.01671
G1 X118.067 Y42.483 E3.06934
G1 X117.533 Y42.483 E.01674
M73 Q4 S160
G1 X187.284 Y112.234 E3.09299
G1 X187.284 Y112.768 E.01674
G1 X117 Y42.483 E3.11665
G1 X116.467 Y42.483 E.01671
G1 X187.284 Y113.301 E3.14029
G1 X187.284 Y113.834 E.01671
G1 X115.933 Y42.483 E3.16394
G1 X115.4 Y42.483 E.01671
G1 X187.284 Y114.367 E3.18758
G1 X187.284 Y114.901 E.01674
G1 X114.867 Y42.483 E3.21124
G1 X114.334 Y42.483 E.01671
G1 X187.284 Y115.434 E3.23487
G1 X187.284 Y115.967 E.01671
M73 P4 R159
G1 X113.8 Y42.483 E3.25853
G1 X113.267 Y42.483 E.01671
G1 X187.284 Y116.501 E3.28218
G1 X187.284 Y117.034 E.01671
G1 X112.734 Y42.483 E3.30582
G1 X112.2 Y42.483 E.01674
G1 X187.284 Y117.567 E3.32948
G1 X187.284 Y118.1 E.01671
M73 Q4 S159
G1 X111.667 Y42.483 E3.35311
G1 X111.134 Y42.483 E.01671
G1 X187.284 Y118.634 E3.37677
G1 X187.284 Y119.167 E.01671
G1 X110.601 Y42.483 E3.4004
G1 X110.067 Y42.483 E.01674
G1 X187.284 Y119.7 E3.42406
G1 X187.284 Y120.234 E.01674
G1 X109.534 Y42.483 E3.44772
G1 X109.001 Y42.483 E.01671
M73 P5 R159
M73 Q5 S159
G1 X187.284 Y120.767 E3.47135
G1 X187.284 Y121.3 E.01671
G1 X108.467 Y42.483 E3.49501
G1 X107.934 Y42.483 E.01671
M73 P5 R158
G1 X187.284 Y121.833 E3.51865
G1 X187.284 Y122.367 E.01674
G1 X107.401 Y42.483 E3.5423
G1 X106.868 Y42.483 E.01671
G1 X187.284 Y122.9 E3.56594
G1 X187.284 Y123.433 E.01671
G1 X106.334 Y42.483 E3.5896
G1 X105.801 Y42.483 E.01671
M73 Q5 S158
G1 X187.284 Y123.967 E3.61325
G1 X187.284 Y124.5 E.01671
G1 X105.268 Y42.483 E3.63689
G1 X104.734 Y42.483 E.01674
G1 X187.284 Y125.033 E3.66054
G1 X187.284 Y125.567 E.01674
G1 X104.201 Y42.483 E3.6842
G1 X103.668 Y42.483 E.01671
G1 X187.284 Y126.1 E3.70784
G1 X187.284 Y126.633 E.01671
G1 X103.135 Y42.483 E3.73147
G1 X102.601 Y42.483 E.01674
M73 P5 R157
G1 X187.284 Y127.166 E3.75513
G1 X187.284 Y127.7 E.01674
G1 X102.068 Y42.483 E3.77879
G1 X101.535 Y42.483 E.01671
G1 X187.284 Y128.233 E3.80242
G1 X187.284 Y128.766 E.01671
G1 X101.001 Y42.483 E3.82608
G1 X100.468 Y42.483 E.01671
M73 Q5 S157
G1 X187.284 Y129.3 E3.84974
G1 X187.284 Y129.833 E.01671
M73 P6 R157
G1 X99.935 Y42.483 E3.87337
G1 X99.401 Y42.483 E.01674
M73 Q6 S157
G1 X187.284 Y130.366 E3.89703
G1 X187.284 Y130.899 E.01671
G1 X98.868 Y42.483 E3.92066
G1 X98.335 Y42.483 E.01671
G1 X187.284 Y131.433 E3.94432
G1 X187.284 Y131.966 E.01671
G1 X97.802 Y42.483 E3.96796
G1 X97.268 Y42.483 E.01674
M73 P6 R156
G1 X187.284 Y132.499 E3.99161
G1 X187.284 Y133.033 E.01674
G1 X96.735 Y42.483 E4.01527
G1 X96.202 Y42.483 E.01671
G1 X187.284 Y133.566 E4.0389
G1 X187.284 Y134.099 E.01671
G1 X95.668 Y42.483 E4.06256
G1 X95.135 Y42.483 E.01671
M73 Q6 S156
G1 X187.284 Y134.632 E4.0862
G1 X187.284 Y135.166 E.01674
G1 X94.602 Y42.483 E4.10985
G1 X94.069 Y42.483 E.01671
G1 X187.284 Y135.699 E4.13349
G1 X187.284 Y136.232 E.01671
G1 X93.535 Y42.483 E4.15715
G1 X93.002 Y42.483 E.01671
G1 X187.284 Y136.766 E4.1808
G1 X187.284 Y137.299 E.01671
M73 P6 R155
G1 X92.469 Y42.483 E4.20444
G1 X91.935 Y42.483 E.01674
G1 X187.284 Y137.832 E4.2281
G1 X187.284 Y138.366 E.01674
M73 P7 R155
M73 Q7 S156
G1 X91.402 Y42.483 E4.25175
G1 X90.869 Y42.483 E.01671
G1 X187.284 Y138.899 E4.27539
G1 X187.284 Y139.432 E.01671
M73 Q7 S155
G1 X90.336 Y42.483 E4.29902
G1 X89.802 Y42.483 E.01674
G1 X187.284 Y139.965 E4.32268
G1 X187.284 Y140.499 E.01674
G1 X89.269 Y42.483 E4.34634
G1 X88.736 Y42.483 E.01671
G1 X187.284 Y141.032 E4.36997
G1 X187.284 Y141.565 E.01671
G1 X88.202 Y42.483 E4.39363
G1 X87.669 Y42.483 E.01671
M73 P7 R154
G1 X187.284 Y142.099 E4.41729
G1 X187.284 Y142.632 E.01671
G1 X87.136 Y42.483 E4.44092
G1 X86.602 Y42.483 E.01674
G1 X187.284 Y143.165 E4.46458
G1 X187.284 Y143.698 E.01671
M73 Q7 S154
G1 X86.069 Y42.483 E4.48821
G1 X85.536 Y42.483 E.01671
G1 X187.284 Y144.232 E4.51187
G1 X187.284 Y144.765 E.01671
G1 X85.003 Y42.483 E4.53551
G1 X84.469 Y42.483 E.01674
G1 X187.284 Y145.298 E4.55916
G1 X187.284 Y145.832 E.01674
M73 P8 R154
M73 Q8 S154
G1 X83.936 Y42.483 E4.58282
G1 X83.403 Y42.483 E.01671
M73 P8 R153
G1 X187.284 Y146.365 E4.60646
G1 X187.284 Y146.898 E.01671
G1 X82.869 Y42.483 E4.63011
G1 X82.336 Y42.483 E.01671
G1 X187.284 Y147.431 E4.65375
G1 X187.284 Y147.965 E.01674
M73 Q8 S153
G1 X81.803 Y42.483 E4.6774
G1 X81.27 Y42.483 E.01671
G1 X187.284 Y148.498 E4.70104
G1 X187.284 Y149.031 E.01671
G1 X80.736 Y42.483 E4.7247
G1 X80.203 Y42.483 E.01671
G1 X187.284 Y149.565 E4.74835
G1 X187.284 Y150.098 E.01671
G1 X79.67 Y42.483 E4.77199
G1 X79.136 Y42.483 E.01674
M73 P8 R152
G1 X187.284 Y150.631 E4.79565
G1 X187.284 Y151.165 E.01674
G1 X78.603 Y42.483 E4.8193
G1 X78.07 Y42.483 E.01671
G1 X187.284 Y151.698 E4.84294
G1 X187.284 Y152.231 E.01671
M73 Q8 S152
G1 X77.537 Y42.483 E4.86657
G1 X77.003 Y42.483 E.01674
G1 X187.284 Y152.764 E4.89023
G1 X187.284 Y153.298 E.01674
M73 P9 R152
M73 Q9 S152
G1 X76.47 Y42.483 E4.91389
G1 X75.937 Y42.483 E.01671
G1 X187.284 Y153.831 E4.93752
G1 X187.284 Y154.364 E.01671
G1 X75.403 Y42.483 E4.96118
G1 X74.87 Y42.483 E.01671
M73 P9 R151
G1 X187.284 Y154.898 E4.98484
G1 X187.284 Y155.431 E.01671
G1 X74.337 Y42.483 E5.00847
G1 X73.803 Y42.483 E.01674
G1 X187.284 Y155.964 E5.03213
G1 X187.284 Y156.497 E.01671
M73 Q9 S151
G1 X73.27 Y42.483 E5.05576
G1 X72.737 Y42.483 E.01671
G1 X187.284 Y157.031 E5.07942
