; generated by PrusaSlicer 2.7.1+win64 on 2024-03-22 at 13:05:08 UTC


;
;
; 

; external perimeters extrusion width = 0.45mm
; perimeters extrusion width = 0.45mm
; infill extrusion width = 0.45mm
; solid infill extrusion width = 0.45mm
; top infill extrusion width = 0.40mm
; support material extrusion width = 0.35mm
; first layer extrusion width = 0.42mm

; external perimeters extrusion width = 0.45mm
; perimeters extrusion width = 0.45mm
; infill extrusion width = 0.45mm
; solid infill extrusion width = 0.45mm
; top infill extrusion width = 0.40mm
; support material extrusion width = 0.35mm
; first layer extrusion width = 0.42mm

M73 P0 R7
M73 Q0 S7
M201 X1000 Y1000 Z200 E5000 ; sets maximum accelerations, mm/sec^2
M203 X200 Y200 Z12 E120 ; sets maximum feedrates, mm / sec
M204 S1250 T1250 ; sets acceleration (S) and retract acceleration (R), mm/sec^2
M205 X8.00 Y8.00 Z0.40 E4.50 ; sets the jerk limits, mm/sec
M205 S0 T0 ; sets the minimum extruding and travel feed rate, mm/sec

; printing object bearing_pin.STL id:1 copy 0
; stop printing object bearing_pin.STL id:1 copy 0
; printing object bearing_pin.STL id:0 copy 0
; stop printing object bearing_pin.STL id:0 copy 0

;TYPE:Custom
M862.3 P "MK3SMMU2S" ; printer model check
M862.1 P0.4 ; nozzle diameter check
M115 U3.13.3 ; tell printer latest fw version
G90 ; use absolute coordinates
M83 ; extruder relative mode
M104 S215 ; set extruder temp
M140 S60 ; set bed temp
Tx
M190 S60 ; wait for bed temp
M109 S215 ; wait for extruder temp
G28 W ; home all without mesh bed level
G80 X117.337 Y97.2159 W43.4775 H25.5287 ; mesh bed levelling

;go outside print area
G1 Y-3 F1000
G1 Z0.4 F1000
; select extruder
Tc
; purge line
G1 X55 F2000
G1 Z0.3 F1000
G92 E0
G1 X240 E25 F2200
G1 Y-2 F1000
M73 P1 R7
M73 Q1 S7
G1 X55 E25 F1400
G1 Z0.2 F1000
M73 P3 R7
M73 Q3 S7
G1 X5 E4 F1000

M221 S95
G92 E0

; Don't change E values below. Excessive value can damage the printer.
M907 E430 ; set extruder motor current
G21 ; set units to millimeters
G90 ; use absolute coordinates
M83 ; use relative distances for extrusion

M900 K0.05 ; Filament gcode LA 1.5
M900 K30 ; Filament gcode LA 1.0




M107
;LAYER_CHANGE
;Z:0.2
;HEIGHT:0.2
;BEFORE_LAYER_CHANGE
G92 E0.0
;0.2


G1 E-.8 F2100
M73 P4 R7
M73 Q4 S7
G1 Z.2 F720
;AFTER_LAYER_CHANGE
;0.2
G1 X117.917 Y101.224 F10800
G1 Z.2 F720
G1 E.8 F2100
M204 S800
;TYPE:Skirt/Brim
;WIDTH:0.42
G1 F1200
G1 X118.675 Y100.496 E.03295
G1 X123.232 Y97.746 E.16688
G1 X124.46 Y97.404 E.03997
G1 X130.483 Y97.405 E.18885
G1 X153.714 Y97.63 E.72843
G1 X154.919 Y97.972 E.03927
G1 X159.477 Y100.721 E.16689
G1 X160.394 Y101.732 E.0428
G1 X160.626 Y102.757 E.03295
G1 X160.626 Y120.179 E.54625
G1 X160.234 Y121.486 E.04278
M73 P5 R7
M73 Q5 S7
G1 X159.189 Y122.362 E.04275
G1 X158.249 Y122.556 E.03009
G1 X143.111 Y122.556 E.47464
G1 X119.879 Y122.33 E.72846
G1 X118.576 Y121.926 E.04277
G1 X117.71 Y120.872 E.04277
G1 X117.525 Y119.953 E.02939
G1 X117.525 Y102.531 E.54625
G1 X117.9 Y101.281 E.04092
M73 P5 R6
M204 S1000
; printing object bearing_pin.STL id:0 copy 0
;WIPE_START
G1 F8640
G1 X117.917 Y101.224 E-.01373
G1 X118.675 Y100.496 E-.24267
G1 X120.691 Y99.28 E-.5436
;WIPE_END
G1 Z.6 F720
G1 X123.98 Y105.98 F10800
G1 Z.2 F720
G1 E.8 F2100
M204 S800
;TYPE:Support material
G1 F1200
G1 X124.261 Y106.262 E.01248
G1 X130.659 Y106.262 E.2006
G1 X130.94 Y105.98 E.01248
G1 X130.94 Y102.531 E.10814
G1 X135.018 Y102.531 E.12786
M73 Q6 S7
G1 X135.018 Y119.953 E.54625
M73 P6 R6
G1 X119.903 Y119.953 E.47392
M73 Q6 S6
G1 X119.903 Y102.531 E.54625
G1 X123.98 Y102.531 E.12783
G1 X123.98 Y105.924 E.10639
M204 S1000
G1 X134.583 Y119.784 F10800
M204 S800
G1 F1200
G1 X134.583 Y102.87 E.53033
G1 X134.164 Y102.87 E.01314
G1 X134.164 Y119.614 E.525
G1 X133.745 Y119.614 E.01314
M73 P7 R6
M73 Q7 S6
G1 X133.745 Y102.87 E.525
G1 X133.326 Y102.87 E.01314
G1 X133.326 Y119.614 E.525
G1 X132.907 Y119.614 E.01314
G1 X132.907 Y102.87 E.525
G1 X132.488 Y102.87 E.01314
G1 X132.488 Y119.614 E.525
G1 X132.069 Y119.614 E.01314
G1 X132.069 Y102.87 E.525
G1 X131.65 Y102.87 E.01314
M73 P8 R6
M73 Q8 S6
G1 X131.65 Y119.614 E.525
G1 X131.231 Y119.614 E.01314
G1 X131.231 Y106.169 E.42156
G1 X130.812 Y106.588 E.01858
G1 X130.812 Y119.614 E.40842
G1 X130.393 Y119.614 E.01314
G1 X130.393 Y106.601 E.40801
G1 X129.974 Y106.601 E.01314
G1 X129.974 Y119.614 E.40801
G1 X129.555 Y119.614 E.01314
G1 X129.555 Y106.601 E.40801
G1 X129.136 Y106.601 E.01314
M73 P9 R6
M73 Q9 S6
G1 X129.136 Y119.614 E.40801
G1 X128.717 Y119.614 E.01314
G1 X128.717 Y106.601 E.40801
G1 X128.298 Y106.601 E.01314
G1 X128.298 Y119.614 E.40801
G1 X127.879 Y119.614 E.01314
G1 X127.879 Y106.601 E.40801
G1 X127.46 Y106.601 E.01314
G1 X127.46 Y119.614 E.40801
G1 X127.041 Y119.614 E.01314
G1 X127.041 Y106.601 E.40801
G1 X126.622 Y106.601 E.01314
M73 P10 R6
M73 Q10 S6
G1 X126.622 Y119.614 E.40801
G1 X126.203 Y119.614 E.01314
G1 X126.203 Y106.601 E.40801
G1 X125.784 Y106.601 E.01314
G1 X125.784 Y119.614 E.40801
G1 X125.365 Y119.614 E.01314
G1 X125.365 Y106.601 E.40801
G1 X124.946 Y106.601 E.01314
G1 X124.946 Y119.614 E.40801
G1 X124.527 Y119.614 E.01314
G1 X124.527 Y106.601 E.40801
G1 X124.108 Y106.588 E.01314
G1 X124.108 Y119.614 E.40842
G1 X123.689 Y119.614 E.01314
M73 P11 R6
M73 Q11 S6
G1 X123.641 Y102.87 E.525
G1 X123.27 Y102.87 E.01163
G1 X123.27 Y119.614 E.525
G1 X122.851 Y119.614 E.01314
G1 X122.851 Y102.87 E.525
G1 X122.432 Y102.87 E.01314
G1 X122.432 Y119.614 E.525
G1 X122.013 Y119.614 E.01314
G1 X122.013 Y102.87 E.525
G1 X121.594 Y102.87 E.01314
M73 P12 R6
M73 Q12 S6
G1 X121.594 Y119.614 E.525
G1 X121.176 Y119.614 E.01311
G1 X121.176 Y102.87 E.525
G1 X120.757 Y102.87 E.01314
G1 X120.757 Y119.614 E.525
G1 X120.338 Y119.614 E.01314
G1 X120.338 Y102.701 E.5303
M204 S1000
;WIPE_START
G1 F8640
G1 X120.338 Y106.166 E-.8
;WIPE_END
G1 Z.6 F720
G1 X124.796 Y105.445 F10800
G1 Z.2 F720
G1 E.8 F2100
M204 S800
;TYPE:External perimeter
;WIDTH:0.461979
G1 F1200
G1 X124.722 Y104.773 E.02356
;WIDTH:0.42
G1 X124.722 Y100.782 E.12514
;WIDTH:0.461979
G1 X124.796 Y100.118 E.02328
M73 P13 R6
M73 Q13 S6
G1 X125.469 Y100.043 E.0236
;WIDTH:0.419999
G1 X129.459 Y100.044 E.1251
;WIDTH:0.461957
G1 X130.124 Y100.118 E.02331
G1 X130.199 Y100.797 E.0238
;WIDTH:0.42
G1 X130.198 Y104.781 E.12492
;WIDTH:0.461978
G1 X130.124 Y105.445 E.02328
G1 X129.452 Y105.52 E.02356
;WIDTH:0.42
G1 X125.461 Y105.519 E.12514
;WIDTH:0.461979
G1 X124.856 Y105.452 E.02121
M204 S1000
;WIPE_START
G1 F8640
G1 X124.796 Y105.445 E-.01395
G1 X124.722 Y104.773 E-.1561
;WIPE_END
G1 E-.62995 F2100
G1 Z.6 F720
G1 X125.139 Y100.46 F10800
G1 Z.2 F720
G1 E.8 F2100
M204 S800
G1 F1200
G1 X125.476 Y100.42 E.01183
;WIDTH:0.42
G1 X129.444 Y100.42 E.12441
;WIDTH:0.461957
G1 X129.781 Y100.46 E.01182
G1 X129.822 Y100.797 E.01183
;WIDTH:0.42
G1 X129.822 Y104.766 E.12445
;WIDTH:0.461978
G1 X129.781 Y105.103 E.01183
G1 X129.444 Y105.143 E.01183
;WIDTH:0.42
G1 X125.476 Y105.143 E.12441
;WIDTH:0.461979
G1 X125.139 Y105.103 E.01183
G1 X125.099 Y104.766 E.01183
;WIDTH:0.42
G1 X125.102 Y100.609 E.13034
;WIDTH:0.461979
G1 X125.125 Y100.519 E.00324
M204 S1000
; stop printing object bearing_pin.STL id:0 copy 0
; printing object bearing_pin.STL id:1 copy 0
;WIPE_START
G1 F8640
G1 X125.139 Y100.46 E-.014
G1 X125.476 Y100.42 E-.07836
;WIPE_END
G1 E-.70764 F2100
G1 Z.6 F720
G1 X147.211 Y106.206 F10800
G1 Z.2 F720
G1 E.8 F2100
M204 S800
;TYPE:Support material
;WIDTH:0.42
G1 F1200
G1 X147.492 Y106.487 E.01246
G1 X153.89 Y106.487 E.2006
G1 X154.171 Y106.206 E.01246
G1 X154.171 Y102.757 E.10814
G1 X158.249 Y102.757 E.12786
G1 X158.249 Y120.179 E.54625
G1 X143.134 Y120.179 E.47392
M73 P14 R6
M73 Q14 S6
G1 X143.134 Y102.757 E.54625
G1 X147.211 Y102.757 E.12783
G1 X147.211 Y106.15 E.10639
M204 S1000
G1 X157.814 Y120.009 F10800
M204 S800
G1 F1200
G1 X157.814 Y103.096 E.5303
G1 X157.395 Y103.096 E.01314
G1 X157.395 Y119.84 E.525
G1 X156.976 Y119.84 E.01314
G1 X156.976 Y103.096 E.525
G1 X156.557 Y103.096 E.01314
M73 P15 R6
M73 Q15 S6
G1 X156.557 Y119.84 E.525
G1 X156.138 Y119.84 E.01314
G1 X156.138 Y103.096 E.525
G1 X155.719 Y103.096 E.01314
G1 X155.719 Y119.84 E.525
G1 X155.3 Y119.84 E.01314
G1 X155.3 Y103.096 E.525
G1 X154.881 Y103.096 E.01314
G1 X154.881 Y119.84 E.525
G1 X154.462 Y119.84 E.01314
M73 P16 R6
M73 Q16 S6
G1 X154.462 Y106.395 E.42156
G1 X154.043 Y106.814 E.01858
G1 X154.043 Y119.84 E.40842
G1 X153.624 Y119.84 E.01314
G1 X153.624 Y106.827 E.40801
G1 X153.205 Y106.827 E.01314
G1 X153.205 Y119.84 E.40801
G1 X152.786 Y119.84 E.01314
G1 X152.786 Y106.827 E.40801
G1 X152.367 Y106.827 E.01314
G1 X152.367 Y119.84 E.40801
G1 X151.948 Y119.84 E.01314
M73 P17 R6
M73 Q17 S6
G1 X151.948 Y106.827 E.40801
G1 X151.529 Y106.827 E.01314
G1 X151.529 Y119.84 E.40801
G1 X151.11 Y119.84 E.01314
G1 X151.11 Y106.827 E.40801
G1 X150.691 Y106.827 E.01314
G1 X150.691 Y119.84 E.40801
G1 X150.272 Y119.84 E.01314
G1 X150.272 Y106.827 E.40801
G1 X149.853 Y106.827 E.01314
G1 X149.853 Y119.84 E.40801
G1 X149.434 Y119.84 E.01314
G1 X149.434 Y106.827 E.40801
G1 X149.015 Y106.827 E.01314
M73 P18 R6
M73 Q18 S6
G1 X149.015 Y119.84 E.40801
G1 X148.596 Y119.84 E.01314
G1 X148.596 Y106.827 E.40801
G1 X148.177 Y106.827 E.01314
G1 X148.177 Y119.84 E.40801
G1 X147.758 Y119.84 E.01314
G1 X147.758 Y106.827 E.40801
G1 X147.339 Y106.814 E.01314
G1 X147.339 Y119.84 E.40842
G1 X146.92 Y119.84 E.01314
G1 X146.872 Y103.096 E.525
G1 X146.501 Y103.096 E.01163
M73 P19 R5
M73 Q19 S6
G1 X146.501 Y119.84 E.525
G1 X146.083 Y119.84 E.01311
G1 X146.083 Y103.096 E.525
G1 X145.664 Y103.096 E.01314
G1 X145.664 Y119.84 E.525
G1 X145.245 Y119.84 E.01314
M73 Q19 S5
G1 X145.245 Y103.096 E.525
G1 X144.826 Y103.096 E.01314
G1 X144.826 Y119.84 E.525
G1 X144.407 Y119.84 E.01314
M73 P20 R5
M73 Q20 S5
G1 X144.407 Y103.096 E.525
G1 X143.988 Y103.096 E.01314
G1 X143.988 Y119.84 E.525
G1 X143.569 Y119.84 E.01314
G1 X143.569 Y102.926 E.53033
M204 S1000
;WIPE_START
G1 F8640
G1 X143.569 Y106.391 E-.8
;WIPE_END
G1 Z.6 F720
G1 X148.027 Y105.671 F10800
G1 Z.2 F720
G1 E.8 F2100
M204 S800
;TYPE:External perimeter
;WIDTH:0.461979
G1 F1200
G1 X147.953 Y104.999 E.02356
;WIDTH:0.42
G1 X147.953 Y101.008 E.12514
;WIDTH:0.461979
G1 X148.027 Y100.343 E.02331
G1 X148.7 Y100.269 E.02359
;WIDTH:0.419999
G1 X152.69 Y100.269 E.1251
;WIDTH:0.461957
G1 X153.355 Y100.343 E.02331
G1 X153.43 Y101.023 E.02384
;WIDTH:0.42
G1 X153.429 Y105.006 E.12488
;WIDTH:0.461978
G1 X153.355 Y105.671 E.02331
G1 X152.683 Y105.746 E.02356
;WIDTH:0.42
G1 X148.692 Y105.745 E.12514
;WIDTH:0.461979
G1 X148.087 Y105.678 E.02121
M73 P21 R5
M204 S1000
;WIPE_START
G1 F8640
G1 X148.027 Y105.671 E-.01395
G1 X147.953 Y104.999 E-.1561
;WIPE_END
G1 E-.62995 F2100
G1 Z.6 F720
M73 Q21 S5
G1 X148.37 Y100.686 F10800
G1 Z.2 F720
G1 E.8 F2100
M204 S800
G1 F1200
G1 X148.707 Y100.646 E.01183
;WIDTH:0.42
G1 X152.675 Y100.646 E.12441
;WIDTH:0.461957
G1 X153.012 Y100.686 E.01182
G1 X153.053 Y101.023 E.01183
;WIDTH:0.42
G1 X153.053 Y104.991 E.12441
;WIDTH:0.461978
G1 X153.012 Y105.328 E.01183
G1 X152.675 Y105.369 E.01183
;WIDTH:0.42
G1 X148.707 Y105.369 E.12441
;WIDTH:0.461979
G1 X148.37 Y105.328 E.01183
G1 X148.33 Y104.991 E.01183
;WIDTH:0.42
G1 X148.334 Y100.834 E.13034
;WIDTH:0.461979
G1 X148.356 Y100.744 E.00323
M204 S1000
; stop printing object bearing_pin.STL id:1 copy 0
M106 S84.15
;LAYER_CHANGE
;Z:0.4
;HEIGHT:0.2
;BEFORE_LAYER_CHANGE
G92 E0.0
;0.4


;WIPE_START
G1 F8640
G1 X148.37 Y100.686 E-.01378
G1 X148.707 Y100.646 E-.07836
;WIPE_END
G1 E-.70786 F2100
G1 Z.4 F720
;AFTER_LAYER_CHANGE
;0.4
G1 Z.8
G1 X148.737 Y97.582 F10800
G1 Z.4 F720
G1 E.8 F2100
;TYPE:Skirt/Brim
;WIDTH:0.42
G1 F3000
G1 X153.714 Y97.63 E.15606
G1 X154.919 Y97.972 E.03927
G1 X159.477 Y100.721 E.16689
G1 X160.394 Y101.732 E.0428
G1 X160.626 Y102.757 E.03295
G1 X160.626 Y120.179 E.54625
G1 X160.234 Y121.486 E.04278
G1 X159.189 Y122.362 E.04275
G1 X158.249 Y122.556 E.03009
G1 X143.111 Y122.556 E.47464
G1 X119.879 Y122.33 E.72846
G1 X118.576 Y121.926 E.04277
G1 X117.71 Y120.872 E.04277
G1 X117.525 Y119.953 E.02939
G1 X117.525 Y102.531 E.54625
G1 X117.917 Y101.224 E.04278
G1 X118.675 Y100.496 E.03295
G1 X123.232 Y97.746 E.16688
G1 X124.46 Y97.404 E.03997
G1 X130.483 Y97.405 E.18885
G1 X148.677 Y97.581 E.57049
; printing object bearing_pin.STL id:0 copy 0
;WIPE_START
G1 F8640
M73 P22 R5
G1 X148.737 Y97.582 E-.01386
G1 X152.142 Y97.615 E-.78614
;WIPE_END
G1 Z.8 F720
M73 Q22 S5
G1 X122.846 Y105.474 F10800
G1 Z.4 F720
G1 E.8 F2100
;TYPE:Support material
;WIDTH:0.35
G1 F3000
G1 X124.037 Y105.474 E.03041
G1 X124.037 Y105.957 E.01233
G1 X124.285 Y106.205 E.00896
G1 X130.636 Y106.205 E.16217
G1 X130.884 Y105.957 E.00896
G1 X130.884 Y105.474 E.01233
G1 X132.074 Y105.474 E.03039
G1 X132.074 Y107.782 E.05893
G1 X122.846 Y107.782 E.23563
G1 X122.846 Y110.089 E.05891
G1 X132.074 Y110.089 E.23563
G1 X132.074 Y112.396 E.05891
G1 X122.846 Y112.396 E.23563
G1 X122.846 Y114.703 E.05891
G1 X132.074 Y114.703 E.23563
G1 X132.074 Y117.01 E.05891
G1 X122.846 Y117.01 E.23563
;WIPE_START
G1 F8640
G1 X126.311 Y117.01 E-.8
;WIPE_END
G1 Z.8 F720
G1 X124.733 Y105.509 F10800
G1 Z.4 F720
G1 E.8 F2100
M204 S800
;TYPE:External perimeter
;WIDTH:0.544985
G1 F1500
G1 X124.714 Y105.206 E.01267
;WIDTH:0.508223
G1 X124.696 Y104.903 E.01174
;WIDTH:0.47146
G1 X124.696 Y100.66 E.15119
;WIDTH:0.508223
G1 X124.714 Y100.357 E.01174
;WIDTH:0.544985
G1 X124.733 Y100.054 E.01267
G1 X125.036 Y100.036 E.01267
;WIDTH:0.508223
G1 X125.339 Y100.017 E.01175
;WIDTH:0.47146
G1 X129.582 Y100.017 E.15119
;WIDTH:0.508223
G1 X129.885 Y100.036 E.01175
;WIDTH:0.544986
G1 X130.188 Y100.054 E.01267
G1 X130.188 Y100.305 E.01048
G1 X130.206 Y100.483 E.00747
;WIDTH:0.508223
G1 X130.224 Y100.66 E.00688
;WIDTH:0.47146
G1 X130.224 Y104.903 E.15119
;WIDTH:0.474707
G1 X130.223 Y104.978 E.00269
;WIDTH:0.509847
G1 X130.205 Y105.243 E.01031
;WIDTH:0.544986
G1 X130.188 Y105.509 E.01113
G1 X129.885 Y105.527 E.01267
;WIDTH:0.508223
G1 X129.582 Y105.546 E.01175
;WIDTH:0.47146
G1 X125.339 Y105.546 E.15119
;WIDTH:0.508223
G1 X125.036 Y105.527 E.01175
;WIDTH:0.544985
G1 X124.793 Y105.513 E.01016
M204 S1000
;WIPE_START
G1 F8640
G1 X124.733 Y105.509 E-.01388
G1 X124.714 Y105.206 E-.0701
;WIPE_END
G1 E-.71602 F2100
G1 Z.8 F720
G1 X125.161 Y100.483 F10800
G1 Z.4 F720
G1 E.8 F2100
M73 P23 R5
M204 S800
G1 F1500
G1 X125.25 Y100.464 E.0038
;WIDTH:0.508223
G1 X125.339 Y100.446 E.00351
;WIDTH:0.47146
G1 X129.582 Y100.446 E.15119
;WIDTH:0.508223
G1 X129.67 Y100.464 E.00348
M73 Q23 S5
;WIDTH:0.544986
G1 X129.759 Y100.483 E.0038
G1 X129.778 Y100.571 E.00376
;WIDTH:0.508223
G1 X129.796 Y100.66 E.00351
;WIDTH:0.47146
G1 X129.796 Y104.903 E.15119
;WIDTH:0.508223
G1 X129.778 Y104.992 E.00351
;WIDTH:0.544986
G1 X129.759 Y105.08 E.00376
G1 X129.67 Y105.099 E.0038
;WIDTH:0.508223
G1 X129.582 Y105.117 E.00348
;WIDTH:0.47146
G1 X125.339 Y105.117 E.15119
;WIDTH:0.508223
G1 X125.25 Y105.099 E.00351
;WIDTH:0.544985
G1 X125.161 Y105.08 E.0038
G1 X125.143 Y104.992 E.00375
;WIDTH:0.508223
G1 X125.124 Y104.903 E.00352
;WIDTH:0.47146
G1 X125.124 Y100.66 E.15119
;WIDTH:0.508223
G1 X125.143 Y100.571 E.00352
;WIDTH:0.544985
G1 X125.149 Y100.541 E.00128
M204 S1000
; stop printing object bearing_pin.STL id:0 copy 0
; printing object bearing_pin.STL id:1 copy 0
;WIPE_START
G1 F8640
G1 X125.161 Y100.483 E-.01368
G1 X125.25 Y100.464 E-.02101
;WIPE_END
G1 E-.76531 F2100
G1 Z.8 F720
G1 X146.077 Y105.7 F10800
G1 Z.4 F720
G1 E.8 F2100
;TYPE:Support material
;WIDTH:0.35
G1 F3000
G1 X147.268 Y105.7 E.03041
G1 X147.268 Y106.183 E.01233
G1 X147.516 Y106.431 E.00896
G1 X153.867 Y106.431 E.16217
G1 X154.115 Y106.183 E.00896
G1 X154.115 Y105.7 E.01233
G1 X155.305 Y105.7 E.03039
G1 X155.305 Y108.007 E.05891
G1 X146.077 Y108.007 E.23563
G1 X146.077 Y110.314 E.05891
G1 X155.305 Y110.314 E.23563
G1 X155.305 Y112.621 E.05891
G1 X146.077 Y112.621 E.23563
G1 X146.077 Y114.928 E.05891
G1 X155.305 Y114.928 E.23563
G1 X155.305 Y117.236 E.05893
G1 X146.077 Y117.236 E.23563
;WIPE_START
G1 F8640
G1 X149.542 Y117.236 E-.8
;WIPE_END
G1 Z.8 F720
G1 X147.964 Y105.735 F10800
G1 Z.4 F720
G1 E.8 F2100
M204 S800
