; generated by PrusaSlicer 2.7.1+win64 on 2024-03-22 at 13:10:22 UTC


;
;
; 

; external perimeters extrusion width = 0.45mm
; perimeters extrusion width = 0.45mm
; infill extrusion width = 0.45mm
; solid infill extrusion width = 0.45mm
; top infill extrusion width = 0.40mm
; first layer extrusion width = 0.42mm

; external perimeters extrusion width = 0.45mm
; perimeters extrusion width = 0.45mm
; infill extrusion width = 0.45mm
; solid infill extrusion width = 0.45mm
; top infill extrusion width = 0.40mm
; first layer extrusion width = 0.42mm

M73 P0 R9
M73 C1
M73 Q0 S10
M73 D2
M201 X1000 Y1000 Z200 E5000 ; sets maximum accelerations, mm/sec^2
M203 X200 Y200 Z12 E120 ; sets maximum feedrates, mm / sec
M204 S1250 T1250 ; sets acceleration (S) and retract acceleration (R), mm/sec^2
M205 X8.00 Y8.00 Z0.40 E4.50 ; sets the jerk limits, mm/sec
M205 S0 T0 ; sets the minimum extruding and travel feed rate, mm/sec

; printing object bearings_axis_square.STL id:0 copy 0
; stop printing object bearings_axis_square.STL id:0 copy 0
; printing object bearings_axis_square.STL id:1 copy 0
; stop printing object bearings_axis_square.STL id:1 copy 0

;TYPE:Custom
M862.3 P "MK3SMMU2S" ; printer model check
M862.1 P0.4 ; nozzle diameter check
M115 U3.13.3 ; tell printer latest fw version
G90 ; use absolute coordinates
M83 ; extruder relative mode
M104 S215 ; set extruder temp
M140 S60 ; set bed temp
Tx
M190 S60 ; wait for bed temp
M109 S215 ; wait for extruder temp
G28 W ; home all without mesh bed level
G80 X119.562 Y99.5598 W58.4548 H11.5221 ; mesh bed levelling

;go outside print area
G1 Y-3 F1000
G1 Z0.4 F1000
; select extruder
Tc
; purge line
G1 X55 F2000
G1 Z0.3 F1000
G92 E0
G1 X240 E25 F2200
G1 Y-2 F1000
M73 P1 R9
M73 Q1 S10
M73 D1
G1 X55 E25 F1400
G1 Z0.2 F1000
M73 P2 R9
M73 Q2 S10
G1 X5 E4 F1000

M221 S95
G92 E0

; Don't change E values below. Excessive value can damage the printer.
M907 E430 ; set extruder motor current
G21 ; set units to millimeters
G90 ; use absolute coordinates
M83 ; use relative distances for extrusion

M900 K0.05 ; Filament gcode LA 1.5
M900 K30 ; Filament gcode LA 1.0




M107
;LAYER_CHANGE
;Z:0.2
;HEIGHT:0.2
;BEFORE_LAYER_CHANGE
G92 E0.0
;0.2


G1 E-.8 F2100
M73 P3 R9
G1 Z.2 F720
;AFTER_LAYER_CHANGE
;0.2
G1 X120.994 Y101.606 F10800
G1 Z.2 F720
M73 Q3 S10
G1 E.8 F2100
M204 S800
;TYPE:Skirt/Brim
;WIDTH:0.42
G1 F1200
G1 X121.689 Y100.923 E.03055
G1 X122.426 Y100.422 E.02794
G1 X123.237 Y100.054 E.02792
G1 X124.561 Y99.769 E.04246
G1 X172.728 Y100.39 E1.51037
G1 X173.918 Y100.564 E.03771
M73 Q3 S9
G1 X174.757 Y100.863 E.02793
G1 X175.533 Y101.299 E.02791
G1 X176.225 Y101.859 E.02791
G1 X176.811 Y102.529 E.02791
G1 X177.277 Y103.288 E.02793
G1 X177.714 Y104.525 E.04113
G1 X177.829 Y105.408 E.02792
G1 X177.793 Y106.298 E.02793
G1 X177.607 Y107.169 E.02793
G1 X177.049 Y108.403 E.04246
G1 X176.518 Y109.118 E.02792
G1 X175.874 Y109.733 E.02792
G1 X175.135 Y110.23 E.02792
G1 X174.323 Y110.595 E.02791
G1 X173.04 Y110.871 E.04115
G1 X124.561 Y110.231 E1.52016
G1 X123.683 Y110.083 E.02792
M73 P4 R9
M73 Q4 S9
G1 X122.843 Y109.788 E.02791
G1 X122.065 Y109.355 E.02792
G1 X121.371 Y108.797 E.02792
G1 X120.781 Y108.13 E.02792
G1 X120.313 Y107.373 E.0279
G1 X119.979 Y106.547 E.02794
G1 X119.79 Y105.677 E.02791
G1 X119.75 Y104.788 E.0279
G1 X119.979 Y103.453 E.04247
G1 X120.313 Y102.627 E.02794
G1 X120.961 Y101.656 E.0366
M204 S1000
G1 X121.274 Y101.864 F10800
M204 S800
G1 F1200
G1 X121.288 Y101.843 E.00079
G1 X121.938 Y101.206 E.02854
G1 X122.624 Y100.744 E.02593
G1 X123.377 Y100.404 E.0259
G1 X124.577 Y100.145 E.03849
G1 X172.723 Y100.767 E1.50971
G1 X173.807 Y100.925 E.03435
G1 X174.587 Y101.199 E.02592
G1 X175.309 Y101.602 E.02593
G1 X175.952 Y102.12 E.02589
G1 X176.499 Y102.74 E.02592
G1 X176.933 Y103.443 E.0259
G1 X177.328 Y104.538 E.0365
G1 X177.453 Y105.44 E.02855
G1 X177.417 Y106.266 E.02592
G1 X177.108 Y107.454 E.03849
G1 X176.737 Y108.192 E.0259
G1 X176.246 Y108.857 E.02592
G1 X175.65 Y109.43 E.02592
G1 X174.965 Y109.893 E.02592
G1 X174.213 Y110.234 E.02589
G1 X172.993 Y110.497 E.03913
G1 X124.577 Y109.855 E1.51818
G1 X123.763 Y109.714 E.0259
M73 P5 R9
M73 Q5 S9
G1 X122.984 Y109.438 E.02591
G1 X122.263 Y109.034 E.02591
G1 X121.62 Y108.514 E.02593
G1 X121.075 Y107.893 E.02591
G1 X120.642 Y107.189 E.02591
G1 X120.335 Y106.422 E.0259
G1 X120.162 Y105.614 E.02591
G1 X120.162 Y104.386 E.0385
G1 X120.335 Y103.578 E.02591
G1 X120.642 Y102.811 E.0259
G1 X121.24 Y101.914 E.0338
M204 S1000
; printing object bearings_axis_square.STL id:0 copy 0
;WIPE_START
G1 F8640
G1 X121.274 Y101.864 E-.01396
G1 X121.288 Y101.843 E-.00583
G1 X121.938 Y101.206 E-.21014
G1 X122.624 Y100.744 E-.19097
G1 X123.377 Y100.404 E-.19077
G1 X124.174 Y100.232 E-.18833
;WIPE_END
G1 Z.6 F720
G1 X126.69 Y105.025 F10800
G1 Z.2 F720
G1 E.8 F2100
M204 S800
;TYPE:Perimeter
;WIDTH:0.419999
G1 F1200
G1 X126.693 Y105.144 E.00373
G1 X126.681 Y105.289 E.00456
G1 X126.488 Y105.834 E.01813
G1 X126.125 Y106.284 E.01813
G1 X125.633 Y106.587 E.01812
G1 X125.068 Y106.709 E.01812
G1 X124.495 Y106.635 E.01812
G1 X123.979 Y106.375 E.01812
G1 X123.579 Y105.958 E.01812
G1 X123.341 Y105.431 E.01813
G1 X123.298 Y105.072 E.01134
G1 X123.341 Y104.569 E.01583
G1 X123.579 Y104.042 E.01813
G1 X123.985 Y103.621 E.01834
G1 X124.495 Y103.365 E.01789
G1 X125.068 Y103.291 E.01812
G1 X125.64 Y103.417 E.01836
G1 X126.125 Y103.716 E.01786
G1 X126.488 Y104.166 E.01813
G1 X126.681 Y104.711 E.01813
G1 X126.688 Y104.965 E.00797
M204 S1000
G1 X127.064 Y105.014 F10800
M204 S800
;TYPE:External perimeter
G1 F1200
G1 X127.069 Y105.176 E.00508
G1 X126.965 Y105.696 E.01663
G1 X126.719 Y106.166 E.01663
G1 X126.375 Y106.568 E.01659
G1 X125.932 Y106.858 E.0166
G1 X125.436 Y107.042 E.01659
G1 X124.907 Y107.079 E.01663
G1 X124.384 Y106.997 E.0166
G1 X123.903 Y106.771 E.01666
G1 X123.488 Y106.445 E.01655
G1 X123.176 Y106.009 E.01681
G1 X122.974 Y105.526 E.01642
G1 X122.922 Y105.108 E.01321
G1 X122.947 Y104.635 E.01485
G1 X123.092 Y104.14 E.01617
G1 X123.363 Y103.709 E.01596
G1 X123.756 Y103.319 E.01736
G1 X124.224 Y103.067 E.01667
G1 X124.73 Y102.928 E.01645
G1 X125.239 Y102.933 E.01596
G1 X125.777 Y103.063 E.01735
G1 X126.237 Y103.33 E.01668
G1 X126.62 Y103.688 E.01644
G1 X126.892 Y104.144 E.01665
G1 X127.054 Y104.647 E.01657
G1 X127.063 Y104.954 E.00963
M204 S1000
G1 X126.461 Y104.541 F10800
M204 S800
;TYPE:Solid infill
;WIDTH:0.432155
G1 F1200
G1 X125.869 Y103.949 E.0271
G1 X125.714 Y103.834 E.00625
G1 X125.519 Y103.736 E.00706
G1 X125.14 Y103.643 E.01263
G1 X125.003 Y103.634 E.00444
G1 X126.365 Y104.995 E.06232
G1 X126.345 Y105.231 E.00767
G1 X126.283 Y105.464 E.0078
G1 X124.534 Y103.715 E.08005
G1 X124.379 Y103.777 E.0054
G1 X124.176 Y103.907 E.0078
G1 X126.088 Y105.82 E.08754
G1 X125.9 Y106.028 E.00907
G1 X125.812 Y106.094 E.00356
G1 X123.901 Y104.183 E.08747
G1 X123.748 Y104.436 E.00957
G1 X123.71 Y104.542 E.00364
G1 X125.454 Y106.287 E.07985
G1 X125.284 Y106.339 E.00575
G1 X124.983 Y106.365 E.00978
G1 X123.637 Y105.019 E.06161
G1 X123.67 Y105.345 E.0106
G1 X123.748 Y105.564 E.00752
G1 X123.861 Y105.767 E.00752
G1 X123.975 Y105.908 E.00587
G1 X124.535 Y106.469 E.02565
M204 S1000
; stop printing object bearings_axis_square.STL id:0 copy 0
; printing object bearings_axis_square.STL id:1 copy 0
;WIPE_START
G1 F8640
G1 X123.975 Y105.908 E-.18303
G1 X123.861 Y105.767 E-.04187
G1 X123.748 Y105.564 E-.05365
G1 X123.67 Y105.345 E-.05368
G1 X123.637 Y105.019 E-.07566
G1 X124.837 Y106.22 E-.39211
;WIPE_END
G1 Z.6 F720
G1 X174.279 Y105.666 F10800
G1 Z.2 F720
G1 E.8 F2100
M204 S800
;TYPE:Perimeter
;WIDTH:0.419999
G1 F1200
G1 X174.282 Y105.786 E.00376
G1 X174.27 Y105.931 E.00456
G1 X174.077 Y106.476 E.01813
G1 X173.714 Y106.925 E.0181
G1 X173.222 Y107.228 E.01812
G1 X172.657 Y107.35 E.01812
G1 X172.084 Y107.277 E.01811
G1 X171.568 Y107.017 E.01812
G1 X171.168 Y106.599 E.01814
G1 X170.93 Y106.073 E.0181
M73 P6 R9
G1 X170.888 Y105.713 E.01136
G1 X170.93 Y105.211 E.01579
G1 X171.168 Y104.684 E.01813
G1 X171.574 Y104.263 E.01834
G1 X172.084 Y104.007 E.01789
G1 X172.657 Y103.933 E.01812
G1 X173.229 Y104.058 E.01836
G1 X173.714 Y104.358 E.01788
G1 X174.077 Y104.808 E.01813
G1 X174.27 Y105.353 E.01813
G1 X174.277 Y105.606 E.00794
M204 S1000
G1 X174.653 Y105.656 F10800
M204 S800
;TYPE:External perimeter
G1 F1200
G1 X174.658 Y105.818 E.00508
G1 X174.554 Y106.338 E.01663
G1 X174.308 Y106.807 E.01661
G1 X173.964 Y107.21 E.01661
G1 X173.521 Y107.5 E.0166
G1 X173.025 Y107.683 E.01658
G1 X172.496 Y107.721 E.01663
G1 X171.973 Y107.639 E.0166
G1 X171.492 Y107.413 E.01666
G1 X171.077 Y107.087 E.01655
G1 X170.765 Y106.651 E.01681
G1 X170.563 Y106.168 E.01642
G1 X170.511 Y105.75 E.01321
G1 X170.536 Y105.277 E.01485
G1 X170.681 Y104.781 E.0162
G1 X170.952 Y104.351 E.01594
G1 X171.345 Y103.961 E.01736
G1 X171.813 Y103.709 E.01667
G1 X172.319 Y103.57 E.01645
G1 X172.828 Y103.575 E.01596
G1 X173.366 Y103.705 E.01735
G1 X173.826 Y103.972 E.01668
G1 X174.209 Y104.33 E.01644
G1 X174.481 Y104.786 E.01665
G1 X174.643 Y105.289 E.01657
G1 X174.652 Y105.596 E.00963
M204 S1000
G1 X174.051 Y105.183 F10800
M204 S800
;TYPE:Solid infill
;WIDTH:0.432155
G1 F1200
G1 X173.458 Y104.59 E.02714
G1 X173.303 Y104.476 E.00623
G1 X173.108 Y104.377 E.00708
M73 Q6 S9
G1 X172.729 Y104.284 E.01263
G1 X172.593 Y104.276 E.00441
G1 X173.954 Y105.637 E.06229
G1 X173.934 Y105.873 E.00767
G1 X173.872 Y106.106 E.0078
G1 X172.123 Y104.357 E.08005
G1 X171.968 Y104.419 E.0054
G1 X171.765 Y104.549 E.0078
G1 X173.677 Y106.461 E.08751
G1 X173.489 Y106.67 E.0091
G1 X173.401 Y106.735 E.00354
G1 X171.49 Y104.825 E.08745
G1 X171.337 Y105.078 E.00957
G1 X171.299 Y105.184 E.00364
G1 X173.043 Y106.928 E.07982
G1 X172.873 Y106.98 E.00575
G1 X172.572 Y107.007 E.00978
G1 X171.226 Y105.661 E.06161
G1 X171.259 Y105.987 E.0106
G1 X171.337 Y106.206 E.00752
G1 X171.45 Y106.409 E.00752
G1 X171.564 Y106.55 E.00587
G1 X172.124 Y107.11 E.02563
M204 S1000
; stop printing object bearings_axis_square.STL id:1 copy 0
M106 S84.15
;LAYER_CHANGE
;Z:0.4
;HEIGHT:0.2
;BEFORE_LAYER_CHANGE
G92 E0.0
;0.4


;WIPE_START
G1 F8640
G1 X171.564 Y106.55 E-.18287
G1 X171.45 Y106.409 E-.04187
G1 X171.337 Y106.206 E-.05365
G1 X171.259 Y105.987 E-.05368
G1 X171.226 Y105.661 E-.07566
G1 X172.427 Y106.862 E-.39227
;WIPE_END
G1 Z.4 F720
;AFTER_LAYER_CHANGE
;0.4
G1 Z.8
G1 X172.374 Y110.863 F10800
G1 Z.4 F720
G1 E.8 F2100
;TYPE:Skirt/Brim
;WIDTH:0.42
G1 F2838
G1 X124.561 Y110.231 E1.49927
G1 X123.683 Y110.083 E.02792
G1 X122.843 Y109.788 E.02791
G1 X122.065 Y109.355 E.02792
G1 X121.371 Y108.797 E.02792
G1 X120.781 Y108.13 E.02792
G1 X120.313 Y107.373 E.0279
G1 X119.979 Y106.547 E.02794
G1 X119.79 Y105.677 E.02791
G1 X119.75 Y104.788 E.0279
G1 X119.979 Y103.453 E.04247
G1 X120.313 Y102.627 E.02794
G1 X120.994 Y101.606 E.03848
G1 X121.689 Y100.923 E.03055
G1 X122.426 Y100.422 E.02794
G1 X123.237 Y100.054 E.02792
G1 X124.561 Y99.769 E.04246
G1 X172.728 Y100.39 E1.51037
G1 X173.918 Y100.564 E.03771
G1 X174.757 Y100.863 E.02793
G1 X175.533 Y101.299 E.02791
G1 X176.225 Y101.859 E.02791
G1 X176.811 Y102.529 E.02791
G1 X177.277 Y103.288 E.02793
G1 X177.714 Y104.525 E.04113
G1 X177.829 Y105.408 E.02792
G1 X177.793 Y106.298 E.02793
G1 X177.607 Y107.169 E.02793
G1 X177.049 Y108.403 E.04246
G1 X176.518 Y109.118 E.02792
G1 X175.874 Y109.733 E.02792
G1 X175.135 Y110.23 E.02792
G1 X174.323 Y110.595 E.02791
G1 X173.04 Y110.871 E.04115
G1 X172.434 Y110.863 E.019
G1 X172.439 Y110.49 F10800
G1 F2838
G1 X124.577 Y109.855 E1.50081
G1 X123.763 Y109.714 E.0259
M73 P7 R9
G1 X122.984 Y109.438 E.02591
G1 X122.263 Y109.034 E.02591
G1 X121.62 Y108.514 E.02593
G1 X121.075 Y107.893 E.02591
G1 X120.642 Y107.189 E.02591
G1 X120.335 Y106.422 E.0259
G1 X120.162 Y105.614 E.02591
G1 X120.162 Y104.386 E.0385
G1 X120.335 Y103.578 E.02591
G1 X120.642 Y102.811 E.0259
G1 X121.288 Y101.843 E.03649
G1 X121.938 Y101.206 E.02854
G1 X122.624 Y100.744 E.02593
G1 X123.377 Y100.404 E.0259
G1 X124.577 Y100.145 E.03849
G1 X172.723 Y100.767 E1.50971
G1 X173.807 Y100.925 E.03435
M73 Q7 S9
G1 X174.587 Y101.199 E.02592
G1 X175.309 Y101.602 E.02593
G1 X175.952 Y102.12 E.02589
G1 X176.499 Y102.74 E.02592
G1 X176.933 Y103.443 E.0259
G1 X177.328 Y104.538 E.0365
G1 X177.453 Y105.44 E.02855
G1 X177.417 Y106.266 E.02592
G1 X177.108 Y107.454 E.03849
G1 X176.737 Y108.192 E.0259
G1 X176.246 Y108.857 E.02592
G1 X175.65 Y109.43 E.02592
G1 X174.965 Y109.893 E.02592
G1 X174.213 Y110.234 E.02589
G1 X172.993 Y110.497 E.03913
G1 X172.499 Y110.491 E.01549
; printing object bearings_axis_square.STL id:0 copy 0
;WIPE_START
G1 F8640
G1 X172.439 Y110.49 E-.01386
G1 X169.035 Y110.445 E-.78614
;WIPE_END
G1 Z.8 F720
G1 X126.455 Y106.16 F10800
G1 Z.4 F720
G1 E.8 F2100
M204 S800
;TYPE:Perimeter
;WIDTH:0.449999
G1 F1500
G1 X125.974 Y106.589 E.02182
G1 X125.556 Y106.773 E.01546
G1 X125.075 Y106.864 E.01657
G1 X124.607 Y106.818 E.01592
G1 X124.156 Y106.666 E.01611
G1 X123.768 Y106.396 E.016
G1 X123.45 Y106.045 E.01603
G1 X123.243 Y105.62 E.016
G1 X123.137 Y105.158 E.01604
G1 X123.163 Y104.686 E.016
G1 X123.295 Y104.232 E.016
G1 X123.549 Y103.833 E.01601
G1 X123.886 Y103.5 E.01604
G1 X124.302 Y103.275 E.01601
G1 X124.759 Y103.149 E.01605
G1 X125.231 Y103.156 E.01598
G1 X125.691 Y103.269 E.01603
G1 X126.1 Y103.505 E.01598
G1 X126.447 Y103.828 E.01605
G1 X126.689 Y104.233 E.01597
G1 X126.834 Y104.685 E.01607
G1 X126.848 Y105.154 E.01588
G1 X126.834 Y105.315 E.00547
G1 X126.694 Y105.756 E.01566
G1 X126.486 Y106.108 E.01384
M204 S1000
G1 X126.768 Y106.425 F10800
M204 S800
;TYPE:External perimeter
G1 F1500
G1 X126.574 Y106.608 E.00903
G1 X126.188 Y106.937 E.01717
G1 X125.652 Y107.169 E.01977
G1 X125.092 Y107.272 E.01927
G1 X124.516 Y107.215 E.01959
G1 X123.972 Y107.031 E.01944
G1 X123.498 Y106.7 E.01957
G1 X123.111 Y106.273 E.01951
G1 X122.859 Y105.754 E.01953
G1 X122.73 Y105.193 E.01948
G1 X122.762 Y104.616 E.01956
G1 X122.923 Y104.063 E.0195
G1 X123.233 Y103.576 E.01954
G1 X123.643 Y103.172 E.01948
G1 X124.151 Y102.897 E.01955
G1 X124.707 Y102.744 E.01952
G1 X125.284 Y102.752 E.01953
G1 X125.843 Y102.89 E.01949
G1 X126.344 Y103.179 E.01958
G1 X126.765 Y103.571 E.01947
G1 X127.061 Y104.068 E.01958
G1 X127.237 Y104.616 E.01948
G1 X127.254 Y105.189 E.0194
G1 X127.237 Y105.384 E.00663
G1 X127.049 Y105.957 E.02041
G1 X126.799 Y106.373 E.01643
M204 S1000
;WIPE_START
G1 F8640
G1 X126.768 Y106.425 E-.01398
G1 X126.574 Y106.608 E-.06158
;WIPE_END
G1 E-.72444 F2100
G1 Z.8 F720
G1 X125.525 Y106.593 F10800
G1 Z.4 F720
G1 E.8 F2100
;TYPE:Top solid infill
;WIDTH:0.419698
G1 F2400
G1 X126.593 Y105.525 E.04732
G1 X126.672 Y104.913 F10800
G1 F2400
G1 X124.909 Y106.676 E.07811
G1 X124.459 Y106.593 F10800
G1 F2400
G1 X126.59 Y104.462 E.09442
G1 X126.415 Y104.104 F10800
G1 F2400
G1 X124.1 Y106.419 E.10257
G1 X123.802 Y106.185 F10800
G1 F2400
G1 X126.178 Y103.808 E.10529
G1 X125.884 Y103.57 F10800
G1 F2400
G1 X123.568 Y105.886 E.10261
G1 X123.4 Y105.521 F10800
G1 F2400
G1 X125.516 Y103.404 E.09377
G1 X125.07 Y103.318 F10800
G1 F2400
G1 X123.317 Y105.071 E.07767
G1 X123.413 Y104.443 F10800
G1 F2400
G1 X124.441 Y103.414 E.04557
; stop printing object bearings_axis_square.STL id:0 copy 0
; printing object bearings_axis_square.STL id:1 copy 0
;WIPE_START
G1 F8640
G1 X123.413 Y104.443 E-.33585
;WIPE_END
G1 E-.46415 F2100
G1 Z.8 F720
G1 X174.044 Y106.801 F10800
G1 Z.4 F720
G1 E.8 F2100
M73 P8 R9
M204 S800
;TYPE:Perimeter
;WIDTH:0.449999
G1 F1500
G1 X173.563 Y107.23 E.02182
G1 X173.145 Y107.414 E.01546
G1 X172.664 Y107.506 E.01658
G1 X172.196 Y107.46 E.01592
G1 X171.745 Y107.308 E.01611
G1 X171.357 Y107.038 E.016
G1 X171.039 Y106.686 E.01606
G1 X170.832 Y106.262 E.01597
G1 X170.726 Y105.8 E.01604
G1 X170.752 Y105.328 E.016
G1 X170.885 Y104.873 E.01605
G1 X171.138 Y104.474 E.01599
G1 X171.475 Y104.142 E.01601
G1 X171.891 Y103.917 E.01601
G1 X172.348 Y103.791 E.01605
G1 X172.82 Y103.798 E.01598
G1 X173.28 Y103.911 E.01603
G1 X173.689 Y104.147 E.01598
G1 X174.036 Y104.47 E.01605
G1 X174.278 Y104.875 E.01597
G1 X174.423 Y105.326 E.01604
G1 X174.437 Y105.796 E.01592
G1 X174.423 Y105.957 E.00547
