; generated by PrusaSlicer 2.7.1+win64 on 2024-03-22 at 15:37:05 UTC


;
;
; 

; external perimeters extrusion width = 0.45mm
; perimeters extrusion width = 0.45mm
; infill extrusion width = 0.45mm
; solid infill extrusion width = 0.45mm
; top infill extrusion width = 0.40mm
; first layer extrusion width = 0.42mm

; external perimeters extrusion width = 0.45mm
; perimeters extrusion width = 0.45mm
; infill extrusion width = 0.45mm
; solid infill extrusion width = 0.45mm
; top infill extrusion width = 0.40mm
; first layer extrusion width = 0.42mm

M73 P0 R3
M73 C3
M73 Q0 S3
M73 D3
M201 X1000 Y1000 Z200 E5000 ; sets maximum accelerations, mm/sec^2
M203 X200 Y200 Z12 E120 ; sets maximum feedrates, mm / sec
M204 S1250 T1250 ; sets acceleration (S) and retract acceleration (R), mm/sec^2
M205 X8.00 Y8.00 Z0.40 E4.50 ; sets the jerk limits, mm/sec
M205 S0 T0 ; sets the minimum extruding and travel feed rate, mm/sec

; printing object bearings_pin.STL id:0 copy 0
; stop printing object bearings_pin.STL id:0 copy 0
; printing object bearings_pin.STL id:1 copy 0
; stop printing object bearings_pin.STL id:1 copy 0

;TYPE:Custom
M862.3 P "MK3SMMU2S" ; printer model check
M862.1 P0.4 ; nozzle diameter check
M115 U3.13.3 ; tell printer latest fw version
G90 ; use absolute coordinates
M83 ; extruder relative mode
M104 S215 ; set extruder temp
M140 S60 ; set bed temp
Tx
M190 S60 ; wait for bed temp
M109 S215 ; wait for extruder temp
G28 W ; home all without mesh bed level
G80 X113.004 Y86.7004 W23.3929 H37.3992 ; mesh bed levelling

;go outside print area
G1 Y-3 F1000
G1 Z0.4 F1000
; select extruder
Tc
; purge line
G1 X55 F2000
G1 Z0.3 F1000
G92 E0
G1 X240 E25 F2200
G1 Y-2 F1000
M73 P3 R3
M73 Q3 S3
G1 X55 E25 F1400
G1 Z0.2 F1000
M73 P7 R3
M73 C2
M73 Q7 S3
M73 D2
G1 X5 E4 F1000

M221 S95
G92 E0

; Don't change E values below. Excessive value can damage the printer.
M907 E430 ; set extruder motor current
G21 ; set units to millimeters
G90 ; use absolute coordinates
M83 ; use relative distances for extrusion

M900 K0.05 ; Filament gcode LA 1.5
M900 K30 ; Filament gcode LA 1.0




M107
;LAYER_CHANGE
;Z:0.2
;HEIGHT:0.2
;BEFORE_LAYER_CHANGE
G92 E0.0
;0.2


G1 E-.8 F2100
M73 P8 R3
M73 Q8 S3
G1 Z.2 F720
;AFTER_LAYER_CHANGE
;0.2
G1 X115.715 Y91.515 F10800
G1 Z.2 F720
M73 P9 R3
M73 Q9 S3
G1 E.8 F2100
M204 S800
;TYPE:Skirt/Brim
;WIDTH:0.42
G1 F1200
G1 X117.27 Y89.86 E.0712
G1 X118.052 Y89.244 E.03121
G1 X118.882 Y88.69 E.03129
G1 X120.957 Y87.717 E.07186
G1 X123.106 Y87.191 E.06937
G1 X126.286 Y87.189 E.09971
G1 X127.748 Y87.502 E.04688
G1 X129.13 Y87.988 E.04593
G1 X130.297 Y88.568 E.04086
G1 X131.759 Y89.553 E.05527
G1 X132.62 Y90.319 E.03613
G1 X133.405 Y91.171 E.03632
G1 X134.364 Y92.515 E.05177
G1 X135.023 Y93.768 E.04439
G1 X135.503 Y95.036 E.04251
G1 X135.815 Y96.283 E.0403
G1 X135.981 Y97.534 E.03957
G1 X135.97 Y99.438 E.0597
G1 X135.806 Y100.565 E.03571
G1 X135.538 Y101.656 E.03522
M73 Q10 S3
G1 X134.856 Y103.389 E.05839
G1 X134.257 Y104.458 E.03842
M73 P10 R3
G1 X133.591 Y105.406 E.03633
G1 X134.459 Y106.672 E.04813
G1 X135.068 Y107.87 E.04214
G1 X135.517 Y109.08 E.04047
G1 X135.813 Y110.27 E.03845
G1 X135.979 Y111.484 E.03842
G1 X135.976 Y113.346 E.05838
G1 X135.591 Y115.485 E.06814
G1 X134.752 Y117.605 E.07149
G1 X133.685 Y119.285 E.0624
G1 X132.129 Y120.94 E.07122
G1 X130.516 Y122.111 E.0625
G1 X128.402 Y123.097 E.07314
G1 X127.258 Y123.422 E.03729
G1 X126.078 Y123.631 E.03757
G1 X124.88 Y123.714 E.03765
G1 X123.682 Y123.672 E.03759
G1 X121.818 Y123.341 E.05936
G1 X120.45 Y122.886 E.0452
G1 X119.289 Y122.336 E.04028
G1 X117.642 Y121.249 E.06187
G1 X116.69 Y120.392 E.04016
G1 X115.963 Y119.59 E.03394
G1 X115.309 Y118.712 E.03433
G1 X114.516 Y117.33 E.04996
M73 Q11 S3
G1 X113.902 Y115.782 E.05222
G1 X113.586 Y114.525 E.04064
M73 P11 R3
G1 X113.418 Y113.256 E.04014
G1 X113.431 Y111.36 E.05945
G1 X113.594 Y110.235 E.03564
G1 X113.862 Y109.145 E.03519
G1 X114.543 Y107.413 E.05835
G1 X115.132 Y106.36 E.03783
G1 X115.812 Y105.39 E.03714
G1 X115.186 Y104.525 E.03348
G1 X114.578 Y103.46 E.03845
G1 X113.9 Y101.775 E.05695
G1 X113.599 Y100.59 E.03833
G1 X113.425 Y99.372 E.03858
G1 X113.423 Y97.455 E.06011
G1 X113.809 Y95.315 E.06818
G1 X114.648 Y93.196 E.07146
G1 X115.683 Y91.566 E.06054
M204 S1000
G1 X116 Y91.768 F10800
M204 S800
G1 F1200
G1 X116.017 Y91.741 E.001
G1 X117.515 Y90.148 E.06856
G1 X119.079 Y89.012 E.06061
G1 X121.077 Y88.075 E.06919
G1 X123.161 Y87.564 E.06728
G1 X126.227 Y87.562 E.09613
G1 X127.635 Y87.862 E.04514
M73 Q12 S3
G1 X128.973 Y88.331 E.04445
G1 X130.097 Y88.889 E.03935
G1 X131.518 Y89.843 E.05366
M73 P12 R3
G1 X132.362 Y90.594 E.03542
G1 X133.12 Y91.417 E.03508
G1 X134.049 Y92.723 E.05025
G1 X134.684 Y93.933 E.04285
G1 X135.146 Y95.158 E.04105
G1 X135.443 Y96.344 E.03833
G1 X135.604 Y97.545 E.03799
G1 X135.593 Y99.422 E.05885
G1 X135.434 Y100.502 E.03423
G1 X135.182 Y101.529 E.03316
G1 X134.51 Y103.238 E.05758
G1 X133.933 Y104.264 E.03691
G1 X133.087 Y105.395 E.04428
G1 X134.129 Y106.854 E.05621
G1 X134.727 Y108.031 E.04139
G1 X135.154 Y109.181 E.03846
G1 X135.44 Y110.331 E.03716
G1 X135.603 Y111.522 E.03769
G1 X135.601 Y113.309 E.05603
G1 X135.226 Y115.387 E.06621
G1 X134.419 Y117.428 E.06881
G1 X133.382 Y119.059 E.0606
G1 X131.885 Y120.653 E.06856
G1 X130.319 Y121.79 E.06068
G1 X128.285 Y122.738 E.07036
M73 Q13 S3
G1 X127.164 Y123.057 E.03654
G1 X126.023 Y123.258 E.03633
M73 P13 R3
G1 X124.865 Y123.337 E.03639
G1 X123.709 Y123.296 E.03627
G1 X121.898 Y122.972 E.05768
G1 X120.6 Y122.541 E.04288
G1 X119.485 Y122.013 E.03868
G1 X117.884 Y120.959 E.0601
G1 X116.963 Y120.132 E.03881
G1 X116.248 Y119.343 E.03339
G1 X115.618 Y118.496 E.0331
G1 X114.862 Y117.179 E.04761
G1 X114.257 Y115.655 E.05141
G1 X113.959 Y114.465 E.03846
G1 X113.795 Y113.245 E.0386
G1 X113.808 Y111.376 E.0586
G1 X113.966 Y110.298 E.03416
G1 X114.218 Y109.271 E.03316
G1 X114.889 Y107.563 E.05754
G1 X115.456 Y106.553 E.03632
G1 X116.3 Y105.419 E.04432
G1 X115.509 Y104.329 E.04223
G1 X114.912 Y103.284 E.03774
G1 X114.262 Y101.67 E.05456
G1 X113.967 Y100.507 E.03762
G1 X113.801 Y99.332 E.03721
G1 X113.799 Y97.493 E.05766
M73 P13 R2
G1 X114.174 Y95.413 E.06627
G1 X114.981 Y93.373 E.06879
M73 Q14 S3
G1 X115.968 Y91.818 E.05775
M204 S1000
G1 X116.286 Y92.02 F10800
M73 P14 R2
M204 S800
G1 F1200
G1 X116.319 Y91.968 E.00193
G1 X117.759 Y90.435 E.06595
G1 X118.495 Y89.854 E.0294
M73 Q14 S2
G1 X119.277 Y89.333 E.02946
G1 X121.197 Y88.433 E.06649
G1 X123.217 Y87.937 E.06522
G1 X126.169 Y87.935 E.09256
G1 X127.522 Y88.222 E.04337
G1 X128.817 Y88.675 E.04302
G1 X129.898 Y89.209 E.0378
G1 X131.277 Y90.134 E.05206
G1 X132.091 Y90.857 E.03414
G1 X132.834 Y91.664 E.03439
G1 X133.734 Y92.931 E.04873
G1 X134.344 Y94.097 E.04126
G1 X134.79 Y95.281 E.03967
G1 X135.071 Y96.405 E.03633
G1 X135.227 Y97.556 E.03642
G1 X135.216 Y99.407 E.05804
G1 X135.062 Y100.438 E.03268
G1 X134.827 Y101.403 E.03114
G1 X134.164 Y103.088 E.05677
G1 X133.619 Y104.055 E.0348
G1 X133.012 Y104.918 E.03308
G1 X132.576 Y105.39 E.02015
G1 X132.968 Y105.831 E.0185
G1 X133.798 Y107.037 E.0459
G1 X134.386 Y108.192 E.04064
G1 X134.79 Y109.283 E.03648
M73 Q15 S2
G1 X135.068 Y110.393 E.03588
G1 X135.228 Y111.56 E.03693
G1 X135.226 Y113.271 E.05365
M73 P15 R2
G1 X134.862 Y115.289 E.06429
G1 X134.085 Y117.251 E.06617
G1 X133.081 Y118.833 E.05875
G1 X131.64 Y120.365 E.06594
G1 X130.121 Y121.468 E.05886
G1 X128.167 Y122.38 E.06761
G1 X127.088 Y122.687 E.03517
G1 X125.987 Y122.882 E.03506
G1 X124.868 Y122.959 E.03517
G1 X123.736 Y122.919 E.03552
G1 X121.978 Y122.603 E.056
G1 X120.751 Y122.195 E.04054
G1 X119.681 Y121.691 E.03708
G1 X118.125 Y120.669 E.05837
G1 X117.235 Y119.871 E.03748
G1 X116.545 Y119.111 E.03219
G1 X115.927 Y118.28 E.03247
G1 X115.207 Y117.027 E.04531
G1 X114.613 Y115.528 E.05056
G1 X114.327 Y114.383 E.037
G1 X114.172 Y113.234 E.03635
G1 X114.185 Y111.392 E.05776
G1 X114.338 Y110.362 E.03265
G1 X114.573 Y109.397 E.03114
G1 X115.235 Y107.713 E.05673
G1 X115.77 Y106.762 E.03421
M73 Q16 S2
G1 X116.387 Y105.883 E.03367
G1 X116.821 Y105.413 E.02006
M73 P16 R2
G1 X115.831 Y104.133 E.05074
G1 X115.246 Y103.108 E.037
G1 X114.625 Y101.564 E.05218
G1 X114.339 Y100.443 E.03627
G1 X114.176 Y99.292 E.03645
G1 X114.174 Y97.53 E.05525
G1 X114.538 Y95.511 E.06432
G1 X115.314 Y93.55 E.06612
G1 X116.254 Y92.071 E.05495
M204 S1000
G1 X116.571 Y92.272 F10800
M204 S800
G1 F1200
G1 X116.621 Y92.194 E.0029
G1 X118.004 Y90.722 E.06333
G1 X119.474 Y89.655 E.05695
G1 X121.317 Y88.791 E.06382
G1 X123.272 Y88.311 E.06312
G1 X126.11 Y88.308 E.08898
G1 X127.41 Y88.582 E.04166
G1 X128.661 Y89.018 E.04154
G1 X129.699 Y89.529 E.03628
G1 X131.037 Y90.424 E.05047
G1 X131.834 Y91.132 E.03343
G1 X132.548 Y91.91 E.03311
G1 X133.419 Y93.138 E.0472
G1 X134.005 Y94.261 E.03972
G1 X134.433 Y95.403 E.03824
G1 X134.702 Y96.486 E.03499
G1 X134.85 Y97.567 E.03421
M73 Q17 S2
G1 X134.839 Y99.391 E.05719
G1 X134.694 Y100.357 E.03063
M73 P17 R2
G1 X134.471 Y101.278 E.02971
G1 X133.829 Y102.915 E.05513
G1 X133.305 Y103.846 E.0335
G1 X132.711 Y104.69 E.03236
G1 X132.066 Y105.386 E.02975
G1 X132.664 Y106.055 E.02813
G1 X133.468 Y107.219 E.04436
G1 X134.045 Y108.353 E.03989
G1 X134.433 Y109.404 E.03513
G1 X134.7 Y110.474 E.03458
G1 X134.852 Y111.598 E.03556
G1 X134.85 Y113.234 E.0513
G1 X134.498 Y115.191 E.06235
G1 X133.752 Y117.074 E.0635
G1 X132.779 Y118.607 E.05693
G1 X131.396 Y120.078 E.06331
G1 X129.924 Y121.146 E.05702
G1 X128.049 Y122.021 E.06488
G1 X126.995 Y122.322 E.03437
G1 X125.931 Y122.509 E.03387
G1 X124.852 Y122.583 E.03391
G1 X123.763 Y122.543 E.03417
G1 X122.059 Y122.235 E.05429
G1 X120.881 Y121.841 E.03895
G1 X119.877 Y121.368 E.0348
G1 X118.366 Y120.378 E.05664
G1 X117.508 Y119.61 E.0361
G1 X116.236 Y118.064 E.06277
M73 Q18 S2
G1 X115.553 Y116.875 E.04299
G1 X114.968 Y115.4 E.04975
M73 P18 R2
G1 X114.699 Y114.322 E.03484
G1 X114.549 Y113.223 E.03478
G1 X114.562 Y111.408 E.05691
G1 X114.706 Y110.443 E.03059
G1 X114.929 Y109.522 E.02971
G1 X115.571 Y107.886 E.0551
G1 X116.084 Y106.971 E.03289
G1 X116.688 Y106.111 E.03295
G1 X117.334 Y105.415 E.02977
G1 X116.815 Y104.845 E.02417
G1 X116.142 Y103.92 E.03587
G1 X115.58 Y102.933 E.03561
G1 X114.979 Y101.436 E.05058
G1 X114.707 Y100.361 E.03477
G1 X114.551 Y99.253 E.03508
G1 X114.55 Y97.567 E.05286
G1 X114.902 Y95.609 E.06238
G1 X115.647 Y93.727 E.06346
G1 X116.539 Y92.323 E.05215
M204 S1000
G1 X116.857 Y92.525 F10800
M204 S800
G1 F1200
G1 X116.923 Y92.421 E.00386
G1 X118.249 Y91.009 E.06073
G1 X118.938 Y90.465 E.02753
G1 X119.671 Y89.977 E.02761
G1 X121.437 Y89.148 E.06117
G1 X123.292 Y88.688 E.05992
G1 X126.052 Y88.681 E.08654
G1 X127.32 Y88.949 E.04064
G1 X128.505 Y89.362 E.03935
M73 Q19 S2
G1 X129.5 Y89.85 E.03475
G1 X130.796 Y90.715 E.04885
M73 P19 R2
G1 X131.563 Y91.395 E.03214
G1 X132.263 Y92.156 E.03242
G1 X133.104 Y93.345 E.04566
G1 X133.665 Y94.424 E.03813
G1 X134.076 Y95.525 E.03685
G1 X134.33 Y96.548 E.03305
G1 X134.473 Y97.578 E.0326
G1 X134.462 Y99.375 E.05634
G1 X134.115 Y101.153 E.0568
G1 X133.494 Y102.742 E.05349
G1 X132.991 Y103.637 E.03219
G1 X132.41 Y104.463 E.03166
G1 X131.554 Y105.381 E.03936
G1 X132.361 Y106.28 E.03788
G1 X133.138 Y107.401 E.04277
G1 X133.704 Y108.514 E.03915
G1 X134.076 Y109.524 E.03375
G1 X134.331 Y110.554 E.03327
G1 X134.477 Y111.636 E.03423
G1 X134.475 Y113.197 E.04894
G1 X134.133 Y115.093 E.06041
G1 X133.419 Y116.897 E.06083
G1 X132.477 Y118.38 E.05509
G1 X131.151 Y119.791 E.06071
G1 X129.727 Y120.824 E.05516
G1 X127.931 Y121.663 E.06215
G1 X126.919 Y121.952 E.033
G1 X125.896 Y122.134 E.03258
M73 Q20 S2
G1 X124.837 Y122.206 E.03328
G1 X123.791 Y122.167 E.03282
M73 P20 R2
G1 X122.14 Y121.866 E.05262
G1 X121.031 Y121.495 E.03667
G1 X120.071 Y121.045 E.03324
G1 X118.606 Y120.088 E.05487
G1 X117.78 Y119.349 E.03475
G1 X116.545 Y117.848 E.06095
G1 X115.898 Y116.724 E.04066
G1 X115.323 Y115.273 E.04894
G1 X115.071 Y114.261 E.0327
G1 X114.926 Y113.212 E.0332
G1 X114.939 Y111.425 E.05603
G1 X115.285 Y109.647 E.05679
G1 X115.906 Y108.059 E.05346
G1 X116.398 Y107.18 E.03158
G1 X116.989 Y106.338 E.03225
G1 X117.847 Y105.418 E.03944
G1 X117.113 Y104.614 E.03413
G1 X116.464 Y103.724 E.03454
G1 X115.925 Y102.78 E.03408
G1 X115.334 Y101.307 E.04976
G1 X115.075 Y100.279 E.03324
G1 X114.926 Y99.214 E.03372
G1 X114.925 Y97.604 E.05048
G1 X115.267 Y95.707 E.06044
G1 X115.981 Y93.904 E.0608
G1 X116.824 Y92.575 E.04935
M204 S1000
G1 X117.142 Y92.777 F10800
M204 S800
G1 F1200
G1 X117.224 Y92.647 E.00482
G1 X118.494 Y91.296 E.05814
G1 X119.868 Y90.299 E.05323
M73 Q21 S2
G1 X121.558 Y89.506 E.05853
M73 P21 R2
G1 X123.349 Y89.061 E.05786
G1 X125.994 Y89.054 E.08293
G1 X127.23 Y89.315 E.03961
G1 X128.35 Y89.705 E.03718
G1 X129.301 Y90.171 E.03321
G1 X130.556 Y91.006 E.04726
G1 X131.305 Y91.67 E.03138
G1 X131.976 Y92.402 E.03114
G1 X132.788 Y93.552 E.04414
G1 X133.325 Y94.587 E.03656
G1 X133.719 Y95.646 E.03543
G1 X133.958 Y96.61 E.03114
G1 X134.096 Y97.59 E.03103
G1 X134.087 Y99.332 E.05462
G1 X133.751 Y101.052 E.05495
G1 X133.147 Y102.592 E.05187
G1 X132.668 Y103.443 E.03062
G1 X132.125 Y104.215 E.02959
G1 X131.011 Y105.41 E.05122
G1 X132.058 Y106.504 E.04748
G1 X132.82 Y107.605 E.04198
G1 X133.363 Y108.674 E.03759
G1 X133.718 Y109.644 E.03239
G1 X133.959 Y110.615 E.03137
G1 X134.102 Y111.673 E.03347
G1 X134.099 Y113.16 E.04662
G1 X133.769 Y114.995 E.05846
G1 X133.085 Y116.72 E.05818
G1 X132.175 Y118.153 E.05322
M73 Q22 S2
G1 X130.906 Y119.504 E.05812
M73 P22 R2
G1 X129.531 Y120.502 E.05327
G1 X127.812 Y121.305 E.05949
G1 X126.843 Y121.583 E.03161
G1 X125.84 Y121.761 E.03194
G1 X124.822 Y121.829 E.03199
G1 X123.819 Y121.79 E.03147
G1 X122.221 Y121.498 E.05093
G1 X121.162 Y121.141 E.03504
G1 X120.266 Y120.722 E.03101
G1 X118.847 Y119.797 E.05311
G1 X118.053 Y119.088 E.03338
G1 X116.855 Y117.632 E.05912
G1 X116.243 Y116.572 E.03838
G1 X115.678 Y115.146 E.04809
G1 X115.44 Y114.18 E.03119
G1 X115.303 Y113.201 E.03099
G1 X115.313 Y111.467 E.05437
G1 X115.649 Y109.748 E.05492
G1 X116.252 Y108.209 E.05183
G1 X116.722 Y107.373 E.03007
G1 X117.274 Y106.586 E.03014
G1 X118.388 Y105.391 E.05122
G1 X117.411 Y104.383 E.04401
G1 X116.786 Y103.527 E.03323
G1 X116.27 Y102.628 E.0325
G1 X115.689 Y101.179 E.04895
G1 X115.447 Y100.217 E.0311
G1 X115.301 Y99.175 E.03299
G1 X115.301 Y97.641 E.0481
G1 X115.631 Y95.805 E.05849
M73 Q23 S2
G1 X116.314 Y94.081 E.05814
M73 P23 R2
G1 X117.11 Y92.828 E.04654
M204 S1000
G1 X117.427 Y93.029 F10800
M204 S800
G1 F1200
G1 X117.526 Y92.874 E.00577
G1 X118.739 Y91.583 E.05554
G1 X119.381 Y91.075 E.02567
G1 X120.065 Y90.62 E.02576
G1 X121.679 Y89.863 E.0559
G1 X123.405 Y89.434 E.05576
G1 X125.935 Y89.427 E.07933
G1 X127.141 Y89.682 E.03865
G1 X128.195 Y90.049 E.03499
G1 X129.104 Y90.492 E.03171
G1 X130.316 Y91.297 E.04562
G1 X131.034 Y91.932 E.03005
G1 X131.69 Y92.648 E.03045
G1 X132.472 Y93.758 E.04257
G1 X132.984 Y94.75 E.035
G1 X133.361 Y95.767 E.03401
G1 X133.719 Y97.602 E.05862
G1 X133.712 Y99.29 E.05293
G1 X133.388 Y100.951 E.05306
G1 X132.801 Y102.441 E.05021
G1 X132.344 Y103.25 E.02913
G1 X131.841 Y103.967 E.02746
G1 X130.426 Y105.4 E.06314
G1 X131.048 Y105.947 E.02597
G1 X131.755 Y106.729 E.03305
G1 X132.503 Y107.809 E.04119
G1 X133.013 Y108.815 E.03536
G1 X133.355 Y109.745 E.03107
M73 Q24 S2
G1 X133.587 Y110.676 E.03008
G1 X133.725 Y111.686 E.03196
M73 P24 R2
G1 X133.724 Y113.123 E.04506
G1 X133.405 Y114.896 E.05648
G1 X132.752 Y116.543 E.05555
G1 X131.873 Y117.927 E.05141
G1 X130.661 Y119.217 E.0555
G1 X129.334 Y120.18 E.05141
G1 X127.694 Y120.946 E.05675
G1 X126.749 Y121.218 E.03083
G1 X125.785 Y121.387 E.03069
G1 X124.807 Y121.452 E.03073
G1 X123.848 Y121.414 E.03009
G1 X122.303 Y121.13 E.04925
G1 X121.311 Y120.794 E.03284
G1 X120.46 Y120.398 E.02943
G1 X119.087 Y119.506 E.05134
G1 X118.325 Y118.827 E.032
G1 X117.164 Y117.416 E.05729
G1 X116.589 Y116.42 E.03606
G1 X116.034 Y115.019 E.04725
G1 X115.681 Y113.188 E.05847
G1 X115.688 Y111.509 E.05264
G1 X116.012 Y109.849 E.05303
G1 X116.598 Y108.359 E.0502
G1 X117.046 Y107.566 E.02856
G1 X117.559 Y106.833 E.02805
G1 X118.973 Y105.401 E.0631
