; generated by PrusaSlicer 2.7.1+win64 on 2024-03-22 at 16:01:51 UTC


;
;
; 

; external perimeters extrusion width = 0.45mm
; perimeters extrusion width = 0.45mm
; infill extrusion width = 0.45mm
; solid infill extrusion width = 0.45mm
; top infill extrusion width = 0.40mm
; support material extrusion width = 0.35mm
; first layer extrusion width = 0.42mm

M73 P0 R6
M73 C3
M73 Q0 S6
M73 D3
M201 X1000 Y1000 Z200 E5000 ; sets maximum accelerations, mm/sec^2
M203 X200 Y200 Z12 E120 ; sets maximum feedrates, mm / sec
M204 S1250 T1250 ; sets acceleration (S) and retract acceleration (R), mm/sec^2
M205 X8.00 Y8.00 Z0.40 E4.50 ; sets the jerk limits, mm/sec
M205 S0 T0 ; sets the minimum extruding and travel feed rate, mm/sec

; printing object Merged id:0 copy 0
; stop printing object Merged id:0 copy 0

;TYPE:Custom
M862.3 P "MK3SMMU2S" ; printer model check
M862.1 P0.4 ; nozzle diameter check
M115 U3.13.3 ; tell printer latest fw version
G90 ; use absolute coordinates
M83 ; extruder relative mode
M104 S215 ; set extruder temp
M140 S60 ; set bed temp
Tx
M190 S60 ; wait for bed temp
M109 S215 ; wait for extruder temp
G28 W ; home all without mesh bed level
G80 X113.004 Y86.7004 W23.3929 H37.3992 ; mesh bed levelling

;go outside print area
G1 Y-3 F1000
G1 Z0.4 F1000
; select extruder
Tc
; purge line
G1 X55 F2000
G1 Z0.3 F1000
G92 E0
G1 X240 E25 F2200
G1 Y-2 F1000
M73 P1 R6
M73 Q1 S6
G1 X55 E25 F1400
G1 Z0.2 F1000
M73 P3 R6
M73 Q3 S6
G1 X5 E4 F1000

M221 S95
G92 E0

; Don't change E values below. Excessive value can damage the printer.
M907 E430 ; set extruder motor current
G21 ; set units to millimeters
G90 ; use absolute coordinates
M83 ; use relative distances for extrusion

M900 K0.05 ; Filament gcode LA 1.5
M900 K30 ; Filament gcode LA 1.0




M107
;LAYER_CHANGE
;Z:0.2
;HEIGHT:0.2
;BEFORE_LAYER_CHANGE
G92 E0.0
;0.2


G1 E-.8 F2100
M73 P4 R6
M73 Q4 S6
G1 Z.2 F720
;AFTER_LAYER_CHANGE
;0.2
G1 X115.715 Y91.515 F10800
G1 Z.2 F720
G1 E.8 F2100
M204 S800
;TYPE:Skirt/Brim
;WIDTH:0.42
G1 F1200
G1 X117.271 Y89.86 E.07122
G1 X118.053 Y89.243 E.03123
M73 Q5 S6
G1 X118.882 Y88.69 E.03125
G1 X120.957 Y87.717 E.07186
G1 X123.106 Y87.191 E.06937
M73 P5 R6
G1 X126.286 Y87.189 E.09971
G1 X127.748 Y87.502 E.04688
G1 X129.129 Y87.988 E.0459
G1 X130.296 Y88.568 E.04086
G1 X131.763 Y89.556 E.05546
G1 X132.621 Y90.32 E.03602
G1 X133.408 Y91.174 E.03641
G1 X134.363 Y92.513 E.05157
G1 X135.02 Y93.76 E.04419
G1 X135.499 Y95.023 E.04235
G1 X135.814 Y96.274 E.04045
G1 X135.981 Y97.531 E.03976
G1 X135.97 Y99.438 E.05979
G1 X135.806 Y100.565 E.03571
G1 X135.537 Y101.659 E.03532
G1 X134.849 Y103.403 E.05878
G1 X134.134 Y104.648 E.04502
G1 X133.582 Y105.392 E.02905
G1 X134.459 Y106.672 E.04865
G1 X135.075 Y107.886 E.04268
G1 X135.508 Y109.051 E.03897
G1 X135.811 Y110.262 E.03914
G1 X135.978 Y111.481 E.03858
G1 X135.976 Y113.346 E.05848
G1 X135.591 Y115.485 E.06814
G1 X134.752 Y117.605 E.07149
G1 X133.682 Y119.288 E.06253
G1 X132.084 Y120.979 E.07295
G1 X131.146 Y121.699 E.03708
G1 X130.149 Y122.317 E.03678
G1 X129.095 Y122.827 E.03671
G1 X127.982 Y123.233 E.03715
G1 X125.695 Y123.676 E.07304
G1 X123.708 Y123.676 E.0623
G1 X121.822 Y123.342 E.06005
G1 X120.492 Y122.903 E.04391
G1 X119.291 Y122.337 E.04163
G1 X117.67 Y121.27 E.06085
G1 X116.722 Y120.424 E.03984
G1 X115.967 Y119.595 E.03516
G1 X115.314 Y118.72 E.03423
G1 X114.513 Y117.326 E.05041
G1 X113.897 Y115.764 E.05265
G1 X113.586 Y114.525 E.04005
G1 X113.419 Y113.274 E.03957
G1 X113.432 Y111.339 E.06067
G1 X113.594 Y110.236 E.03495
G1 X113.854 Y109.169 E.03443
M73 Q6 S6
G1 X114.544 Y107.411 E.05921
G1 X115.143 Y106.342 E.03842
G1 X115.813 Y105.388 E.03655
M73 P6 R6
G1 X115.154 Y104.475 E.0353
G1 X114.546 Y103.394 E.03889
G1 X113.881 Y101.716 E.05659
G1 X113.598 Y100.585 E.03655
G1 X113.429 Y99.422 E.03685
G1 X113.423 Y97.462 E.06145
G1 X113.809 Y95.315 E.0684
G1 X114.648 Y93.195 E.07149
G1 X115.683 Y91.565 E.06054
M204 S1000
G1 X116.001 Y91.767 F10800
M204 S800
G1 F1200
G1 X116.017 Y91.741 E.00096
G1 X117.515 Y90.147 E.06859
G1 X119.08 Y89.012 E.06062
G1 X121.077 Y88.075 E.06916
G1 X123.161 Y87.564 E.06728
G1 X126.227 Y87.562 E.09613
G1 X127.635 Y87.862 E.04514
G1 X128.972 Y88.331 E.04443
G1 X130.096 Y88.888 E.03933
G1 X131.522 Y89.846 E.05386
G1 X132.364 Y90.596 E.03535
G1 X133.123 Y91.421 E.03515
G1 X134.048 Y92.721 E.05003
G1 X134.68 Y93.925 E.04264
G1 X135.143 Y95.146 E.04094
G1 X135.441 Y96.335 E.03843
G1 X135.604 Y97.542 E.03819
G1 X135.593 Y99.422 E.05895
G1 X135.434 Y100.502 E.03423
G1 X135.181 Y101.532 E.03325
G1 X134.503 Y103.252 E.05797
G1 X133.813 Y104.45 E.04335
G1 X133.1 Y105.409 E.03747
G1 X134.128 Y106.854 E.0556
G1 X134.734 Y108.047 E.04195
G1 X135.145 Y109.153 E.03699
G1 X135.439 Y110.323 E.03782
G1 X135.603 Y111.519 E.03785
G1 X135.601 Y113.308 E.05609
G1 X135.226 Y115.387 E.06624
G1 X134.418 Y117.428 E.06883
G1 X133.381 Y119.062 E.06068
G1 X131.842 Y120.689 E.07022
G1 X130.939 Y121.384 E.03573
G1 X129.959 Y121.991 E.03614
G1 X128.939 Y122.483 E.03551
G1 X127.867 Y122.874 E.03578
G1 X125.666 Y123.3 E.07029
G1 X123.736 Y123.299 E.06051
M73 Q7 S6
G1 X121.901 Y122.973 E.05844
M73 P7 R6
G1 X120.621 Y122.549 E.04228
G1 X119.487 Y122.014 E.03931
G1 X117.889 Y120.963 E.05997
G1 X116.981 Y120.149 E.03824
G1 X116.263 Y119.362 E.0334
G1 X115.635 Y118.522 E.03288
G1 X114.859 Y117.174 E.04877
G1 X114.252 Y115.637 E.05181
G1 X113.959 Y114.464 E.03791
G1 X113.796 Y113.263 E.038
G1 X113.807 Y111.381 E.05901
G1 X113.966 Y110.3 E.03426
G1 X114.218 Y109.271 E.03322
G1 X114.89 Y107.562 E.05758
G1 X115.467 Y106.536 E.03691
G1 X116.301 Y105.419 E.04371
G1 X115.478 Y104.281 E.04403
G1 X114.881 Y103.22 E.03817
G1 X114.244 Y101.613 E.0542
G1 X113.966 Y100.503 E.03588
G1 X113.804 Y99.382 E.03551
G1 X113.798 Y97.499 E.05904
G1 X114.174 Y95.413 E.06646
G1 X114.981 Y93.372 E.06881
G1 X115.969 Y91.818 E.05774
M204 S1000
G1 X116.286 Y92.019 F10800
M204 S800
G1 F1200
G1 X116.319 Y91.967 E.00193
G1 X117.76 Y90.435 E.06594
G1 X118.495 Y89.854 E.02938
G1 X119.277 Y89.333 E.02946
G1 X121.197 Y88.433 E.06649
G1 X123.217 Y87.937 E.06522
G1 X126.169 Y87.935 E.09256
G1 X127.522 Y88.222 E.04337
G1 X128.815 Y88.674 E.04295
G1 X129.897 Y89.208 E.03783
G1 X131.281 Y90.136 E.05225
G1 X132.093 Y90.858 E.03407
G1 X132.837 Y91.667 E.03446
G1 X133.733 Y92.929 E.04853
M73 P7 R5
G1 X134.341 Y94.089 E.04106
G1 X134.786 Y95.269 E.03954
G1 X135.069 Y96.397 E.03646
G1 X135.227 Y97.553 E.03658
G1 X135.216 Y99.406 E.0581
G1 X135.062 Y100.438 E.03272
G1 X134.826 Y101.406 E.03124
G1 X134.158 Y103.1 E.05709
G1 X133.492 Y104.251 E.04169
G1 X132.59 Y105.406 E.04595
G1 X132.969 Y105.832 E.01788
G1 X133.798 Y107.036 E.04583
G1 X134.393 Y108.208 E.04121
M73 Q8 S5
G1 X134.788 Y109.274 E.03564
G1 X135.071 Y110.405 E.03655
G1 X135.228 Y111.557 E.03645
M73 P8 R5
G1 X135.226 Y113.271 E.05374
G1 X134.862 Y115.289 E.06429
G1 X134.085 Y117.251 E.06617
G1 X133.079 Y118.835 E.05884
G1 X131.601 Y120.4 E.06749
G1 X130.732 Y121.068 E.03437
G1 X129.786 Y121.655 E.03491
G1 X128.784 Y122.139 E.03489
G1 X127.752 Y122.514 E.03443
G1 X125.636 Y122.923 E.06757
G1 X123.764 Y122.923 E.0587
G1 X121.981 Y122.604 E.05679
G1 X120.771 Y122.203 E.03997
G1 X119.682 Y121.691 E.03773
G1 X118.129 Y120.673 E.05822
G1 X117.253 Y119.888 E.03688
G1 X115.944 Y118.305 E.06441
G1 X115.205 Y117.023 E.0464
G1 X114.607 Y115.51 E.05101
G1 X114.327 Y114.383 E.03641
G1 X114.173 Y113.252 E.03579
G1 X114.184 Y111.397 E.05816
G1 X114.337 Y110.364 E.03274
G1 X114.573 Y109.397 E.03121
G1 X115.236 Y107.712 E.05677
G1 X115.781 Y106.745 E.0348
G1 X116.388 Y105.882 E.03308
G1 X116.829 Y105.403 E.02041
G1 X115.791 Y104.071 E.05295
G1 X115.216 Y103.046 E.03685
G1 X114.607 Y101.509 E.05184
G1 X114.338 Y100.439 E.03459
G1 X114.179 Y99.341 E.03479
G1 X114.174 Y97.536 E.05659
G1 X114.538 Y95.511 E.06451
G1 X115.315 Y93.549 E.06617
G1 X116.254 Y92.07 E.05493
M204 S1000
G1 X116.572 Y92.272 F10800
M204 S800
G1 F1200
G1 X116.621 Y92.194 E.00289
G1 X118.004 Y90.722 E.06333
G1 X119.474 Y89.655 E.05695
G1 X121.317 Y88.791 E.06382
G1 X123.272 Y88.311 E.06312
G1 X126.11 Y88.308 E.08898
G1 X127.409 Y88.582 E.04163
G1 X128.659 Y89.017 E.0415
G1 X129.698 Y89.529 E.03632
G1 X131.04 Y90.427 E.05063
G1 X131.835 Y91.134 E.03336
M73 Q9 S5
G1 X132.551 Y91.913 E.03317
G1 X133.418 Y93.136 E.047
G1 X134.001 Y94.253 E.03951
M73 P9 R5
G1 X134.429 Y95.392 E.03815
G1 X134.701 Y96.478 E.0351
G1 X134.85 Y97.564 E.03437
G1 X134.839 Y99.391 E.05729
G1 X134.694 Y100.357 E.03063
G1 X134.47 Y101.28 E.02978
G1 X133.824 Y102.924 E.05538
G1 X133.183 Y104.035 E.04022
G1 X132.08 Y105.402 E.05507
G1 X132.666 Y106.057 E.02756
G1 X133.468 Y107.218 E.04424
G1 X134.052 Y108.369 E.04047
G1 X134.43 Y109.395 E.03428
G1 X134.698 Y110.466 E.03462
G1 X134.852 Y111.595 E.03573
G1 X134.85 Y113.234 E.05139
G1 X134.498 Y115.191 E.06235
G1 X133.752 Y117.074 E.0635
G1 X132.777 Y118.609 E.05702
G1 X131.359 Y120.11 E.06474
G1 X130.51 Y120.764 E.0336
G1 X129.596 Y121.33 E.03371
G1 X128.629 Y121.795 E.03364
G1 X127.637 Y122.155 E.03309
G1 X125.607 Y122.547 E.06483
G1 X123.792 Y122.547 E.05691
G1 X122.061 Y122.235 E.05515
G1 X120.901 Y121.849 E.03833
G1 X119.878 Y121.369 E.03543
G1 X118.37 Y120.382 E.05651
G1 X117.525 Y119.627 E.03553
G1 X116.253 Y118.089 E.06258
G1 X115.55 Y116.871 E.04409
G1 X114.963 Y115.383 E.05015
G1 X114.699 Y114.322 E.03428
G1 X114.551 Y113.241 E.03421
G1 X114.561 Y111.412 E.05735
G1 X114.706 Y110.444 E.03069
G1 X114.929 Y109.523 E.02971
G1 X115.571 Y107.885 E.05516
G1 X116.095 Y106.954 E.0335
G1 X116.689 Y106.11 E.03236
G1 X117.346 Y105.402 E.03028
G1 X116.757 Y104.774 E.027
G1 X116.104 Y103.86 E.03522
G1 X115.551 Y102.873 E.03547
G1 X114.962 Y101.382 E.05026
G1 X114.706 Y100.358 E.03309
G1 X114.555 Y99.3 E.03351
M73 C2
G1 X114.549 Y97.573 E.05415
G1 X114.902 Y95.609 E.06257
G1 X115.648 Y93.726 E.0635
G1 X116.539 Y92.322 E.05214
M204 S1000
G1 X116.857 Y92.524 F10800
M73 Q10 S5
M73 D2
M204 S800
G1 F1200
G1 X116.923 Y92.42 E.00386
G1 X118.249 Y91.009 E.06071
G1 X118.938 Y90.464 E.02754
M73 P10 R5
G1 X119.671 Y89.977 E.02759
G1 X121.437 Y89.148 E.06117
G1 X123.292 Y88.688 E.05992
G1 X126.052 Y88.681 E.08654
G1 X127.32 Y88.948 E.04063
G1 X128.503 Y89.361 E.03929
G1 X129.499 Y89.849 E.03478
G1 X130.8 Y90.718 E.04905
G1 X131.564 Y91.396 E.03203
G1 X132.265 Y92.159 E.03249
G1 X133.103 Y93.344 E.04551
G1 X133.661 Y94.417 E.03792
G1 X134.072 Y95.514 E.03673
G1 X134.329 Y96.54 E.03316
G1 X134.473 Y97.576 E.0328
G1 X134.462 Y99.375 E.05641
G1 X134.114 Y101.155 E.05687
G1 X133.49 Y102.748 E.05364
G1 X132.874 Y103.818 E.03871
G1 X132.227 Y104.686 E.03394
G1 X131.57 Y105.398 E.03038
G1 X132.363 Y106.281 E.03721
G1 X133.137 Y107.4 E.04266
G1 X133.711 Y108.529 E.03971
G1 X134.073 Y109.515 E.03293
G1 X134.33 Y110.547 E.03335
G1 X134.477 Y111.633 E.03436
G1 X134.475 Y113.197 E.04904
G1 X134.133 Y115.093 E.06041
G1 X133.419 Y116.897 E.06083
G1 X132.476 Y118.382 E.05516
G1 X131.117 Y119.821 E.06206
G1 X130.303 Y120.449 E.03224
G1 X129.423 Y120.994 E.03245
G1 X128.492 Y121.444 E.03242
G1 X127.523 Y121.795 E.03231
G1 X125.577 Y122.171 E.06214
G1 X123.821 Y122.171 E.05506
G1 X122.142 Y121.867 E.0535
G1 X121.051 Y121.502 E.03607
G1 X120.072 Y121.045 E.03388
G1 X118.61 Y120.091 E.05474
G1 X117.797 Y119.365 E.03418
G1 X116.562 Y117.872 E.06075
G1 X115.896 Y116.72 E.04172
G1 X115.318 Y115.256 E.04935
G1 X115.071 Y114.26 E.03217
G1 X114.928 Y113.229 E.03264
G1 X114.938 Y111.428 E.05647
G1 X115.285 Y109.648 E.05686
G1 X115.906 Y108.058 E.05352
G1 X116.409 Y107.163 E.03219
G1 X116.99 Y106.337 E.03166
M73 Q11 S5
G1 X117.864 Y105.4 E.04018
G1 X117.056 Y104.544 E.03691
G1 X116.427 Y103.666 E.03386
M73 P11 R5
G1 X115.897 Y102.723 E.03392
G1 X115.318 Y101.255 E.04948
G1 X115.074 Y100.276 E.03163
G1 X114.93 Y99.26 E.03217
G1 X114.925 Y97.609 E.05177
G1 X115.267 Y95.707 E.06059
G1 X115.981 Y93.903 E.06083
G1 X116.825 Y92.575 E.04934
M204 S1000
G1 X117.142 Y92.776 F10800
M204 S800
G1 F1200
G1 X117.225 Y92.647 E.00481
G1 X118.494 Y91.296 E.05812
G1 X119.868 Y90.298 E.05325
G1 X121.558 Y89.506 E.05852
G1 X123.349 Y89.061 E.05786
G1 X125.994 Y89.054 E.08293
G1 X127.23 Y89.315 E.03961
G1 X128.348 Y89.705 E.03713
G1 X129.301 Y90.17 E.03325
G1 X130.559 Y91.008 E.04739
G1 X131.306 Y91.671 E.03132
G1 X131.979 Y92.405 E.03122
G1 X132.787 Y93.55 E.04394
G1 X133.321 Y94.58 E.03638
G1 X133.715 Y95.636 E.03534
G1 X133.957 Y96.603 E.03125
G1 X134.095 Y97.588 E.03119
G1 X134.087 Y99.332 E.05468
G1 X133.751 Y101.054 E.05501
G1 X133.145 Y102.597 E.05198
G1 X132.553 Y103.62 E.03706
G1 X131.931 Y104.452 E.03257
G1 X131.001 Y105.401 E.04166
G1 X132.06 Y106.506 E.04799
G1 X132.82 Y107.604 E.04187
G1 X133.369 Y108.689 E.03813
G1 X133.715 Y109.635 E.03158
G1 X133.958 Y110.608 E.03144
G1 X134.101 Y111.671 E.03363
G1 X134.099 Y113.16 E.04669
G1 X133.769 Y114.994 E.05843
G1 X133.085 Y116.72 E.05821
G1 X132.174 Y118.155 E.05329
G1 X130.874 Y119.531 E.05935
G1 X130.08 Y120.144 E.03145
G1 X129.233 Y120.668 E.03123
G1 X128.337 Y121.1 E.03119
G1 X127.408 Y121.436 E.03097
G1 X125.548 Y121.795 E.0594
G1 X123.85 Y121.794 E.05324
G1 X122.223 Y121.498 E.05185
G1 X121.181 Y121.148 E.03446
G1 X120.267 Y120.722 E.03162
G1 X118.85 Y119.8 E.05301
G1 X118.068 Y119.103 E.03284
G1 X116.87 Y117.655 E.05893
M73 Q12 S5
G1 X116.241 Y116.568 E.03938
M73 P12 R5
G1 X115.673 Y115.13 E.04848
G1 X115.305 Y113.217 E.06108
G1 X115.313 Y111.47 E.05478
G1 X115.649 Y109.749 E.05498
G1 X116.253 Y108.208 E.0519
G1 X116.733 Y107.357 E.03063
G1 X117.275 Y106.585 E.02958
G1 X118.382 Y105.397 E.05091
G1 X117.354 Y104.313 E.04684
G1 X116.751 Y103.472 E.03245
G1 X116.243 Y102.572 E.0324
G1 X115.673 Y101.129 E.04865
G1 X115.443 Y100.196 E.03013
G1 X115.305 Y99.22 E.03091
G1 X115.3 Y97.646 E.04935
G1 X115.631 Y95.806 E.05862
G1 X116.314 Y94.08 E.0582
G1 X117.11 Y92.827 E.04654
M204 S1000
G1 X117.428 Y93.029 F10800
M204 S800
G1 F1200
G1 X117.526 Y92.873 E.00578
G1 X118.739 Y91.583 E.05552
G1 X119.381 Y91.075 E.02567
G1 X120.065 Y90.62 E.02576
G1 X121.679 Y89.863 E.0559
G1 X123.405 Y89.434 E.05576
G1 X125.935 Y89.427 E.07933
G1 X127.141 Y89.681 E.03864
G1 X128.193 Y90.049 E.03494
G1 X129.103 Y90.492 E.03173
G1 X130.319 Y91.299 E.04576
G1 X131.035 Y91.933 E.02999
G1 X131.693 Y92.651 E.03054
G1 X132.471 Y93.757 E.0424
G1 X132.981 Y94.743 E.03481
G1 X133.358 Y95.757 E.03392
G1 X133.718 Y97.6 E.05888
G1 X133.712 Y99.29 E.05299
G1 X133.387 Y100.953 E.05313
G1 X132.799 Y102.445 E.05028
G1 X132.232 Y103.421 E.03539
G1 X131.648 Y104.203 E.0306
G1 X130.428 Y105.4 E.05359
G1 X131.048 Y105.946 E.0259
G1 X131.757 Y106.731 E.03317
G1 X132.502 Y107.808 E.04106
G1 X133.019 Y108.83 E.03591
G1 X133.352 Y109.737 E.03029
G1 X133.585 Y110.669 E.03012
G1 X133.724 Y111.684 E.03212
G1 X133.724 Y113.123 E.04512
G1 X133.405 Y114.896 E.05648
G1 X132.752 Y116.543 E.05555
G1 X131.872 Y117.928 E.05145
G1 X130.632 Y119.242 E.05665
G1 X129.06 Y120.333 E.06
G1 X127.294 Y121.076 E.06007
M73 Q13 S5
G1 X125.518 Y121.419 E.05671
M73 P13 R5
G1 X123.879 Y121.418 E.05139
G1 X122.305 Y121.13 E.05017
G1 X121.33 Y120.802 E.03225
G1 X120.461 Y120.398 E.03005
G1 X119.09 Y119.508 E.05125
G1 X118.34 Y118.841 E.03147
G1 X117.179 Y117.438 E.0571
G1 X116.587 Y116.416 E.03703
G1 X116.029 Y115.003 E.04763
G1 X115.682 Y113.204 E.05745
G1 X115.688 Y111.512 E.05305
G1 X116.012 Y109.85 E.05309
G1 X116.599 Y108.359 E.05024
G1 X117.056 Y107.55 E.02913
G1 X117.559 Y106.832 E.02749
G1 X118.972 Y105.401 E.06306
G1 X117.637 Y104.063 E.05926
G1 X117.074 Y103.277 E.03031
G1 X116.589 Y102.421 E.03085
G1 X116.028 Y101.002 E.04784
G1 X115.815 Y100.133 E.02805
G1 X115.68 Y99.18 E.03018
G1 X115.676 Y97.683 E.04694
G1 X115.995 Y95.904 E.05667
G1 X116.648 Y94.257 E.05555
G1 X117.396 Y93.079 E.04375
M204 S1000
G1 X117.713 Y93.281 F10800
M204 S800
G1 F1200
G1 X117.828 Y93.1 E.00672
G1 X118.984 Y91.87 E.05293
G1 X120.262 Y90.942 E.04952
G1 X121.799 Y90.221 E.05323
G1 X123.462 Y89.808 E.05373
G1 X125.877 Y89.8 E.07572
G1 X127.051 Y90.048 E.03762
G1 X128.038 Y90.393 E.03278
G1 X128.905 Y90.813 E.03021
G1 X130.079 Y91.591 E.04416
G1 X131.406 Y92.897 E.05838
G1 X132.155 Y93.963 E.04085
